(G-CODE GENERATED BY FLATCAM v8.993 - www.flatcam.org - Version Date: 2020/06/05)

(Name: cutout)
(Type: G-code from Geometry)
(Units: MM)

(Created on Tuesday, 29 December 2020 at 14:26)

(This preprocessor is the default preprocessor used by FlatCAM.)
(It is made to work with MACH3 compatible motion controllers.)

(TOOL DIAMETER: 1.6 mm)
(Feedrate_XY: 120.0 mm/min)
(Feedrate_Z: 60.0 mm/min)
(Feedrate rapids 1500.0 mm/min)

(Z_Cut: -2.4 mm)
(DepthPerCut: 0.6 mm <=>4 passes)
(Z_Move: 2.0 mm)
(Z Start: None mm)
(Z End: 15.0 mm)
(Steps per circle: 64)
(Preprocessor Geometry: default)

(X range:   -0.4646 ...   81.9224  mm)
(Y range:   -0.4646 ...   79.0268  mm)

(Spindle Speed: 8000 RPM)
G21
G90
G94



G01 F120.00
G00 Z2.0000

M03 S8000
G00 X-0.4646 Y38.3311
G01 F60.00
G01 Z-0.6000
G01 F120.00
G01 X-0.4646 Y0.4354
G01 X-0.4603 Y0.3472
G01 X-0.4473 Y0.2598
G01 X-0.4258 Y0.1741
G01 X-0.3961 Y0.0910
G01 X-0.3583 Y0.0111
G01 X-0.3129 Y-0.0646
G01 X-0.2603 Y-0.1356
G01 X-0.2010 Y-0.2010
G01 X-0.1356 Y-0.2603
G01 X-0.0646 Y-0.3129
G01 X0.0111 Y-0.3583
G01 X0.0910 Y-0.3961
G01 X0.1741 Y-0.4258
G01 X0.2598 Y-0.4473
G01 X0.3472 Y-0.4603
G01 X0.4354 Y-0.4646
G01 X81.0224 Y-0.4646
G00 X81.0224 Y-0.4646
G01 F60.00
G01 Z-1.2000
G01 F120.00
G01 X0.4354 Y-0.4646
G01 X0.3472 Y-0.4603
G01 X0.2598 Y-0.4473
G01 X0.1741 Y-0.4258
G01 X0.0910 Y-0.3961
G01 X0.0111 Y-0.3583
G01 X-0.0646 Y-0.3129
G01 X-0.1356 Y-0.2603
G01 X-0.2010 Y-0.2010
G01 X-0.2603 Y-0.1356
G01 X-0.3129 Y-0.0646
G01 X-0.3583 Y0.0111
G01 X-0.3961 Y0.0910
G01 X-0.4258 Y0.1741
G01 X-0.4473 Y0.2598
G01 X-0.4603 Y0.3472
G01 X-0.4646 Y0.4354
G01 X-0.4646 Y38.3311
G00 X-0.4646 Y38.3311
G01 F60.00
G01 Z-1.8000
G01 F120.00
G01 X-0.4646 Y0.4354
G01 X-0.4603 Y0.3472
G01 X-0.4473 Y0.2598
G01 X-0.4258 Y0.1741
G01 X-0.3961 Y0.0910
G01 X-0.3583 Y0.0111
G01 X-0.3129 Y-0.0646
G01 X-0.2603 Y-0.1356
G01 X-0.2010 Y-0.2010
G01 X-0.1356 Y-0.2603
G01 X-0.0646 Y-0.3129
G01 X0.0111 Y-0.3583
G01 X0.0910 Y-0.3961
G01 X0.1741 Y-0.4258
G01 X0.2598 Y-0.4473
G01 X0.3472 Y-0.4603
G01 X0.4354 Y-0.4646
G01 X81.0224 Y-0.4646
G00 X81.0224 Y-0.4646
G01 F60.00
G01 Z-2.4000
G01 F120.00
G01 X0.4354 Y-0.4646
G01 X0.3472 Y-0.4603
G01 X0.2598 Y-0.4473
G01 X0.1741 Y-0.4258
G01 X0.0910 Y-0.3961
G01 X0.0111 Y-0.3583
G01 X-0.0646 Y-0.3129
G01 X-0.1356 Y-0.2603
G01 X-0.2010 Y-0.2010
G01 X-0.2603 Y-0.1356
G01 X-0.3129 Y-0.0646
G01 X-0.3583 Y0.0111
G01 X-0.3961 Y0.0910
G01 X-0.4258 Y0.1741
G01 X-0.4473 Y0.2598
G01 X-0.4603 Y0.3472
G01 X-0.4646 Y0.4354
G01 X-0.4646 Y38.3311
G00 Z2.0000
G00 X-0.4646 Y40.4311
G01 F60.00
G01 Z-0.6000
G01 F120.00
G01 X-0.4646 Y78.1268
G01 X-0.4603 Y78.2150
G01 X-0.4473 Y78.3024
G01 X-0.4258 Y78.3881
G01 X-0.3961 Y78.4712
G01 X-0.3583 Y78.5511
G01 X-0.3129 Y78.6268
G01 X-0.2603 Y78.6978
G01 X-0.2010 Y78.7632
G01 X-0.1356 Y78.8225
G01 X-0.0646 Y78.8751
G01 X0.0111 Y78.9205
G01 X0.0910 Y78.9583
G01 X0.1741 Y78.9880
G01 X0.2598 Y79.0095
G01 X0.3472 Y79.0225
G01 X0.4354 Y79.0268
G01 X81.0224 Y79.0268
G01 X81.1106 Y79.0225
G01 X81.1980 Y79.0095
G01 X81.2837 Y78.9880
G01 X81.3668 Y78.9583
G01 X81.4467 Y78.9205
G01 X81.5224 Y78.8751
G01 X81.5934 Y78.8225
G01 X81.6588 Y78.7632
G01 X81.7181 Y78.6978
G01 X81.7707 Y78.6268
G01 X81.8161 Y78.5511
G01 X81.8539 Y78.4712
G01 X81.8836 Y78.3881
G01 X81.9051 Y78.3024
G01 X81.9181 Y78.2150
G01 X81.9224 Y78.1268
G01 X81.9224 Y40.4311
G00 X81.9224 Y40.4311
G01 F60.00
G01 Z-1.2000
G01 F120.00
G01 X81.9224 Y78.1268
G01 X81.9181 Y78.2150
G01 X81.9051 Y78.3024
G01 X81.8836 Y78.3881
G01 X81.8539 Y78.4712
G01 X81.8161 Y78.5511
G01 X81.7707 Y78.6268
G01 X81.7181 Y78.6978
G01 X81.6588 Y78.7632
G01 X81.5934 Y78.8225
G01 X81.5224 Y78.8751
G01 X81.4467 Y78.9205
G01 X81.3668 Y78.9583
G01 X81.2837 Y78.9880
G01 X81.1980 Y79.0095
G01 X81.1106 Y79.0225
G01 X81.0224 Y79.0268
G01 X0.4354 Y79.0268
G01 X0.3472 Y79.0225
G01 X0.2598 Y79.0095
G01 X0.1741 Y78.9880
G01 X0.0910 Y78.9583
G01 X0.0111 Y78.9205
G01 X-0.0646 Y78.8751
G01 X-0.1356 Y78.8225
G01 X-0.2010 Y78.7632
G01 X-0.2603 Y78.6978
G01 X-0.3129 Y78.6268
G01 X-0.3583 Y78.5511
G01 X-0.3961 Y78.4712
G01 X-0.4258 Y78.3881
G01 X-0.4473 Y78.3024
G01 X-0.4603 Y78.2150
G01 X-0.4646 Y78.1268
G01 X-0.4646 Y40.4311
G00 X-0.4646 Y40.4311
G01 F60.00
G01 Z-1.8000
G01 F120.00
G01 X-0.4646 Y78.1268
G01 X-0.4603 Y78.2150
G01 X-0.4473 Y78.3024
G01 X-0.4258 Y78.3881
G01 X-0.3961 Y78.4712
G01 X-0.3583 Y78.5511
G01 X-0.3129 Y78.6268
G01 X-0.2603 Y78.6978
G01 X-0.2010 Y78.7632
G01 X-0.1356 Y78.8225
G01 X-0.0646 Y78.8751
G01 X0.0111 Y78.9205
G01 X0.0910 Y78.9583
G01 X0.1741 Y78.9880
G01 X0.2598 Y79.0095
G01 X0.3472 Y79.0225
G01 X0.4354 Y79.0268
G01 X81.0224 Y79.0268
G01 X81.1106 Y79.0225
G01 X81.1980 Y79.0095
G01 X81.2837 Y78.9880
G01 X81.3668 Y78.9583
G01 X81.4467 Y78.9205
G01 X81.5224 Y78.8751
G01 X81.5934 Y78.8225
G01 X81.6588 Y78.7632
G01 X81.7181 Y78.6978
G01 X81.7707 Y78.6268
G01 X81.8161 Y78.5511
G01 X81.8539 Y78.4712
G01 X81.8836 Y78.3881
G01 X81.9051 Y78.3024
G01 X81.9181 Y78.2150
G01 X81.9224 Y78.1268
G01 X81.9224 Y40.4311
G00 X81.9224 Y40.4311
G01 F60.00
G01 Z-2.4000
G01 F120.00
G01 X81.9224 Y78.1268
G01 X81.9181 Y78.2150
G01 X81.9051 Y78.3024
G01 X81.8836 Y78.3881
G01 X81.8539 Y78.4712
G01 X81.8161 Y78.5511
G01 X81.7707 Y78.6268
G01 X81.7181 Y78.6978
G01 X81.6588 Y78.7632
G01 X81.5934 Y78.8225
G01 X81.5224 Y78.8751
G01 X81.4467 Y78.9205
G01 X81.3668 Y78.9583
G01 X81.2837 Y78.9880
G01 X81.1980 Y79.0095
G01 X81.1106 Y79.0225
G01 X81.0224 Y79.0268
G01 X0.4354 Y79.0268
G01 X0.3472 Y79.0225
G01 X0.2598 Y79.0095
G01 X0.1741 Y78.9880
G01 X0.0910 Y78.9583
G01 X0.0111 Y78.9205
G01 X-0.0646 Y78.8751
G01 X-0.1356 Y78.8225
G01 X-0.2010 Y78.7632
G01 X-0.2603 Y78.6978
G01 X-0.3129 Y78.6268
G01 X-0.3583 Y78.5511
G01 X-0.3961 Y78.4712
G01 X-0.4258 Y78.3881
G01 X-0.4473 Y78.3024
G01 X-0.4603 Y78.2150
G01 X-0.4646 Y78.1268
G01 X-0.4646 Y40.4311
G00 Z2.0000
G00 X81.9224 Y38.3311
G01 F60.00
G01 Z-0.6000
G01 F120.00
G01 X81.9224 Y0.4354
G01 X81.9181 Y0.3472
G01 X81.9051 Y0.2598
G01 X81.8836 Y0.1741
G01 X81.8539 Y0.0910
G01 X81.8161 Y0.0111
G01 X81.7707 Y-0.0646
G01 X81.7181 Y-0.1356
G01 X81.6588 Y-0.2010
G01 X81.5934 Y-0.2603
G01 X81.5224 Y-0.3129
G01 X81.4467 Y-0.3583
G01 X81.3668 Y-0.3961
G01 X81.2837 Y-0.4258
G01 X81.1980 Y-0.4473
G01 X81.1106 Y-0.4603
G01 X81.0224 Y-0.4646
G00 X81.0224 Y-0.4646
G01 F60.00
G01 Z-1.2000
G01 F120.00
G01 X81.1106 Y-0.4603
G01 X81.1980 Y-0.4473
G01 X81.2837 Y-0.4258
G01 X81.3668 Y-0.3961
G01 X81.4467 Y-0.3583
G01 X81.5224 Y-0.3129
G01 X81.5934 Y-0.2603
G01 X81.6588 Y-0.2010
G01 X81.7181 Y-0.1356
G01 X81.7707 Y-0.0646
G01 X81.8161 Y0.0111
G01 X81.8539 Y0.0910
G01 X81.8836 Y0.1741
G01 X81.9051 Y0.2598
G01 X81.9181 Y0.3472
G01 X81.9224 Y0.4354
G01 X81.9224 Y38.3311
G00 X81.9224 Y38.3311
G01 F60.00
G01 Z-1.8000
G01 F120.00
G01 X81.9224 Y0.4354
G01 X81.9181 Y0.3472
G01 X81.9051 Y0.2598
G01 X81.8836 Y0.1741
G01 X81.8539 Y0.0910
G01 X81.8161 Y0.0111
G01 X81.7707 Y-0.0646
G01 X81.7181 Y-0.1356
G01 X81.6588 Y-0.2010
G01 X81.5934 Y-0.2603
G01 X81.5224 Y-0.3129
G01 X81.4467 Y-0.3583
G01 X81.3668 Y-0.3961
G01 X81.2837 Y-0.4258
G01 X81.1980 Y-0.4473
G01 X81.1106 Y-0.4603
G01 X81.0224 Y-0.4646
G00 X81.0224 Y-0.4646
G01 F60.00
G01 Z-2.4000
G01 F120.00
G01 X81.1106 Y-0.4603
G01 X81.1980 Y-0.4473
G01 X81.2837 Y-0.4258
G01 X81.3668 Y-0.3961
G01 X81.4467 Y-0.3583
G01 X81.5224 Y-0.3129
G01 X81.5934 Y-0.2603
G01 X81.6588 Y-0.2010
G01 X81.7181 Y-0.1356
G01 X81.7707 Y-0.0646
G01 X81.8161 Y0.0111
G01 X81.8539 Y0.0910
G01 X81.8836 Y0.1741
G01 X81.9051 Y0.2598
G01 X81.9181 Y0.3472
G01 X81.9224 Y0.4354
G01 X81.9224 Y38.3311
G00 Z2.0000
M05
G00 Z2.0000
G00 Z15.00

