(G-CODE GENERATED BY FLATCAM v8.993 - www.flatcam.org - Version Date: 2020/06/05)

(Name: cutout)
(Type: G-code from Geometry)
(Units: MM)

(Created on Tuesday, 05 January 2021 at 11:43)

(This preprocessor is the default preprocessor used by FlatCAM.)
(It is made to work with MACH3 compatible motion controllers.)

(TOOL DIAMETER: 1.6 mm)
(Feedrate_XY: 120.0 mm/min)
(Feedrate_Z: 60.0 mm/min)
(Feedrate rapids 1500.0 mm/min)

(Z_Cut: -2.4 mm)
(DepthPerCut: 0.6 mm <=>4 passes)
(Z_Move: 2.0 mm)
(Z Start: None mm)
(Z End: 15.0 mm)
(Steps per circle: 64)
(Preprocessor Geometry: default)

(X range:   -0.5156 ...   60.9168  mm)
(Y range:   -0.5410 ...   54.2112  mm)

(Spindle Speed: 8000 RPM)
G21
G90
G94



G01 F120.00
G00 Z2.0000

M03 S8000
G00 X-0.5156 Y25.8851
G01 F60.00
G01 Z-0.6000
G01 F120.00
G01 X-0.5156 Y0.3590
G01 X-0.5113 Y0.2708
G01 X-0.4983 Y0.1834
G01 X-0.4768 Y0.0977
G01 X-0.4471 Y0.0146
G01 X-0.4093 Y-0.0653
G01 X-0.3639 Y-0.1410
G01 X-0.3113 Y-0.2120
G01 X-0.2520 Y-0.2774
G01 X-0.1866 Y-0.3367
G01 X-0.1156 Y-0.3893
G01 X-0.0399 Y-0.4347
G01 X0.0400 Y-0.4725
G01 X0.1231 Y-0.5022
G01 X0.2088 Y-0.5237
G01 X0.2962 Y-0.5367
G01 X0.3844 Y-0.5410
G01 X60.0168 Y-0.5410
G00 X60.0168 Y-0.5410
G01 F60.00
G01 Z-1.2000
G01 F120.00
G01 X0.3844 Y-0.5410
G01 X0.2962 Y-0.5367
G01 X0.2088 Y-0.5237
G01 X0.1231 Y-0.5022
G01 X0.0400 Y-0.4725
G01 X-0.0399 Y-0.4347
G01 X-0.1156 Y-0.3893
G01 X-0.1866 Y-0.3367
G01 X-0.2520 Y-0.2774
G01 X-0.3113 Y-0.2120
G01 X-0.3639 Y-0.1410
G01 X-0.4093 Y-0.0653
G01 X-0.4471 Y0.0146
G01 X-0.4768 Y0.0977
G01 X-0.4983 Y0.1834
G01 X-0.5113 Y0.2708
G01 X-0.5156 Y0.3590
G01 X-0.5156 Y25.8851
G00 X-0.5156 Y25.8851
G01 F60.00
G01 Z-1.8000
G01 F120.00
G01 X-0.5156 Y0.3590
G01 X-0.5113 Y0.2708
G01 X-0.4983 Y0.1834
G01 X-0.4768 Y0.0977
G01 X-0.4471 Y0.0146
G01 X-0.4093 Y-0.0653
G01 X-0.3639 Y-0.1410
G01 X-0.3113 Y-0.2120
G01 X-0.2520 Y-0.2774
G01 X-0.1866 Y-0.3367
G01 X-0.1156 Y-0.3893
G01 X-0.0399 Y-0.4347
G01 X0.0400 Y-0.4725
G01 X0.1231 Y-0.5022
G01 X0.2088 Y-0.5237
G01 X0.2962 Y-0.5367
G01 X0.3844 Y-0.5410
G01 X60.0168 Y-0.5410
G00 X60.0168 Y-0.5410
G01 F60.00
G01 Z-2.4000
G01 F120.00
G01 X0.3844 Y-0.5410
G01 X0.2962 Y-0.5367
G01 X0.2088 Y-0.5237
G01 X0.1231 Y-0.5022
G01 X0.0400 Y-0.4725
G01 X-0.0399 Y-0.4347
G01 X-0.1156 Y-0.3893
G01 X-0.1866 Y-0.3367
G01 X-0.2520 Y-0.2774
G01 X-0.3113 Y-0.2120
G01 X-0.3639 Y-0.1410
G01 X-0.4093 Y-0.0653
G01 X-0.4471 Y0.0146
G01 X-0.4768 Y0.0977
G01 X-0.4983 Y0.1834
G01 X-0.5113 Y0.2708
G01 X-0.5156 Y0.3590
G01 X-0.5156 Y25.8851
G00 Z2.0000
G00 X-0.5156 Y27.9851
G01 F60.00
G01 Z-0.6000
G01 F120.00
G01 X-0.5156 Y53.3112
G01 X-0.5113 Y53.3994
G01 X-0.4983 Y53.4868
G01 X-0.4768 Y53.5725
G01 X-0.4471 Y53.6556
G01 X-0.4093 Y53.7355
G01 X-0.3639 Y53.8112
G01 X-0.3113 Y53.8822
G01 X-0.2520 Y53.9476
G01 X-0.1866 Y54.0069
G01 X-0.1156 Y54.0595
G01 X-0.0399 Y54.1049
G01 X0.0400 Y54.1427
G01 X0.1231 Y54.1724
G01 X0.2088 Y54.1939
G01 X0.2962 Y54.2069
G01 X0.3844 Y54.2112
G01 X60.0168 Y54.2112
G01 X60.1050 Y54.2069
G01 X60.1924 Y54.1939
G01 X60.2781 Y54.1724
G01 X60.3612 Y54.1427
G01 X60.4411 Y54.1049
G01 X60.5168 Y54.0595
G01 X60.5878 Y54.0069
G01 X60.6532 Y53.9476
G01 X60.7125 Y53.8822
G01 X60.7651 Y53.8112
G01 X60.8105 Y53.7355
G01 X60.8483 Y53.6556
G01 X60.8780 Y53.5725
G01 X60.8995 Y53.4868
G01 X60.9125 Y53.3994
G01 X60.9168 Y53.3112
G01 X60.9168 Y27.9851
G00 X60.9168 Y27.9851
G01 F60.00
G01 Z-1.2000
G01 F120.00
G01 X60.9168 Y53.3112
G01 X60.9125 Y53.3994
G01 X60.8995 Y53.4868
G01 X60.8780 Y53.5725
G01 X60.8483 Y53.6556
G01 X60.8105 Y53.7355
G01 X60.7651 Y53.8112
G01 X60.7125 Y53.8822
G01 X60.6532 Y53.9476
G01 X60.5878 Y54.0069
G01 X60.5168 Y54.0595
G01 X60.4411 Y54.1049
G01 X60.3612 Y54.1427
G01 X60.2781 Y54.1724
G01 X60.1924 Y54.1939
G01 X60.1050 Y54.2069
G01 X60.0168 Y54.2112
G01 X0.3844 Y54.2112
G01 X0.2962 Y54.2069
G01 X0.2088 Y54.1939
G01 X0.1231 Y54.1724
G01 X0.0400 Y54.1427
G01 X-0.0399 Y54.1049
G01 X-0.1156 Y54.0595
G01 X-0.1866 Y54.0069
G01 X-0.2520 Y53.9476
G01 X-0.3113 Y53.8822
G01 X-0.3639 Y53.8112
G01 X-0.4093 Y53.7355
G01 X-0.4471 Y53.6556
G01 X-0.4768 Y53.5725
G01 X-0.4983 Y53.4868
G01 X-0.5113 Y53.3994
G01 X-0.5156 Y53.3112
G01 X-0.5156 Y27.9851
G00 X-0.5156 Y27.9851
G01 F60.00
G01 Z-1.8000
G01 F120.00
G01 X-0.5156 Y53.3112
G01 X-0.5113 Y53.3994
G01 X-0.4983 Y53.4868
G01 X-0.4768 Y53.5725
G01 X-0.4471 Y53.6556
G01 X-0.4093 Y53.7355
G01 X-0.3639 Y53.8112
G01 X-0.3113 Y53.8822
G01 X-0.2520 Y53.9476
G01 X-0.1866 Y54.0069
G01 X-0.1156 Y54.0595
G01 X-0.0399 Y54.1049
G01 X0.0400 Y54.1427
G01 X0.1231 Y54.1724
G01 X0.2088 Y54.1939
G01 X0.2962 Y54.2069
G01 X0.3844 Y54.2112
G01 X60.0168 Y54.2112
G01 X60.1050 Y54.2069
G01 X60.1924 Y54.1939
G01 X60.2781 Y54.1724
G01 X60.3612 Y54.1427
G01 X60.4411 Y54.1049
G01 X60.5168 Y54.0595
G01 X60.5878 Y54.0069
G01 X60.6532 Y53.9476
G01 X60.7125 Y53.8822
G01 X60.7651 Y53.8112
G01 X60.8105 Y53.7355
G01 X60.8483 Y53.6556
G01 X60.8780 Y53.5725
G01 X60.8995 Y53.4868
G01 X60.9125 Y53.3994
G01 X60.9168 Y53.3112
G01 X60.9168 Y27.9851
G00 X60.9168 Y27.9851
G01 F60.00
G01 Z-2.4000
G01 F120.00
G01 X60.9168 Y53.3112
G01 X60.9125 Y53.3994
G01 X60.8995 Y53.4868
G01 X60.8780 Y53.5725
G01 X60.8483 Y53.6556
G01 X60.8105 Y53.7355
G01 X60.7651 Y53.8112
G01 X60.7125 Y53.8822
G01 X60.6532 Y53.9476
G01 X60.5878 Y54.0069
G01 X60.5168 Y54.0595
G01 X60.4411 Y54.1049
G01 X60.3612 Y54.1427
G01 X60.2781 Y54.1724
G01 X60.1924 Y54.1939
G01 X60.1050 Y54.2069
G01 X60.0168 Y54.2112
G01 X0.3844 Y54.2112
G01 X0.2962 Y54.2069
G01 X0.2088 Y54.1939
G01 X0.1231 Y54.1724
G01 X0.0400 Y54.1427
G01 X-0.0399 Y54.1049
G01 X-0.1156 Y54.0595
G01 X-0.1866 Y54.0069
G01 X-0.2520 Y53.9476
G01 X-0.3113 Y53.8822
G01 X-0.3639 Y53.8112
G01 X-0.4093 Y53.7355
G01 X-0.4471 Y53.6556
G01 X-0.4768 Y53.5725
G01 X-0.4983 Y53.4868
G01 X-0.5113 Y53.3994
G01 X-0.5156 Y53.3112
G01 X-0.5156 Y27.9851
G00 Z2.0000
G00 X60.9168 Y25.8851
G01 F60.00
G01 Z-0.6000
G01 F120.00
G01 X60.9168 Y0.3590
G01 X60.9125 Y0.2708
G01 X60.8995 Y0.1834
G01 X60.8780 Y0.0977
G01 X60.8483 Y0.0146
G01 X60.8105 Y-0.0653
G01 X60.7651 Y-0.1410
G01 X60.7125 Y-0.2120
G01 X60.6532 Y-0.2774
G01 X60.5878 Y-0.3367
G01 X60.5168 Y-0.3893
G01 X60.4411 Y-0.4347
G01 X60.3612 Y-0.4725
G01 X60.2781 Y-0.5022
G01 X60.1924 Y-0.5237
G01 X60.1050 Y-0.5367
G01 X60.0168 Y-0.5410
G00 X60.0168 Y-0.5410
G01 F60.00
G01 Z-1.2000
G01 F120.00
G01 X60.1050 Y-0.5367
G01 X60.1924 Y-0.5237
G01 X60.2781 Y-0.5022
G01 X60.3612 Y-0.4725
G01 X60.4411 Y-0.4347
G01 X60.5168 Y-0.3893
G01 X60.5878 Y-0.3367
G01 X60.6532 Y-0.2774
G01 X60.7125 Y-0.2120
G01 X60.7651 Y-0.1410
G01 X60.8105 Y-0.0653
G01 X60.8483 Y0.0146
G01 X60.8780 Y0.0977
G01 X60.8995 Y0.1834
G01 X60.9125 Y0.2708
G01 X60.9168 Y0.3590
G01 X60.9168 Y25.8851
G00 X60.9168 Y25.8851
G01 F60.00
G01 Z-1.8000
G01 F120.00
G01 X60.9168 Y0.3590
G01 X60.9125 Y0.2708
G01 X60.8995 Y0.1834
G01 X60.8780 Y0.0977
G01 X60.8483 Y0.0146
G01 X60.8105 Y-0.0653
G01 X60.7651 Y-0.1410
G01 X60.7125 Y-0.2120
G01 X60.6532 Y-0.2774
G01 X60.5878 Y-0.3367
G01 X60.5168 Y-0.3893
G01 X60.4411 Y-0.4347
G01 X60.3612 Y-0.4725
G01 X60.2781 Y-0.5022
G01 X60.1924 Y-0.5237
G01 X60.1050 Y-0.5367
G01 X60.0168 Y-0.5410
G00 X60.0168 Y-0.5410
G01 F60.00
G01 Z-2.4000
G01 F120.00
G01 X60.1050 Y-0.5367
G01 X60.1924 Y-0.5237
G01 X60.2781 Y-0.5022
G01 X60.3612 Y-0.4725
G01 X60.4411 Y-0.4347
G01 X60.5168 Y-0.3893
G01 X60.5878 Y-0.3367
G01 X60.6532 Y-0.2774
G01 X60.7125 Y-0.2120
G01 X60.7651 Y-0.1410
G01 X60.8105 Y-0.0653
G01 X60.8483 Y0.0146
G01 X60.8780 Y0.0977
G01 X60.8995 Y0.1834
G01 X60.9125 Y0.2708
G01 X60.9168 Y0.3590
G01 X60.9168 Y25.8851
G00 Z2.0000
M05
G00 Z2.0000
G00 Z15.00

