(G-CODE GENERATED BY FLATCAM v8.993 - www.flatcam.org - Version Date: 2020/06/05)

(Name: dills)
(Type: G-code from Excellon)
(Units: MM)

(Created on Tuesday, 29 December 2020 at 14:25)

(This preprocessor is the default preprocessor used by FlatCAM.)
(It is made to work with MACH3 compatible motion controllers.)


(TOOLS DIAMETER: )
(Tool: 1 -> Dia: 0.8)
(Tool: 2 -> Dia: 0.9)
(Tool: 3 -> Dia: 1.6)
(Tool: 4 -> Dia: 3.0)

(FEEDRATE Z: )
(Tool: 1 -> Feedrate: 300)
(Tool: 2 -> Feedrate: 300)
(Tool: 3 -> Feedrate: 300)
(Tool: 4 -> Feedrate: 120.0)

(FEEDRATE RAPIDS: )
(Tool: 1 -> Feedrate Rapids: 1500)
(Tool: 2 -> Feedrate Rapids: 1500)
(Tool: 3 -> Feedrate Rapids: 1500)
(Tool: 4 -> Feedrate Rapids: 1500)

(Z_CUT: )
(Tool: 1 -> Z_Cut: -2.4)
(Tool: 2 -> Z_Cut: -2.4)
(Tool: 3 -> Z_Cut: -2.4)
(Tool: 4 -> Z_Cut: -2.4)

(Tools Offset: )
(Tool: 1 -> Offset Z: -0.0)
(Tool: 2 -> Offset Z: -0.0)
(Tool: 3 -> Offset Z: -0.0)
(Tool: 4 -> Offset Z: -0.0)

(DEPTH_PER_CUT: )
(Tool: 1 -> DeptPerCut: 0.7)
(Tool: 2 -> DeptPerCut: 0.7)
(Tool: 3 -> DeptPerCut: 0.7)
(Tool: 4 -> DeptPerCut: 0.7)

(Z_MOVE: )
(Tool: 1 -> Z_Move: 2)
(Tool: 2 -> Z_Move: 2)
(Tool: 3 -> Z_Move: 2)
(Tool: 4 -> Z_Move: 2)

(Z Toolchange: 15.0 mm)
(X,Y Toolchange: 0.0000, 0.0000 mm)
(Z Start: None mm)
(Z End: 2.0 mm)
(Steps per circle: 64)
(Preprocessor Excellon: default)

(X range:    6.4908 ...   75.1658  mm)
(Y range:    1.5076 ...   77.0546  mm)

(Spindle Speed: 8000.0 RPM)
G21
G90
G94



G01 F300.00

M5
G00 Z15.0000
T1
G00 X0.0000 Y0.0000                
M6
(MSG, Change to Tool Dia = 0.8000 ||| Total drills for tool T1 = 6)
M0
G00 Z15.0000

M03 S8000
G00 X24.6888 Y58.3946
G01 Z-2.4000
G01 Z0
G00 Z2.0000
G00 X24.6888 Y48.2346
G01 Z-2.4000
G01 Z0
G00 Z2.0000
G00 X56.9468 Y30.4546
G01 Z-2.4000
G01 Z0
G00 Z2.0000
G00 X56.9468 Y40.6146
G01 Z-2.4000
G01 Z0
G00 Z2.0000
G00 X56.9468 Y45.6946
G01 Z-2.4000
G01 Z0
G00 Z2.0000
G00 X56.9468 Y55.8546
G01 Z-2.4000
G01 Z0
G00 Z2.0000
G01 F300.00

M5
G00 Z15.0000
T2
G00 X0.0000 Y0.0000                
M6
(MSG, Change to Tool Dia = 0.9000 ||| Total drills for tool T2 = 41)
M0
G00 Z15.0000

M03 S8000
G00 X27.9908 Y58.3946
G01 Z-2.4000
G01 Z0
G00 Z2.0000
G00 X27.9908 Y55.8546
G01 Z-2.4000
G01 Z0
G00 Z2.0000
G00 X27.9908 Y53.3146
G01 Z-2.4000
G01 Z0
G00 Z2.0000
G00 X27.9908 Y50.7746
G01 Z-2.4000
G01 Z0
G00 Z2.0000
G00 X27.9908 Y48.2346
G01 Z-2.4000
G01 Z0
G00 Z2.0000
G00 X27.9908 Y45.6946
G01 Z-2.4000
G01 Z0
G00 Z2.0000
G00 X27.9908 Y43.1546
G01 Z-2.4000
G01 Z0
G00 Z2.0000
G00 X27.9908 Y40.6146
G01 Z-2.4000
G01 Z0
G00 Z2.0000
G00 X27.9908 Y38.0746
G01 Z-2.4000
G01 Z0
G00 Z2.0000
G00 X27.9908 Y35.5346
G01 Z-2.4000
G01 Z0
G00 Z2.0000
G00 X27.9908 Y32.9946
G01 Z-2.4000
G01 Z0
G00 Z2.0000
G00 X27.9908 Y30.4546
G01 Z-2.4000
G01 Z0
G00 Z2.0000
G00 X27.9908 Y27.9146
G01 Z-2.4000
G01 Z0
G00 Z2.0000
G00 X27.9908 Y25.3746
G01 Z-2.4000
G01 Z0
G00 Z2.0000
G00 X27.9908 Y22.8346
G01 Z-2.4000
G01 Z0
G00 Z2.0000
G00 X27.9908 Y20.2946
G01 Z-2.4000
G01 Z0
G00 Z2.0000
G00 X27.9908 Y17.7546
G01 Z-2.4000
G01 Z0
G00 Z2.0000
G00 X27.9908 Y15.2146
G01 Z-2.4000
G01 Z0
G00 Z2.0000
G00 X27.9908 Y12.6746
G01 Z-2.4000
G01 Z0
G00 Z2.0000
G00 X53.3908 Y12.6746
G01 Z-2.4000
G01 Z0
G00 Z2.0000
G00 X53.3908 Y15.2146
G01 Z-2.4000
G01 Z0
G00 Z2.0000
G00 X53.3908 Y17.7546
G01 Z-2.4000
G01 Z0
G00 Z2.0000
G00 X59.2328 Y17.7546
G01 Z-2.4000
G01 Z0
G00 Z2.0000
G00 X59.2328 Y20.2946
G01 Z-2.4000
G01 Z0
G00 Z2.0000
G00 X59.2328 Y22.8346
G01 Z-2.4000
G01 Z0
G00 Z2.0000
G00 X53.3908 Y20.2946
G01 Z-2.4000
G01 Z0
G00 Z2.0000
G00 X53.3908 Y22.8346
G01 Z-2.4000
G01 Z0
G00 Z2.0000
G00 X53.3908 Y25.3746
G01 Z-2.4000
G01 Z0
G00 Z2.0000
G00 X53.3908 Y27.9146
G01 Z-2.4000
G01 Z0
G00 Z2.0000
G00 X53.3908 Y30.4546
G01 Z-2.4000
G01 Z0
G00 Z2.0000
G00 X53.3908 Y32.9946
G01 Z-2.4000
G01 Z0
G00 Z2.0000
G00 X53.3908 Y35.5346
G01 Z-2.4000
G01 Z0
G00 Z2.0000
G00 X53.3908 Y38.0746
G01 Z-2.4000
G01 Z0
G00 Z2.0000
G00 X53.3908 Y40.6146
G01 Z-2.4000
G01 Z0
G00 Z2.0000
G00 X53.3908 Y43.1546
G01 Z-2.4000
G01 Z0
G00 Z2.0000
G00 X53.3908 Y45.6946
G01 Z-2.4000
G01 Z0
G00 Z2.0000
G00 X53.3908 Y48.2346
G01 Z-2.4000
G01 Z0
G00 Z2.0000
G00 X53.3908 Y50.7746
G01 Z-2.4000
G01 Z0
G00 Z2.0000
G00 X53.3908 Y53.3146
G01 Z-2.4000
G01 Z0
G00 Z2.0000
G00 X53.3908 Y55.8546
G01 Z-2.4000
G01 Z0
G00 Z2.0000
G00 X53.3908 Y58.3946
G01 Z-2.4000
G01 Z0
G00 Z2.0000
G01 F300.00

M5
G00 Z15.0000
T3
G00 X0.0000 Y0.0000                
M6
(MSG, Change to Tool Dia = 1.6000 ||| Total drills for tool T3 = 17)
M0
G00 Z15.0000

M03 S8000
G00 X73.4568 Y68.5546
G01 Z-2.4000
G01 Z0
G00 Z2.0000
G00 X73.4568 Y63.4746
G01 Z-2.4000
G01 Z0
G00 Z2.0000
G00 X73.4568 Y58.3946
G01 Z-2.4000
G01 Z0
G00 Z2.0000
G00 X73.4568 Y53.3146
G01 Z-2.4000
G01 Z0
G00 Z2.0000
G00 X73.6658 Y45.8146
G01 Z-2.4000
G01 Z0
G00 Z2.0000
G00 X73.6658 Y40.7346
G01 Z-2.4000
G01 Z0
G00 Z2.0000
G00 X73.6658 Y33.2346
G01 Z-2.4000
G01 Z0
G00 Z2.0000
G00 X73.6658 Y28.1546
G01 Z-2.4000
G01 Z0
G00 Z2.0000
G00 X73.6658 Y20.1676
G01 Z-2.4000
G01 Z0
G00 Z2.0000
G00 X73.6658 Y15.0876
G01 Z-2.4000
G01 Z0
G00 Z2.0000
G00 X73.6658 Y10.0076
G01 Z-2.4000
G01 Z0
G00 Z2.0000
G00 X7.9908 Y40.7346
G01 Z-2.4000
G01 Z0
G00 Z2.0000
G00 X7.9908 Y45.8146
G01 Z-2.4000
G01 Z0
G00 Z2.0000
G00 X7.9908 Y53.3146
G01 Z-2.4000
G01 Z0
G00 Z2.0000
G00 X7.9908 Y58.3946
G01 Z-2.4000
G01 Z0
G00 Z2.0000
G00 X7.9908 Y63.4746
G01 Z-2.4000
G01 Z0
G00 Z2.0000
G00 X7.9908 Y68.5546
G01 Z-2.4000
G01 Z0
G00 Z2.0000
G01 F120.00

M5
G00 Z15.0000
T4
G00 X0.0000 Y0.0000                
M6
(MSG, Change to Tool Dia = 3.0000 ||| Total drills for tool T4 = 4)
M0
G00 Z15.0000

M03 S8000
G00 X73.4568 Y75.5546
G01 Z-0.7000
G01 Z0
G00 Z2.0000
G01 Z-1.4000
G01 Z0
G00 Z2.0000
G01 Z-2.1000
G01 Z0
G00 Z2.0000
G01 Z-2.4000
G01 Z0
G00 Z2.0000
G00 X7.9908 Y75.5546
G01 Z-0.7000
G01 Z0
G00 Z2.0000
G01 Z-1.4000
G01 Z0
G00 Z2.0000
G01 Z-2.1000
G01 Z0
G00 Z2.0000
G01 Z-2.4000
G01 Z0
G00 Z2.0000
G00 X7.9908 Y3.0076
G01 Z-0.7000
G01 Z0
G00 Z2.0000
G01 Z-1.4000
G01 Z0
G00 Z2.0000
G01 Z-2.1000
G01 Z0
G00 Z2.0000
G01 Z-2.4000
G01 Z0
G00 Z2.0000
G00 X73.6658 Y3.0076
G01 Z-0.7000
G01 Z0
G00 Z2.0000
G01 Z-1.4000
G01 Z0
G00 Z2.0000
G01 Z-2.1000
G01 Z0
G00 Z2.0000
G01 Z-2.4000
G01 Z0
G00 Z2.0000
M05
G00 Z2.00

