(G-CODE GENERATED BY FLATCAM v8.993 - www.flatcam.org - Version Date: 2020/06/05)

(Name: dills)
(Type: G-code from Excellon)
(Units: MM)

(Created on Tuesday, 05 January 2021 at 13:01)

(This preprocessor is the default preprocessor used by FlatCAM.)
(It is made to work with MACH3 compatible motion controllers.)


(TOOLS DIAMETER: )
(Tool: 1 -> Dia: 0.7)
(Tool: 2 -> Dia: 0.85)
(Tool: 3 -> Dia: 0.9)
(Tool: 4 -> Dia: 1.0)
(Tool: 5 -> Dia: 3.0)

(FEEDRATE Z: )
(Tool: 1 -> Feedrate: 300.0)
(Tool: 2 -> Feedrate: 300.0)
(Tool: 3 -> Feedrate: 300.0)
(Tool: 4 -> Feedrate: 300.0)
(Tool: 5 -> Feedrate: 120.0)

(FEEDRATE RAPIDS: )
(Tool: 1 -> Feedrate Rapids: 1500)
(Tool: 2 -> Feedrate Rapids: 1500)
(Tool: 3 -> Feedrate Rapids: 1500)
(Tool: 4 -> Feedrate Rapids: 1500)
(Tool: 5 -> Feedrate Rapids: 1500)

(Z_CUT: )
(Tool: 1 -> Z_Cut: -2.4)
(Tool: 2 -> Z_Cut: -2.4)
(Tool: 3 -> Z_Cut: -2.4)
(Tool: 4 -> Z_Cut: -2.4)
(Tool: 5 -> Z_Cut: -2.4)

(Tools Offset: )
(Tool: 1 -> Offset Z: -0.0)
(Tool: 2 -> Offset Z: -0.0)
(Tool: 3 -> Offset Z: -0.0)
(Tool: 4 -> Offset Z: -0.0)
(Tool: 5 -> Offset Z: -0.0)

(Z_MOVE: )
(Tool: 1 -> Z_Move: 2)
(Tool: 2 -> Z_Move: 2)
(Tool: 3 -> Z_Move: 2)
(Tool: 4 -> Z_Move: 2)
(Tool: 5 -> Z_Move: 2)

(Z Toolchange: 15.0 mm)
(X,Y Toolchange: 0.0000, 0.0000 mm)
(Z Start: None mm)
(Z End: 2.0 mm)
(Steps per circle: 64)
(Preprocessor Excellon: default)

(X range:    3.4878 ...   56.9134  mm)
(Y range:    2.4624 ...   51.1824  mm)

(Spindle Speed: 8000.0 RPM)
G21
G90
G94



G01 F300.00

M5
G00 Z15.0000
T1
G00 X0.0000 Y0.0000                
M6
(MSG, Change to Tool Dia = 0.7000 ||| Total drills for tool T1 = 6)
M0
G00 Z15.0000

M03 S8000
G00 X26.4160 Y39.3954
G01 Z-2.4000
G01 Z0
G00 Z2.0000
G00 X26.4160 Y34.3954
G01 Z-2.4000
G01 Z0
G00 Z2.0000
G00 X26.5430 Y24.2532
G01 Z-2.4000
G01 Z0
G00 Z2.0000
G00 X26.5430 Y19.2532
G01 Z-2.4000
G01 Z0
G00 Z2.0000
G00 X33.7312 Y26.9786
G01 Z-2.4000
G01 Z0
G00 Z2.0000
G00 X33.7312 Y31.9786
G01 Z-2.4000
G01 Z0
G00 Z2.0000
G01 F300.00

M5
G00 Z15.0000
T2
G00 X0.0000 Y0.0000                
M6
(MSG, Change to Tool Dia = 0.8500 ||| Total drills for tool T2 = 18)
M0
G00 Z15.0000

M03 S8000
G00 X22.0726 Y42.0878
G01 Z-2.4000
G01 Z0
G00 Z2.0000
G00 X22.0726 Y31.9278
G01 Z-2.4000
G01 Z0
G00 Z2.0000
G00 X22.0726 Y26.8224
G01 Z-2.4000
G01 Z0
G00 Z2.0000
G00 X22.0726 Y16.6624
G01 Z-2.4000
G01 Z0
G00 Z2.0000
G00 X14.5034 Y14.1224
G01 Z-2.4000
G01 Z0
G00 Z2.0000
G00 X12.0142 Y17.9324
G01 Z-2.4000
G01 Z0
G00 Z2.0000
G00 X9.5250 Y21.7424
G01 Z-2.4000
G01 Z0
G00 Z2.0000
G00 X9.5250 Y11.5824
G01 Z-2.4000
G01 Z0
G00 Z2.0000
G00 X12.0142 Y7.7724
G01 Z-2.4000
G01 Z0
G00 Z2.0000
G00 X14.5034 Y3.9624
G01 Z-2.4000
G01 Z0
G00 Z2.0000
G00 X45.8978 Y3.9624
G01 Z-2.4000
G01 Z0
G00 Z2.0000
G00 X48.3870 Y7.7724
G01 Z-2.4000
G01 Z0
G00 Z2.0000
G00 X50.8762 Y11.5824
G01 Z-2.4000
G01 Z0
G00 Z2.0000
G00 X45.8978 Y14.1224
G01 Z-2.4000
G01 Z0
G00 Z2.0000
G00 X48.3870 Y17.9324
G01 Z-2.4000
G01 Z0
G00 Z2.0000
G00 X50.8762 Y21.7424
G01 Z-2.4000
G01 Z0
G00 Z2.0000
G00 X38.1254 Y24.3840
G01 Z-2.4000
G01 Z0
G00 Z2.0000
G00 X38.1254 Y34.5440
G01 Z-2.4000
G01 Z0
G00 Z2.0000
G01 F300.00

M5
G00 Z15.0000
T3
G00 X0.0000 Y0.0000                
M6
(MSG, Change to Tool Dia = 0.9000 ||| Total drills for tool T3 = 53)
M0
G00 Z15.0000

M03 S8000
G00 X47.7266 Y49.4538
G01 Z-2.4000
G01 Z0
G00 Z2.0000
G00 X47.7266 Y46.9138
G01 Z-2.4000
G01 Z0
G00 Z2.0000
G00 X47.7266 Y44.3738
G01 Z-2.4000
G01 Z0
G00 Z2.0000
G00 X47.5488 Y38.5572
G01 Z-2.4000
G01 Z0
G00 Z2.0000
G00 X47.5488 Y36.0172
G01 Z-2.4000
G01 Z0
G00 Z2.0000
G00 X47.5488 Y32.5374
G01 Z-2.4000
G01 Z0
G00 Z2.0000
G00 X47.5488 Y29.9974
G01 Z-2.4000
G01 Z0
G00 Z2.0000
G00 X47.5488 Y26.5176
G01 Z-2.4000
G01 Z0
G00 Z2.0000
G00 X47.5488 Y23.9776
G01 Z-2.4000
G01 Z0
G00 Z2.0000
G00 X41.6306 Y21.7424
G01 Z-2.4000
G01 Z0
G00 Z2.0000
G00 X41.6306 Y19.2024
G01 Z-2.4000
G01 Z0
G00 Z2.0000
G00 X41.6306 Y16.6624
G01 Z-2.4000
G01 Z0
G00 Z2.0000
G00 X41.6306 Y14.1224
G01 Z-2.4000
G01 Z0
G00 Z2.0000
G00 X41.6306 Y11.5824
G01 Z-2.4000
G01 Z0
G00 Z2.0000
G00 X41.6306 Y9.0424
G01 Z-2.4000
G01 Z0
G00 Z2.0000
G00 X41.6306 Y6.5024
G01 Z-2.4000
G01 Z0
G00 Z2.0000
G00 X41.6306 Y3.9624
G01 Z-2.4000
G01 Z0
G00 Z2.0000
G00 X18.7706 Y3.9624
G01 Z-2.4000
G01 Z0
G00 Z2.0000
G00 X18.7706 Y6.5024
G01 Z-2.4000
G01 Z0
G00 Z2.0000
G00 X18.7706 Y9.0424
G01 Z-2.4000
G01 Z0
G00 Z2.0000
G00 X18.7706 Y11.5824
G01 Z-2.4000
G01 Z0
G00 Z2.0000
G00 X18.7706 Y14.1224
G01 Z-2.4000
G01 Z0
G00 Z2.0000
G00 X18.7706 Y16.6624
G01 Z-2.4000
G01 Z0
G00 Z2.0000
G00 X18.7706 Y19.2024
G01 Z-2.4000
G01 Z0
G00 Z2.0000
G00 X18.7706 Y21.7424
G01 Z-2.4000
G01 Z0
G00 Z2.0000
G00 X13.0048 Y24.0538
G01 Z-2.4000
G01 Z0
G00 Z2.0000
G00 X13.0048 Y26.5938
G01 Z-2.4000
G01 Z0
G00 Z2.0000
G00 X13.0048 Y30.0990
G01 Z-2.4000
G01 Z0
G00 Z2.0000
G00 X13.0048 Y32.6390
G01 Z-2.4000
G01 Z0
G00 Z2.0000
G00 X13.0048 Y36.1442
G01 Z-2.4000
G01 Z0
G00 Z2.0000
G00 X13.0048 Y38.6842
G01 Z-2.4000
G01 Z0
G00 Z2.0000
G00 X18.7706 Y49.6824
G01 Z-2.4000
G01 Z0
G00 Z2.0000
G00 X18.7706 Y47.1424
G01 Z-2.4000
G01 Z0
G00 Z2.0000
G00 X18.7706 Y44.6024
G01 Z-2.4000
G01 Z0
G00 Z2.0000
G00 X18.7706 Y42.0624
G01 Z-2.4000
G01 Z0
G00 Z2.0000
G00 X18.7706 Y39.5224
G01 Z-2.4000
G01 Z0
G00 Z2.0000
G00 X18.7706 Y36.9824
G01 Z-2.4000
G01 Z0
G00 Z2.0000
G00 X18.7706 Y34.4424
G01 Z-2.4000
G01 Z0
G00 Z2.0000
G00 X18.7706 Y31.9024
G01 Z-2.4000
G01 Z0
G00 Z2.0000
G00 X18.7706 Y29.3624
G01 Z-2.4000
G01 Z0
G00 Z2.0000
G00 X18.7706 Y26.8224
G01 Z-2.4000
G01 Z0
G00 Z2.0000
G00 X18.7706 Y24.2824
G01 Z-2.4000
G01 Z0
G00 Z2.0000
G00 X41.6306 Y24.2824
G01 Z-2.4000
G01 Z0
G00 Z2.0000
G00 X41.6306 Y26.8224
G01 Z-2.4000
G01 Z0
G00 Z2.0000
G00 X41.6306 Y29.3624
G01 Z-2.4000
G01 Z0
G00 Z2.0000
G00 X41.6306 Y31.9024
G01 Z-2.4000
G01 Z0
G00 Z2.0000
G00 X41.6306 Y34.4424
G01 Z-2.4000
G01 Z0
G00 Z2.0000
G00 X41.6306 Y36.9824
G01 Z-2.4000
G01 Z0
G00 Z2.0000
G00 X41.6306 Y39.5224
G01 Z-2.4000
G01 Z0
G00 Z2.0000
G00 X41.6306 Y42.0624
G01 Z-2.4000
G01 Z0
G00 Z2.0000
G00 X41.6306 Y44.6024
G01 Z-2.4000
G01 Z0
G00 Z2.0000
G00 X41.6306 Y47.1424
G01 Z-2.4000
G01 Z0
G00 Z2.0000
G00 X41.6306 Y49.6824
G01 Z-2.4000
G01 Z0
G00 Z2.0000
G01 F300.00

M5
G00 Z15.0000
T4
G00 X0.0000 Y0.0000                
M6
(MSG, Change to Tool Dia = 1.0000 ||| Total drills for tool T4 = 17)
M0
G00 Z15.0000

M03 S8000
G00 X3.9878 Y49.6824
G01 Z-2.4000
G01 Z0
G00 Z2.0000
G00 X3.9878 Y45.8724
G01 Z-2.4000
G01 Z0
G00 Z2.0000
G00 X3.9878 Y42.0624
G01 Z-2.4000
G01 Z0
G00 Z2.0000
G00 X3.9878 Y33.2232
G01 Z-2.4000
G01 Z0
G00 Z2.0000
G00 X3.9878 Y29.4132
G01 Z-2.4000
G01 Z0
G00 Z2.0000
G00 X3.9878 Y24.3078
G01 Z-2.4000
G01 Z0
G00 Z2.0000
G00 X3.9878 Y20.4978
G01 Z-2.4000
G01 Z0
G00 Z2.0000
G00 X3.9878 Y15.3924
G01 Z-2.4000
G01 Z0
G00 Z2.0000
G00 X3.9878 Y11.5824
G01 Z-2.4000
G01 Z0
G00 Z2.0000
G00 X3.9878 Y7.7724
G01 Z-2.4000
G01 Z0
G00 Z2.0000
G00 X3.9878 Y3.9624
G01 Z-2.4000
G01 Z0
G00 Z2.0000
G00 X56.4134 Y3.9624
G01 Z-2.4000
G01 Z0
G00 Z2.0000
G00 X56.4134 Y7.7724
G01 Z-2.4000
G01 Z0
G00 Z2.0000
G00 X56.4134 Y11.5824
G01 Z-2.4000
G01 Z0
G00 Z2.0000
G00 X56.4134 Y15.3924
G01 Z-2.4000
G01 Z0
G00 Z2.0000
G00 X56.4134 Y20.4978
G01 Z-2.4000
G01 Z0
G00 Z2.0000
G00 X56.4134 Y24.3078
G01 Z-2.4000
G01 Z0
G00 Z2.0000
G01 F120.00

M5
G00 Z15.0000
T5
G00 X0.0000 Y0.0000                
M6
(MSG, Change to Tool Dia = 3.0000 ||| Total drills for tool T5 = 2)
M0
G00 Z15.0000

M03 S8000
G00 X30.2006 Y49.6824
G01 Z-2.4000
G01 Z0
G00 Z2.0000
G00 X30.2006 Y3.9624
G01 Z-2.4000
G01 Z0
G00 Z2.0000
M05
G00 Z2.00

