(G-CODE GENERATED BY FLATCAM v8.993 - www.flatcam.org - Version Date: 2020/06/05)

(Name: isolation)
(Type: G-code from Geometry)
(Units: MM)

(Created on Tuesday, 05 January 2021 at 11:43)

(This preprocessor is the default preprocessor used by FlatCAM.)
(It is made to work with MACH3 compatible motion controllers.)

(TOOL DIAMETER: 0.12 mm)
(Feedrate_XY: 120.0 mm/min)
(Feedrate_Z: 60.0 mm/min)
(Feedrate rapids 1500.0 mm/min)

(Z_Cut: -0.07 mm)
(Z_Move: 2.0 mm)
(Z Start: None mm)
(Z End: 15.0 mm)
(Steps per circle: 64)
(Preprocessor Geometry: default)

(X range:    0.1804 ...   60.2208  mm)
(Y range:    0.1550 ...   53.5152  mm)

(Spindle Speed: 8000 RPM)
G21
G90
G94



G01 F120.00
G00 Z2.0000

M03 S8000
G00 X5.0014 Y4.2725
G01 F60.00
G01 Z-0.0700
G01 F120.00
G01 X4.9671 Y4.3680
G01 X4.9226 Y4.4621
G01 X4.8692 Y4.5513
G01 X4.8072 Y4.6349
G01 X4.7373 Y4.7119
G01 X4.6603 Y4.7818
G01 X4.5767 Y4.8438
G01 X4.4875 Y4.8972
G01 X4.3934 Y4.9417
G01 X4.2955 Y4.9768
G01 X4.1946 Y5.0020
G01 X4.0917 Y5.0173
G01 X3.9878 Y5.0224
G01 X3.8839 Y5.0173
G01 X3.7810 Y5.0020
G01 X3.6801 Y4.9768
G01 X3.5822 Y4.9417
G01 X3.4881 Y4.8972
G01 X3.3989 Y4.8438
G01 X3.3153 Y4.7818
G01 X3.2383 Y4.7119
G01 X3.1684 Y4.6349
G01 X3.1064 Y4.5513
G01 X3.0530 Y4.4621
G01 X3.0085 Y4.3680
G01 X2.9734 Y4.2701
G01 X2.9482 Y4.1692
G01 X2.9329 Y4.0663
G01 X2.9278 Y3.9624
G01 X2.9329 Y3.8585
G01 X2.9482 Y3.7556
G01 X2.9734 Y3.6547
G01 X3.0074 Y3.5595
G01 X3.0097 Y3.5541
G01 X3.0530 Y3.4627
G01 X3.1064 Y3.3735
G01 X3.1684 Y3.2899
G01 X3.2362 Y3.2150
G01 X3.2404 Y3.2108
G01 X3.3131 Y3.1449
G01 X3.3177 Y3.1412
G01 X3.3989 Y3.0810
G01 X3.4881 Y3.0276
G01 X3.5822 Y2.9831
G01 X3.6773 Y2.9490
G01 X3.6829 Y2.9473
G01 X3.7781 Y2.9234
G01 X3.7839 Y2.9223
G01 X3.8839 Y2.9075
G01 X3.9849 Y2.9025
G01 X3.9907 Y2.9025
G01 X4.0888 Y2.9073
G01 X4.0946 Y2.9079
G01 X4.1946 Y2.9228
G01 X4.2955 Y2.9480
G01 X4.3934 Y2.9831
G01 X4.4848 Y3.0262
G01 X4.4900 Y3.0290
G01 X4.5742 Y3.0795
G01 X4.5791 Y3.0827
G01 X4.6603 Y3.1430
G01 X4.7373 Y3.2129
G01 X4.8072 Y3.2899
G01 X4.8675 Y3.3711
G01 X4.8707 Y3.3760
G01 X4.9212 Y3.4602
G01 X4.9240 Y3.4654
G01 X4.9671 Y3.5568
G01 X5.0014 Y3.6523
G01 X13.8103 Y3.6523
G01 X13.8331 Y3.6041
G01 X13.8715 Y3.5402
G01 X13.9159 Y3.4803
G01 X13.9640 Y3.4271
G01 X13.9681 Y3.4230
G01 X14.0190 Y3.3768
G01 X14.0236 Y3.3731
G01 X14.0812 Y3.3305
G01 X14.1438 Y3.2928
G01 X14.2099 Y3.2614
G01 X14.2153 Y3.2592
G01 X14.2828 Y3.2351
G01 X14.3551 Y3.2170
G01 X14.4260 Y3.2064
G01 X14.4318 Y3.2058
G01 X14.5034 Y3.2024
G01 X14.5779 Y3.2061
G01 X14.6488 Y3.2165
G01 X14.6545 Y3.2176
G01 X14.7240 Y3.2351
G01 X14.7915 Y3.2592
G01 X14.7969 Y3.2614
G01 X14.8617 Y3.2921
G01 X14.9268 Y3.3313
G01 X14.9855 Y3.3749
G01 X15.0387 Y3.4230
G01 X15.0428 Y3.4271
G01 X15.0909 Y3.4803
G01 X15.1336 Y3.5378
G01 X15.1369 Y3.5427
G01 X15.1737 Y3.6041
G01 X15.1965 Y3.6523
G01 X15.9766 Y3.6523
G01 X16.0041 Y3.6536
G01 X16.0099 Y3.6541
G01 X16.0371 Y3.6582
G01 X16.0638 Y3.6648
G01 X16.0694 Y3.6666
G01 X16.0953 Y3.6759
G01 X16.1202 Y3.6876
G01 X16.1477 Y3.7037
G01 X16.1733 Y3.7227
G01 X16.1959 Y3.7431
G01 X17.4679 Y5.0152
G01 X17.4863 Y5.0357
G01 X17.5045 Y5.0601
G01 X17.5201 Y5.0862
G01 X17.5331 Y5.1137
G01 X17.5434 Y5.1424
G01 X17.5508 Y5.1719
G01 X17.5552 Y5.2020
G01 X17.5567 Y5.2324
G01 X17.5567 Y17.5499
G01 X18.3107 Y18.3039
G01 X18.3841 Y18.2693
G01 X18.4774 Y18.2359
G01 X18.5736 Y18.2118
G01 X18.6687 Y18.1976
G01 X18.6745 Y18.1970
G01 X18.7677 Y18.1925
G01 X18.7735 Y18.1925
G01 X18.8696 Y18.1973
G01 X18.9676 Y18.2118
G01 X19.0638 Y18.2359
G01 X19.1571 Y18.2693
G01 X19.2467 Y18.3117
G01 X19.3292 Y18.3610
G01 X19.3341 Y18.3643
G01 X19.4090 Y18.4198
G01 X19.4136 Y18.4236
G01 X19.4848 Y18.4882
G01 X19.5513 Y18.5617
G01 X19.6104 Y18.6413
G01 X19.6613 Y18.7263
G01 X19.7037 Y18.8159
G01 X19.7371 Y18.9092
G01 X19.7612 Y19.0054
G01 X19.7757 Y19.1034
G01 X19.7806 Y19.2024
G01 X19.7760 Y19.2985
G01 X19.7754 Y19.3043
G01 X19.7617 Y19.3965
G01 X19.7605 Y19.4023
G01 X19.7371 Y19.4956
G01 X19.7048 Y19.5862
G01 X19.7025 Y19.5916
G01 X19.6613 Y19.6785
G01 X19.6104 Y19.7635
G01 X19.5513 Y19.8431
G01 X19.4868 Y19.9144
G01 X19.4826 Y19.9186
G01 X19.4113 Y19.9831
G01 X19.3317 Y20.0422
G01 X19.2467 Y20.0931
G01 X19.1571 Y20.1355
G01 X19.0638 Y20.1689
G01 X18.9676 Y20.1930
G01 X18.8696 Y20.2075
G01 X18.7735 Y20.2123
G01 X18.7677 Y20.2123
G01 X18.6716 Y20.2075
G01 X18.5765 Y20.1935
G01 X18.5707 Y20.1923
G01 X18.4803 Y20.1697
G01 X18.4746 Y20.1680
G01 X18.3841 Y20.1355
G01 X18.2945 Y20.0931
G01 X18.2095 Y20.0422
G01 X18.1287 Y19.9822
G01 X18.0564 Y19.9166
G01 X17.9899 Y19.8431
G01 X17.9308 Y19.7635
G01 X17.8813 Y19.6811
G01 X17.8785 Y19.6759
G01 X17.8387 Y19.5916
G01 X17.8364 Y19.5862
G01 X17.8041 Y19.4956
G01 X17.7800 Y19.3994
G01 X17.7655 Y19.3014
G01 X17.7607 Y19.2053
G01 X17.7607 Y19.1995
G01 X17.7652 Y19.1063
G01 X17.7658 Y19.1005
G01 X17.7800 Y19.0054
G01 X17.8041 Y18.9092
G01 X17.8375 Y18.8159
G01 X17.8721 Y18.7425
G01 X17.0253 Y17.8956
G01 X17.0069 Y17.8751
G01 X16.9904 Y17.8531
G01 X16.9872 Y17.8482
G01 X16.9731 Y17.8246
G01 X16.9601 Y17.7971
G01 X16.9508 Y17.7712
G01 X16.9490 Y17.7656
G01 X16.9422 Y17.7375
G01 X16.9380 Y17.7088
G01 X16.9365 Y17.6784
G01 X16.9365 Y5.3609
G01 X15.8481 Y4.2725
G01 X15.1965 Y4.2725
G01 X15.1737 Y4.3207
G01 X15.1369 Y4.3821
G01 X15.1336 Y4.3870
G01 X15.0899 Y4.4457
G01 X15.0408 Y4.4998
G01 X14.9878 Y4.5480
G01 X14.9832 Y4.5517
G01 X14.9244 Y4.5951
G01 X14.8617 Y4.6327
G01 X14.7969 Y4.6634
G01 X14.7915 Y4.6656
G01 X14.7240 Y4.6897
G01 X14.6517 Y4.7078
G01 X14.5808 Y4.7184
G01 X14.5750 Y4.7190
G01 X14.5034 Y4.7224
G01 X14.4318 Y4.7190
G01 X14.4260 Y4.7184
G01 X14.3551 Y4.7078
G01 X14.2828 Y4.6897
G01 X14.2153 Y4.6656
G01 X14.2099 Y4.6634
G01 X14.1451 Y4.6327
G01 X14.0824 Y4.5951
G01 X14.0236 Y4.5517
G01 X14.0190 Y4.5480
G01 X13.9660 Y4.4998
G01 X13.9169 Y4.4457
G01 X13.8732 Y4.3870
G01 X13.8699 Y4.3821
G01 X13.8331 Y4.3207
G01 X13.8103 Y4.2725
G01 X5.0014 Y4.2725
G00 Z2.0000
G00 X5.0352 Y4.3205
G01 F60.00
G01 Z-0.0700
G01 F120.00
G01 X5.0134 Y4.3815
G01 X5.0104 Y4.3888
G01 X4.9674 Y4.4800
G01 X4.9637 Y4.4870
G01 X4.9091 Y4.5780
G01 X4.8476 Y4.6611
G01 X4.8426 Y4.6673
G01 X4.7713 Y4.7459
G01 X4.6907 Y4.8189
G01 X4.6034 Y4.8837
G01 X4.5147 Y4.9370
G01 X4.5078 Y4.9408
G01 X4.4118 Y4.9861
G01 X4.3094 Y5.0227
G01 X4.2040 Y5.0491
G01 X4.0964 Y5.0651
G01 X3.9878 Y5.0704
G01 X3.8792 Y5.0651
G01 X3.7716 Y5.0491
G01 X3.6713 Y5.0241
G01 X3.6636 Y5.0219
G01 X3.5638 Y4.9861
G01 X3.4655 Y4.9396
G01 X3.3722 Y4.8837
G01 X3.2849 Y4.8189
G01 X3.2043 Y4.7459
G01 X3.1313 Y4.6653
G01 X3.0665 Y4.5780
G01 X3.0106 Y4.4847
G01 X2.9641 Y4.3864
G01 X2.9275 Y4.2840
G01 X2.9011 Y4.1786
G01 X2.8851 Y4.0710
G01 X2.8798 Y3.9624
G01 X2.8851 Y3.8538
G01 X2.9011 Y3.7462
G01 X2.9261 Y3.6459
G01 X2.9283 Y3.6382
G01 X2.9641 Y3.5384
G01 X3.0082 Y3.4448
G01 X3.0132 Y3.4355
G01 X3.0665 Y3.3468
G01 X3.1313 Y3.2595
G01 X3.2007 Y3.1828
G01 X3.2082 Y3.1753
G01 X3.2809 Y3.1094
G01 X3.2891 Y3.1026
G01 X3.3722 Y3.0411
G01 X3.4655 Y2.9852
G01 X3.5638 Y2.9387
G01 X3.6611 Y2.9038
G01 X3.6713 Y2.9007
G01 X3.7665 Y2.8769
G01 X3.7769 Y2.8748
G01 X3.8792 Y2.8597
G01 X3.9825 Y2.8545
G01 X3.9931 Y2.8545
G01 X4.0911 Y2.8593
G01 X4.1017 Y2.8604
G01 X4.2040 Y2.8757
G01 X4.3094 Y2.9021
G01 X4.4118 Y2.9387
G01 X4.5054 Y2.9828
G01 X4.5147 Y2.9878
G01 X4.5989 Y3.0383
G01 X4.6056 Y3.0426
G01 X4.6907 Y3.1059
G01 X4.7674 Y3.1753
G01 X4.7749 Y3.1828
G01 X4.8408 Y3.2555
G01 X4.8460 Y3.2616
G01 X4.9091 Y3.3468
G01 X4.9637 Y3.4378
G01 X4.9674 Y3.4448
G01 X5.0104 Y3.5360
G01 X5.0134 Y3.5433
G01 X5.0352 Y3.6043
G01 X13.7799 Y3.6043
G01 X13.7921 Y3.5792
G01 X13.8287 Y3.5180
G01 X13.8331 Y3.5113
G01 X13.8788 Y3.4498
G01 X13.9302 Y3.3930
G01 X13.9359 Y3.3874
G01 X13.9868 Y3.3413
G01 X13.9950 Y3.3345
G01 X14.0545 Y3.2906
G01 X14.1202 Y3.2511
G01 X14.1272 Y3.2474
G01 X14.1893 Y3.2181
G01 X14.1991 Y3.2140
G01 X14.2689 Y3.1892
G01 X14.3458 Y3.1699
G01 X14.4189 Y3.1589
G01 X14.4295 Y3.1579
G01 X14.5034 Y3.1544
G01 X14.5826 Y3.1583
G01 X14.6558 Y3.1690
G01 X14.6662 Y3.1711
G01 X14.7379 Y3.1892
G01 X14.8077 Y3.2140
G01 X14.8175 Y3.2181
G01 X14.8843 Y3.2498
G01 X14.9478 Y3.2877
G01 X14.9545 Y3.2921
G01 X15.0118 Y3.3345
G01 X15.0200 Y3.3413
G01 X15.0747 Y3.3911
G01 X15.1263 Y3.4478
G01 X15.1313 Y3.4540
G01 X15.1722 Y3.5092
G01 X15.1767 Y3.5157
G01 X15.2147 Y3.5792
G01 X15.2269 Y3.6043
G01 X15.9766 Y3.6043
G01 X16.0091 Y3.6058
G01 X16.0170 Y3.6066
G01 X16.0465 Y3.6112
G01 X16.0754 Y3.6183
G01 X16.0856 Y3.6214
G01 X16.1136 Y3.6315
G01 X16.1407 Y3.6442
G01 X16.1477 Y3.6478
G01 X16.1733 Y3.6632
G01 X16.1799 Y3.6677
G01 X16.2038 Y3.6856
G01 X16.2298 Y3.7092
G01 X17.5035 Y4.9830
G01 X17.5234 Y5.0052
G01 X17.5444 Y5.0334
G01 X17.5624 Y5.0636
G01 X17.5775 Y5.0954
G01 X17.5893 Y5.1284
G01 X17.5978 Y5.1625
G01 X17.6030 Y5.1973
G01 X17.6047 Y5.2324
G01 X17.6047 Y17.5301
G01 X18.3207 Y18.2461
G01 X18.3682 Y18.2240
G01 X18.4584 Y18.1916
G01 X18.4660 Y18.1892
G01 X18.5642 Y18.1647
G01 X18.6643 Y18.1498
G01 X18.6722 Y18.1491
G01 X18.7653 Y18.1445
G01 X18.7759 Y18.1445
G01 X18.8743 Y18.1495
G01 X18.9718 Y18.1638
G01 X18.9796 Y18.1653
G01 X19.0777 Y18.1900
G01 X19.1755 Y18.2249
G01 X19.2693 Y18.2693
G01 X19.3539 Y18.3199
G01 X19.3627 Y18.3258
G01 X19.4376 Y18.3813
G01 X19.4458 Y18.3880
G01 X19.5187 Y18.4543
G01 X19.5850 Y18.5272
G01 X19.5901 Y18.5333
G01 X19.6503 Y18.6146
G01 X19.7037 Y18.7037
G01 X19.7481 Y18.7975
G01 X19.7830 Y18.8953
G01 X19.8083 Y18.9960
G01 X19.8235 Y19.0987
G01 X19.8286 Y19.2024
G01 X19.8239 Y19.3008
G01 X19.8229 Y19.3114
G01 X19.8092 Y19.4036
G01 X19.8071 Y19.4140
G01 X19.7830 Y19.5095
G01 X19.7500 Y19.6023
G01 X19.7459 Y19.6121
G01 X19.7037 Y19.7011
G01 X19.6503 Y19.7902
G01 X19.5884 Y19.8736
G01 X19.5224 Y19.9467
G01 X19.5149 Y19.9542
G01 X19.4418 Y20.0202
G01 X19.3584 Y20.0821
G01 X19.2693 Y20.1355
G01 X19.1755 Y20.1799
G01 X19.0777 Y20.2148
G01 X18.9770 Y20.2401
G01 X18.8743 Y20.2553
G01 X18.7759 Y20.2603
G01 X18.7653 Y20.2603
G01 X18.6669 Y20.2553
G01 X18.5694 Y20.2410
G01 X18.5590 Y20.2389
G01 X18.4686 Y20.2163
G01 X18.4584 Y20.2132
G01 X18.3657 Y20.1799
G01 X18.2719 Y20.1355
G01 X18.1828 Y20.0821
G01 X18.1036 Y20.0235
G01 X18.0974 Y20.0185
G01 X18.0225 Y19.9505
G01 X17.9562 Y19.8776
G01 X17.9495 Y19.8694
G01 X17.8940 Y19.7945
G01 X17.8881 Y19.7857
G01 X17.8375 Y19.7011
G01 X17.7931 Y19.6073
G01 X17.7582 Y19.5095
G01 X17.7335 Y19.4114
G01 X17.7320 Y19.4036
G01 X17.7177 Y19.3061
G01 X17.7127 Y19.2077
G01 X17.7127 Y19.1971
G01 X17.7173 Y19.1040
G01 X17.7180 Y19.0961
G01 X17.7329 Y18.9960
G01 X17.7574 Y18.8978
G01 X17.7598 Y18.8902
G01 X17.7922 Y18.8000
G01 X17.8143 Y18.7525
G01 X16.9897 Y17.9278
G01 X16.9698 Y17.9056
G01 X16.9519 Y17.8817
G01 X16.9460 Y17.8729
G01 X16.9308 Y17.8472
G01 X16.9157 Y17.8154
G01 X16.9056 Y17.7874
G01 X16.9025 Y17.7772
G01 X16.8949 Y17.7457
G01 X16.8902 Y17.7135
G01 X16.8885 Y17.6784
G01 X16.8885 Y5.3807
G01 X15.8283 Y4.3205
G01 X15.2269 Y4.3205
G01 X15.2147 Y4.3456
G01 X15.1767 Y4.4091
G01 X15.1722 Y4.4156
G01 X15.1313 Y4.4708
G01 X15.1263 Y4.4770
G01 X15.0747 Y4.5337
G01 X15.0200 Y4.5835
G01 X15.0118 Y4.5903
G01 X14.9566 Y4.6312
G01 X14.9501 Y4.6357
G01 X14.8843 Y4.6750
G01 X14.8175 Y4.7067
G01 X14.8077 Y4.7108
G01 X14.7379 Y4.7356
G01 X14.6610 Y4.7549
G01 X14.5879 Y4.7659
G01 X14.5773 Y4.7669
G01 X14.5034 Y4.7704
G01 X14.4295 Y4.7669
G01 X14.4189 Y4.7659
G01 X14.3458 Y4.7549
G01 X14.2689 Y4.7356
G01 X14.1991 Y4.7108
G01 X14.1893 Y4.7067
G01 X14.1225 Y4.6750
G01 X14.0567 Y4.6357
G01 X14.0502 Y4.6312
G01 X13.9950 Y4.5903
G01 X13.9868 Y4.5835
G01 X13.9321 Y4.5337
G01 X13.8805 Y4.4770
G01 X13.8755 Y4.4708
G01 X13.8346 Y4.4156
G01 X13.8301 Y4.4091
G01 X13.7921 Y4.3456
G01 X13.7799 Y4.3205
G01 X5.0352 Y4.3205
G00 Z2.0000
G00 X5.0014 Y8.0825
G01 F60.00
G01 Z-0.0700
G01 F120.00
G01 X4.9671 Y8.1780
G01 X4.9226 Y8.2721
G01 X4.8692 Y8.3613
G01 X4.8072 Y8.4449
G01 X4.7373 Y8.5219
G01 X4.6603 Y8.5918
G01 X4.5767 Y8.6538
G01 X4.4875 Y8.7072
G01 X4.3934 Y8.7517
G01 X4.2955 Y8.7868
G01 X4.1946 Y8.8120
G01 X4.0917 Y8.8273
G01 X3.9878 Y8.8324
G01 X3.8839 Y8.8273
G01 X3.7810 Y8.8120
G01 X3.6801 Y8.7868
G01 X3.5822 Y8.7517
G01 X3.4881 Y8.7072
G01 X3.3989 Y8.6538
G01 X3.3153 Y8.5918
G01 X3.2383 Y8.5219
G01 X3.1684 Y8.4449
G01 X3.1064 Y8.3613
G01 X3.0530 Y8.2721
G01 X3.0085 Y8.1780
G01 X2.9734 Y8.0801
G01 X2.9482 Y7.9792
G01 X2.9329 Y7.8763
G01 X2.9278 Y7.7724
G01 X2.9329 Y7.6685
G01 X2.9482 Y7.5656
G01 X2.9734 Y7.4647
G01 X3.0074 Y7.3695
G01 X3.0097 Y7.3641
G01 X3.0530 Y7.2727
G01 X3.1064 Y7.1835
G01 X3.1666 Y7.1023
G01 X3.1703 Y7.0977
G01 X3.2383 Y7.0229
G01 X3.3153 Y6.9530
G01 X3.3965 Y6.8927
G01 X3.4014 Y6.8895
G01 X3.4881 Y6.8376
G01 X3.5822 Y6.7931
G01 X3.6801 Y6.7580
G01 X3.7781 Y6.7334
G01 X3.7839 Y6.7323
G01 X3.8810 Y6.7179
G01 X3.8868 Y6.7173
G01 X3.9878 Y6.7124
G01 X4.0917 Y6.7175
G01 X4.1946 Y6.7328
G01 X4.2927 Y6.7573
G01 X4.2983 Y6.7590
G01 X4.3907 Y6.7920
G01 X4.3961 Y6.7943
G01 X4.4875 Y6.8376
G01 X4.5767 Y6.8910
G01 X4.6603 Y6.9530
G01 X4.7352 Y7.0208
G01 X4.7394 Y7.0250
G01 X4.8053 Y7.0977
G01 X4.8090 Y7.1023
G01 X4.8692 Y7.1835
G01 X4.9226 Y7.2727
G01 X4.9671 Y7.3668
G01 X5.0014 Y7.4623
G01 X11.3211 Y7.4623
G01 X11.3439 Y7.4141
G01 X11.3823 Y7.3502
G01 X11.4267 Y7.2903
G01 X11.4748 Y7.2371
G01 X11.4789 Y7.2330
G01 X11.5298 Y7.1868
G01 X11.5344 Y7.1831
G01 X11.5920 Y7.1405
G01 X11.6546 Y7.1028
G01 X11.7207 Y7.0714
G01 X11.7261 Y7.0692
G01 X11.7936 Y7.0451
G01 X11.8659 Y7.0270
G01 X11.9397 Y7.0161
G01 X12.0113 Y7.0125
G01 X12.0171 Y7.0125
G01 X12.0902 Y7.0162
G01 X12.1596 Y7.0265
G01 X12.1653 Y7.0276
G01 X12.2348 Y7.0451
G01 X12.3023 Y7.0692
G01 X12.3077 Y7.0714
G01 X12.3725 Y7.1021
G01 X12.4376 Y7.1413
G01 X12.4963 Y7.1849
G01 X12.5495 Y7.2330
G01 X12.5536 Y7.2371
G01 X12.6017 Y7.2903
G01 X12.6444 Y7.3478
G01 X12.6477 Y7.3527
G01 X12.6845 Y7.4141
G01 X12.7073 Y7.4623
G01 X14.8097 Y7.4623
G01 X14.8386 Y7.4638
G01 X14.8658 Y7.4677
G01 X14.8716 Y7.4689
G01 X14.9010 Y7.4766
G01 X14.9269 Y7.4859
G01 X14.9518 Y7.4976
G01 X14.9780 Y7.5130
G01 X14.9829 Y7.5162
G01 X15.0049 Y7.5327
G01 X15.0275 Y7.5531
G01 X16.7039 Y9.2295
G01 X16.7234 Y9.2509
G01 X16.7425 Y9.2765
G01 X16.7567 Y9.3000
G01 X16.7594 Y9.3052
G01 X16.7722 Y9.3329
G01 X16.7814 Y9.3588
G01 X16.7888 Y9.3883
G01 X16.7932 Y9.4184
G01 X16.7947 Y9.4488
G01 X16.7947 Y21.8679
G01 X18.3107 Y23.3839
G01 X18.3841 Y23.3493
G01 X18.4774 Y23.3159
G01 X18.5736 Y23.2918
G01 X18.6687 Y23.2776
G01 X18.6745 Y23.2770
G01 X18.7677 Y23.2725
G01 X18.7735 Y23.2725
G01 X18.8696 Y23.2773
G01 X18.9676 Y23.2918
G01 X19.0638 Y23.3159
G01 X19.1571 Y23.3493
G01 X19.2467 Y23.3917
G01 X19.3292 Y23.4410
G01 X19.3341 Y23.4443
G01 X19.4090 Y23.4998
G01 X19.4136 Y23.5036
G01 X19.4848 Y23.5682
G01 X19.5513 Y23.6417
G01 X19.6104 Y23.7213
G01 X19.6613 Y23.8063
G01 X19.7037 Y23.8959
G01 X19.7371 Y23.9892
G01 X19.7612 Y24.0854
G01 X19.7757 Y24.1834
G01 X19.7806 Y24.2824
G01 X19.7757 Y24.3814
G01 X19.7612 Y24.4794
G01 X19.7371 Y24.5756
G01 X19.7037 Y24.6689
G01 X19.6613 Y24.7585
G01 X19.6104 Y24.8435
G01 X19.5513 Y24.9231
G01 X19.4848 Y24.9966
G01 X19.4125 Y25.0622
G01 X19.3317 Y25.1222
G01 X19.2467 Y25.1731
G01 X19.1571 Y25.2155
G01 X19.0666 Y25.2480
G01 X19.0609 Y25.2497
G01 X18.9705 Y25.2723
G01 X18.9647 Y25.2735
G01 X18.8696 Y25.2875
G01 X18.7735 Y25.2923
G01 X18.7677 Y25.2923
G01 X18.6716 Y25.2875
G01 X18.5736 Y25.2730
G01 X18.4774 Y25.2489
G01 X18.3841 Y25.2155
G01 X18.2945 Y25.1731
G01 X18.2095 Y25.1222
G01 X18.1299 Y25.0631
G01 X18.0575 Y24.9976
G01 X17.9918 Y24.9254
G01 X17.9880 Y24.9208
G01 X17.9308 Y24.8435
G01 X17.8799 Y24.7585
G01 X17.8375 Y24.6689
G01 X17.8050 Y24.5784
G01 X17.8033 Y24.5727
G01 X17.7807 Y24.4823
G01 X17.7795 Y24.4765
G01 X17.7655 Y24.3814
G01 X17.7607 Y24.2853
G01 X17.7607 Y24.2795
G01 X17.7652 Y24.1863
G01 X17.7658 Y24.1805
G01 X17.7800 Y24.0854
G01 X17.8041 Y23.9892
G01 X17.8375 Y23.8959
G01 X17.8721 Y23.8225
G01 X16.2643 Y22.2146
G01 X16.2449 Y22.1931
G01 X16.2284 Y22.1711
G01 X16.2252 Y22.1662
G01 X16.2111 Y22.1426
G01 X16.1981 Y22.1151
G01 X16.1888 Y22.0892
G01 X16.1870 Y22.0836
G01 X16.1804 Y22.0569
G01 X16.1760 Y22.0268
G01 X16.1745 Y21.9964
G01 X16.1745 Y9.5773
G01 X14.6797 Y8.0825
G01 X12.7073 Y8.0825
G01 X12.6845 Y8.1307
G01 X12.6477 Y8.1921
G01 X12.6444 Y8.1970
G01 X12.6007 Y8.2557
G01 X12.5516 Y8.3098
G01 X12.4986 Y8.3580
G01 X12.4940 Y8.3617
G01 X12.4352 Y8.4051
G01 X12.3725 Y8.4427
G01 X12.3077 Y8.4734
G01 X12.3023 Y8.4756
G01 X12.2348 Y8.4997
G01 X12.1625 Y8.5178
G01 X12.0916 Y8.5284
G01 X12.0858 Y8.5290
G01 X12.0142 Y8.5324
G01 X11.9426 Y8.5290
G01 X11.9368 Y8.5284
G01 X11.8659 Y8.5178
G01 X11.7936 Y8.4997
G01 X11.7261 Y8.4756
G01 X11.7207 Y8.4734
G01 X11.6559 Y8.4427
G01 X11.5932 Y8.4051
G01 X11.5344 Y8.3617
G01 X11.5298 Y8.3580
G01 X11.4768 Y8.3098
G01 X11.4277 Y8.2557
G01 X11.3840 Y8.1970
G01 X11.3807 Y8.1921
G01 X11.3439 Y8.1307
G01 X11.3211 Y8.0825
G01 X5.0014 Y8.0825
G00 Z2.0000
G00 X5.0352 Y8.1305
G01 F60.00
G01 Z-0.0700
G01 F120.00
G01 X5.0134 Y8.1915
G01 X5.0104 Y8.1988
G01 X4.9674 Y8.2900
G01 X4.9637 Y8.2970
G01 X4.9091 Y8.3880
G01 X4.8476 Y8.4711
G01 X4.8426 Y8.4773
G01 X4.7713 Y8.5559
G01 X4.6907 Y8.6289
G01 X4.6034 Y8.6937
G01 X4.5147 Y8.7470
G01 X4.5078 Y8.7508
G01 X4.4118 Y8.7961
G01 X4.3094 Y8.8327
G01 X4.2040 Y8.8591
G01 X4.0964 Y8.8751
G01 X3.9878 Y8.8804
G01 X3.8792 Y8.8751
G01 X3.7716 Y8.8591
G01 X3.6713 Y8.8341
G01 X3.6636 Y8.8319
G01 X3.5638 Y8.7961
G01 X3.4655 Y8.7496
G01 X3.3722 Y8.6937
G01 X3.2849 Y8.6289
G01 X3.2043 Y8.5559
G01 X3.1313 Y8.4753
G01 X3.0665 Y8.3880
G01 X3.0106 Y8.2947
G01 X2.9641 Y8.1964
G01 X2.9275 Y8.0940
G01 X2.9011 Y7.9886
G01 X2.8851 Y7.8810
G01 X2.8798 Y7.7724
G01 X2.8851 Y7.6638
G01 X2.9011 Y7.5562
G01 X2.9261 Y7.4559
G01 X2.9283 Y7.4482
G01 X2.9641 Y7.3484
G01 X3.0082 Y7.2548
G01 X3.0132 Y7.2455
G01 X3.0665 Y7.1568
G01 X3.1280 Y7.0737
G01 X3.1348 Y7.0655
G01 X3.2043 Y6.9889
G01 X3.2849 Y6.9159
G01 X3.3679 Y6.8542
G01 X3.3767 Y6.8483
G01 X3.4655 Y6.7952
G01 X3.5638 Y6.7487
G01 X3.6662 Y6.7121
G01 X3.7665 Y6.6869
G01 X3.7769 Y6.6848
G01 X3.8739 Y6.6704
G01 X3.8845 Y6.6693
G01 X3.9878 Y6.6644
G01 X4.0964 Y6.6697
G01 X4.2040 Y6.6857
G01 X4.3043 Y6.7107
G01 X4.3145 Y6.7138
G01 X4.4069 Y6.7468
G01 X4.4167 Y6.7509
G01 X4.5101 Y6.7952
G01 X4.6011 Y6.8497
G01 X4.6077 Y6.8542
G01 X4.6865 Y6.9126
G01 X4.6947 Y6.9194
G01 X4.7713 Y6.9889
G01 X4.8408 Y7.0655
G01 X4.8460 Y7.0716
G01 X4.9091 Y7.1568
G01 X4.9637 Y7.2478
G01 X4.9674 Y7.2548
G01 X5.0104 Y7.3460
G01 X5.0134 Y7.3533
G01 X5.0352 Y7.4143
G01 X11.2907 Y7.4143
G01 X11.3029 Y7.3892
G01 X11.3395 Y7.3280
G01 X11.3439 Y7.3213
G01 X11.3896 Y7.2598
G01 X11.4410 Y7.2030
G01 X11.4467 Y7.1974
G01 X11.4976 Y7.1513
G01 X11.5058 Y7.1445
G01 X11.5653 Y7.1006
G01 X11.6310 Y7.0611
G01 X11.6380 Y7.0574
G01 X11.7001 Y7.0281
G01 X11.7099 Y7.0240
G01 X11.7797 Y6.9992
G01 X11.8566 Y6.9799
G01 X11.9350 Y6.9683
G01 X12.0089 Y6.9645
G01 X12.0195 Y6.9645
G01 X12.0881 Y6.9679
G01 X12.0960 Y6.9686
G01 X12.1666 Y6.9790
G01 X12.1770 Y6.9811
G01 X12.2487 Y6.9992
G01 X12.3185 Y7.0240
G01 X12.3283 Y7.0281
G01 X12.3951 Y7.0598
G01 X12.4586 Y7.0977
G01 X12.4653 Y7.1021
G01 X12.5226 Y7.1445
G01 X12.5308 Y7.1513
G01 X12.5855 Y7.2011
G01 X12.6371 Y7.2578
G01 X12.6421 Y7.2640
G01 X12.6830 Y7.3192
G01 X12.6875 Y7.3257
G01 X12.7255 Y7.3892
G01 X12.7377 Y7.4143
G01 X14.8109 Y7.4143
G01 X14.8433 Y7.4160
G01 X14.8728 Y7.4203
G01 X14.8832 Y7.4223
G01 X14.9096 Y7.4290
G01 X14.9172 Y7.4314
G01 X14.9452 Y7.4415
G01 X14.9723 Y7.4542
G01 X14.9793 Y7.4578
G01 X15.0027 Y7.4718
G01 X15.0115 Y7.4777
G01 X15.0354 Y7.4956
G01 X15.0614 Y7.5192
G01 X16.7378 Y9.1956
G01 X16.7597 Y9.2196
G01 X16.7647 Y9.2258
G01 X16.7824 Y9.2498
G01 X16.7978 Y9.2754
G01 X16.8028 Y9.2847
G01 X16.8144 Y9.3093
G01 X16.8174 Y9.3167
G01 X16.8273 Y9.3448
G01 X16.8358 Y9.3789
G01 X16.8410 Y9.4137
G01 X16.8427 Y9.4488
G01 X16.8427 Y21.8481
G01 X18.3207 Y23.3261
G01 X18.3682 Y23.3040
G01 X18.4584 Y23.2716
G01 X18.4660 Y23.2692
G01 X18.5642 Y23.2447
G01 X18.6643 Y23.2298
G01 X18.6722 Y23.2291
G01 X18.7653 Y23.2245
G01 X18.7759 Y23.2245
G01 X18.8743 Y23.2295
G01 X18.9718 Y23.2438
G01 X18.9796 Y23.2453
G01 X19.0777 Y23.2700
G01 X19.1755 Y23.3049
G01 X19.2693 Y23.3493
G01 X19.3539 Y23.3999
G01 X19.3627 Y23.4058
G01 X19.4376 Y23.4613
G01 X19.4458 Y23.4680
G01 X19.5187 Y23.5343
G01 X19.5850 Y23.6072
G01 X19.5901 Y23.6133
G01 X19.6503 Y23.6946
G01 X19.7037 Y23.7837
G01 X19.7481 Y23.8775
G01 X19.7830 Y23.9753
G01 X19.8083 Y24.0760
G01 X19.8235 Y24.1787
G01 X19.8286 Y24.2824
G01 X19.8235 Y24.3861
G01 X19.8083 Y24.4888
G01 X19.7830 Y24.5895
G01 X19.7481 Y24.6873
G01 X19.7037 Y24.7811
G01 X19.6503 Y24.8702
G01 X19.5884 Y24.9536
G01 X19.5187 Y25.0305
G01 X19.4438 Y25.0985
G01 X19.4376 Y25.1035
G01 X19.3584 Y25.1621
G01 X19.2693 Y25.2155
G01 X19.1755 Y25.2599
G01 X19.0828 Y25.2932
G01 X19.0726 Y25.2963
G01 X18.9822 Y25.3189
G01 X18.9718 Y25.3210
G01 X18.8743 Y25.3353
G01 X18.7759 Y25.3403
G01 X18.7653 Y25.3403
G01 X18.6669 Y25.3353
G01 X18.5642 Y25.3201
G01 X18.4635 Y25.2948
G01 X18.3657 Y25.2599
G01 X18.2719 Y25.2155
G01 X18.1828 Y25.1621
G01 X18.0994 Y25.1002
G01 X18.0263 Y25.0342
G01 X18.0188 Y25.0267
G01 X17.9562 Y24.9576
G01 X17.9495 Y24.9494
G01 X17.8909 Y24.8702
G01 X17.8375 Y24.7811
G01 X17.7931 Y24.6873
G01 X17.7598 Y24.5946
G01 X17.7567 Y24.5844
G01 X17.7341 Y24.4940
G01 X17.7324 Y24.4862
G01 X17.7177 Y24.3861
G01 X17.7127 Y24.2877
G01 X17.7127 Y24.2771
G01 X17.7173 Y24.1840
G01 X17.7180 Y24.1761
G01 X17.7329 Y24.0760
G01 X17.7574 Y23.9778
G01 X17.7598 Y23.9702
G01 X17.7922 Y23.8800
G01 X17.8143 Y23.8325
G01 X16.2295 Y22.2477
G01 X16.2078 Y22.2236
G01 X16.1899 Y22.1997
G01 X16.1840 Y22.1909
G01 X16.1688 Y22.1652
G01 X16.1559 Y22.1383
G01 X16.1518 Y22.1285
G01 X16.1419 Y22.1004
G01 X16.1339 Y22.0689
G01 X16.1325 Y22.0610
G01 X16.1282 Y22.0315
G01 X16.1265 Y21.9964
G01 X16.1265 Y9.5971
G01 X14.6599 Y8.1305
G01 X12.7377 Y8.1305
G01 X12.7255 Y8.1556
G01 X12.6875 Y8.2191
G01 X12.6830 Y8.2256
G01 X12.6421 Y8.2808
G01 X12.6371 Y8.2870
G01 X12.5855 Y8.3437
G01 X12.5308 Y8.3935
G01 X12.5226 Y8.4003
G01 X12.4674 Y8.4412
G01 X12.4609 Y8.4457
G01 X12.3951 Y8.4850
G01 X12.3283 Y8.5167
G01 X12.3185 Y8.5208
G01 X12.2487 Y8.5456
G01 X12.1718 Y8.5649
G01 X12.0987 Y8.5759
G01 X12.0881 Y8.5769
G01 X12.0142 Y8.5804
G01 X11.9403 Y8.5769
G01 X11.9297 Y8.5759
G01 X11.8566 Y8.5649
G01 X11.7797 Y8.5456
G01 X11.7099 Y8.5208
G01 X11.7001 Y8.5167
G01 X11.6333 Y8.4850
G01 X11.5675 Y8.4457
G01 X11.5610 Y8.4412
G01 X11.5058 Y8.4003
G01 X11.4976 Y8.3935
G01 X11.4429 Y8.3437
G01 X11.3913 Y8.2870
G01 X11.3863 Y8.2808
G01 X11.3454 Y8.2256
G01 X11.3409 Y8.2191
G01 X11.3029 Y8.1556
G01 X11.2907 Y8.1305
G01 X5.0352 Y8.1305
G00 Z2.0000
G00 X5.0014 Y11.8925
G01 F60.00
G01 Z-0.0700
G01 F120.00
G01 X4.9671 Y11.9880
G01 X4.9226 Y12.0821
G01 X4.8692 Y12.1713
G01 X4.8072 Y12.2549
G01 X4.7373 Y12.3319
G01 X4.6603 Y12.4018
G01 X4.5767 Y12.4638
G01 X4.4875 Y12.5172
G01 X4.3934 Y12.5617
G01 X4.2955 Y12.5968
G01 X4.1946 Y12.6220
G01 X4.0917 Y12.6373
G01 X3.9878 Y12.6424
G01 X3.8839 Y12.6373
G01 X3.7810 Y12.6220
G01 X3.6801 Y12.5968
G01 X3.5822 Y12.5617
G01 X3.4881 Y12.5172
G01 X3.3989 Y12.4638
G01 X3.3153 Y12.4018
G01 X3.2383 Y12.3319
G01 X3.1684 Y12.2549
G01 X3.1064 Y12.1713
G01 X3.0530 Y12.0821
G01 X3.0085 Y11.9880
G01 X2.9734 Y11.8901
G01 X2.9482 Y11.7892
G01 X2.9329 Y11.6863
G01 X2.9278 Y11.5824
G01 X2.9329 Y11.4785
G01 X2.9482 Y11.3756
G01 X2.9734 Y11.2747
G01 X3.0074 Y11.1795
G01 X3.0097 Y11.1741
G01 X3.0530 Y11.0827
G01 X3.1064 Y10.9935
G01 X3.1684 Y10.9099
G01 X3.2362 Y10.8350
G01 X3.2404 Y10.8308
G01 X3.3131 Y10.7649
G01 X3.3177 Y10.7612
G01 X3.3989 Y10.7010
G01 X3.4881 Y10.6476
G01 X3.5822 Y10.6031
G01 X3.6773 Y10.5690
G01 X3.6829 Y10.5673
G01 X3.7781 Y10.5434
G01 X3.7839 Y10.5423
G01 X3.8839 Y10.5275
G01 X3.9878 Y10.5224
G01 X4.0888 Y10.5273
G01 X4.0946 Y10.5279
G01 X4.1946 Y10.5428
G01 X4.2955 Y10.5680
G01 X4.3934 Y10.6031
G01 X4.4848 Y10.6462
G01 X4.4900 Y10.6490
G01 X4.5742 Y10.6995
G01 X4.5791 Y10.7027
G01 X4.6603 Y10.7630
G01 X4.7373 Y10.8329
G01 X4.8072 Y10.9099
G01 X4.8675 Y10.9911
G01 X4.8707 Y10.9960
G01 X4.9212 Y11.0802
G01 X4.9240 Y11.0854
G01 X4.9671 Y11.1768
G01 X5.0014 Y11.2723
G01 X8.8319 Y11.2723
G01 X8.8547 Y11.2241
G01 X8.8915 Y11.1627
G01 X8.8948 Y11.1578
G01 X8.9385 Y11.0991
G01 X8.9876 Y11.0450
G01 X9.0406 Y10.9968
G01 X9.0452 Y10.9931
G01 X9.1040 Y10.9497
G01 X9.1667 Y10.9121
G01 X9.2315 Y10.8814
G01 X9.2369 Y10.8792
G01 X9.3044 Y10.8551
G01 X9.3767 Y10.8370
G01 X9.4476 Y10.8264
G01 X9.4534 Y10.8258
G01 X9.5250 Y10.8224
G01 X9.5966 Y10.8258
G01 X9.6024 Y10.8264
G01 X9.6733 Y10.8370
G01 X9.7456 Y10.8551
G01 X9.8131 Y10.8792
G01 X9.8185 Y10.8814
G01 X9.8833 Y10.9121
G01 X9.9460 Y10.9497
G01 X10.0048 Y10.9931
G01 X10.0094 Y10.9968
G01 X10.0624 Y11.0450
G01 X10.1115 Y11.0991
G01 X10.1552 Y11.1578
G01 X10.1585 Y11.1627
G01 X10.1953 Y11.2241
G01 X10.2181 Y11.2723
G01 X14.5796 Y11.2723
G01 X14.6100 Y11.2738
G01 X14.6401 Y11.2782
G01 X14.6668 Y11.2848
G01 X14.6724 Y11.2866
G01 X14.7010 Y11.2971
G01 X14.7258 Y11.3089
G01 X14.7519 Y11.3245
G01 X14.7763 Y11.3427
G01 X14.7968 Y11.3611
G01 X15.9559 Y12.5202
G01 X15.9743 Y12.5407
G01 X15.9925 Y12.5651
G01 X16.0081 Y12.5912
G01 X16.0211 Y12.6187
G01 X16.0314 Y12.6474
G01 X16.0388 Y12.6769
G01 X16.0432 Y12.7070
G01 X16.0447 Y12.7374
G01 X16.0447 Y23.6579
G01 X18.3107 Y25.9239
G01 X18.3841 Y25.8893
G01 X18.4774 Y25.8559
G01 X18.5736 Y25.8318
G01 X18.6687 Y25.8176
G01 X18.6745 Y25.8170
G01 X18.7677 Y25.8125
G01 X18.7735 Y25.8125
G01 X18.8696 Y25.8173
G01 X18.9676 Y25.8318
G01 X19.0638 Y25.8559
G01 X19.1544 Y25.8882
G01 X19.1598 Y25.8905
G01 X19.2441 Y25.9303
G01 X19.2493 Y25.9331
G01 X19.3317 Y25.9826
G01 X19.4113 Y26.0417
G01 X19.4848 Y26.1082
G01 X19.5494 Y26.1794
G01 X19.5532 Y26.1840
G01 X19.6087 Y26.2589
G01 X19.6120 Y26.2638
G01 X19.6613 Y26.3463
G01 X19.7025 Y26.4332
G01 X19.7048 Y26.4386
G01 X19.7371 Y26.5292
G01 X19.7612 Y26.6254
G01 X19.7757 Y26.7234
G01 X19.7805 Y26.8195
G01 X19.7805 Y26.8253
G01 X19.7757 Y26.9214
G01 X19.7612 Y27.0194
G01 X19.7371 Y27.1156
G01 X19.7037 Y27.2089
G01 X19.6613 Y27.2985
G01 X19.6104 Y27.3835
G01 X19.5513 Y27.4631
G01 X19.4868 Y27.5344
G01 X19.4826 Y27.5386
G01 X19.4113 Y27.6031
G01 X19.3317 Y27.6622
G01 X19.2467 Y27.7131
G01 X19.1571 Y27.7555
G01 X19.0638 Y27.7889
G01 X18.9676 Y27.8130
G01 X18.8696 Y27.8275
G01 X18.7735 Y27.8323
G01 X18.7677 Y27.8323
G01 X18.6716 Y27.8275
G01 X18.5736 Y27.8130
G01 X18.4774 Y27.7889
G01 X18.3868 Y27.7566
G01 X18.3814 Y27.7543
G01 X18.2945 Y27.7131
G01 X18.2120 Y27.6638
G01 X18.2071 Y27.6605
G01 X18.1322 Y27.6050
G01 X18.1276 Y27.6012
G01 X18.0564 Y27.5366
G01 X17.9899 Y27.4631
G01 X17.9308 Y27.3835
G01 X17.8813 Y27.3011
G01 X17.8785 Y27.2959
G01 X17.8387 Y27.2116
G01 X17.8364 Y27.2062
G01 X17.8041 Y27.1156
G01 X17.7800 Y27.0194
G01 X17.7655 Y26.9214
G01 X17.7607 Y26.8253
G01 X17.7607 Y26.8195
G01 X17.7652 Y26.7263
G01 X17.7658 Y26.7205
G01 X17.7800 Y26.6254
G01 X17.8041 Y26.5292
G01 X17.8375 Y26.4359
G01 X17.8721 Y26.3625
G01 X15.5153 Y24.0057
G01 X15.4968 Y23.9854
G01 X15.4931 Y23.9808
G01 X15.4767 Y23.9587
G01 X15.4625 Y23.9352
G01 X15.4598 Y23.9300
G01 X15.4481 Y23.9051
G01 X15.4374 Y23.8750
G01 X15.4304 Y23.8469
G01 X15.4263 Y23.8197
G01 X15.4258 Y23.8139
G01 X15.4245 Y23.7864
G01 X15.4245 Y12.8659
G01 X14.4511 Y11.8925
G01 X10.2181 Y11.8925
G01 X10.1953 Y11.9407
G01 X10.1585 Y12.0021
G01 X10.1552 Y12.0070
G01 X10.1115 Y12.0657
G01 X10.0624 Y12.1198
G01 X10.0094 Y12.1680
G01 X10.0048 Y12.1717
G01 X9.9460 Y12.2151
G01 X9.8833 Y12.2527
G01 X9.8185 Y12.2834
G01 X9.8131 Y12.2856
G01 X9.7456 Y12.3097
G01 X9.6733 Y12.3278
G01 X9.6024 Y12.3384
G01 X9.5966 Y12.3390
G01 X9.5250 Y12.3424
G01 X9.4534 Y12.3390
G01 X9.4476 Y12.3384
G01 X9.3767 Y12.3278
G01 X9.3044 Y12.3097
G01 X9.2369 Y12.2856
G01 X9.2315 Y12.2834
G01 X9.1667 Y12.2527
G01 X9.1040 Y12.2151
G01 X9.0452 Y12.1717
G01 X9.0406 Y12.1680
G01 X8.9876 Y12.1198
G01 X8.9385 Y12.0657
G01 X8.8948 Y12.0070
G01 X8.8915 Y12.0021
G01 X8.8547 Y11.9407
G01 X8.8319 Y11.8925
G01 X5.0014 Y11.8925
G00 Z2.0000
G00 X5.0352 Y11.9405
G01 F60.00
G01 Z-0.0700
G01 F120.00
G01 X5.0134 Y12.0015
G01 X5.0104 Y12.0088
G01 X4.9674 Y12.1000
G01 X4.9637 Y12.1070
G01 X4.9091 Y12.1980
G01 X4.8476 Y12.2811
G01 X4.8426 Y12.2873
G01 X4.7713 Y12.3659
G01 X4.6907 Y12.4389
G01 X4.6034 Y12.5037
G01 X4.5147 Y12.5570
G01 X4.5078 Y12.5608
G01 X4.4118 Y12.6061
G01 X4.3094 Y12.6427
G01 X4.2040 Y12.6691
G01 X4.0964 Y12.6851
G01 X3.9878 Y12.6904
G01 X3.8792 Y12.6851
G01 X3.7716 Y12.6691
G01 X3.6713 Y12.6441
G01 X3.6636 Y12.6419
G01 X3.5638 Y12.6061
G01 X3.4655 Y12.5596
G01 X3.3722 Y12.5037
G01 X3.2849 Y12.4389
G01 X3.2043 Y12.3659
G01 X3.1313 Y12.2853
G01 X3.0665 Y12.1980
G01 X3.0106 Y12.1047
G01 X2.9641 Y12.0064
G01 X2.9275 Y11.9040
G01 X2.9011 Y11.7986
G01 X2.8851 Y11.6910
G01 X2.8798 Y11.5824
G01 X2.8851 Y11.4738
G01 X2.9011 Y11.3662
G01 X2.9261 Y11.2659
G01 X2.9283 Y11.2582
G01 X2.9641 Y11.1584
G01 X3.0082 Y11.0648
G01 X3.0132 Y11.0555
G01 X3.0637 Y10.9713
G01 X3.0696 Y10.9625
G01 X3.1313 Y10.8795
G01 X3.2043 Y10.7989
G01 X3.2849 Y10.7259
G01 X3.3679 Y10.6642
G01 X3.3767 Y10.6583
G01 X3.4609 Y10.6078
G01 X3.4702 Y10.6028
G01 X3.5638 Y10.5587
G01 X3.6662 Y10.5221
G01 X3.7716 Y10.4957
G01 X3.8739 Y10.4804
G01 X3.8845 Y10.4793
G01 X3.9878 Y10.4744
G01 X4.0911 Y10.4793
G01 X4.1017 Y10.4804
G01 X4.2040 Y10.4957
G01 X4.3094 Y10.5221
G01 X4.4118 Y10.5587
G01 X4.5054 Y10.6028
G01 X4.5147 Y10.6078
G01 X4.5989 Y10.6583
G01 X4.6056 Y10.6626
G01 X4.6907 Y10.7259
G01 X4.7674 Y10.7953
G01 X4.7749 Y10.8028
G01 X4.8408 Y10.8755
G01 X4.8460 Y10.8816
G01 X4.9091 Y10.9668
G01 X4.9637 Y11.0578
G01 X4.9674 Y11.0648
G01 X5.0104 Y11.1560
G01 X5.0134 Y11.1633
G01 X5.0352 Y11.2243
G01 X8.8015 Y11.2243
G01 X8.8137 Y11.1992
G01 X8.8517 Y11.1357
G01 X8.8562 Y11.1292
G01 X8.8971 Y11.0740
G01 X8.9021 Y11.0678
G01 X8.9537 Y11.0111
G01 X9.0084 Y10.9613
G01 X9.0166 Y10.9545
G01 X9.0718 Y10.9136
G01 X9.0783 Y10.9091
G01 X9.1441 Y10.8698
G01 X9.2109 Y10.8381
G01 X9.2207 Y10.8340
G01 X9.2905 Y10.8092
G01 X9.3674 Y10.7899
G01 X9.4405 Y10.7789
G01 X9.4511 Y10.7779
G01 X9.5250 Y10.7744
G01 X9.5989 Y10.7779
G01 X9.6095 Y10.7789
G01 X9.6826 Y10.7899
G01 X9.7595 Y10.8092
G01 X9.8293 Y10.8340
G01 X9.8391 Y10.8381
G01 X9.9059 Y10.8698
G01 X9.9717 Y10.9091
G01 X9.9782 Y10.9136
G01 X10.0334 Y10.9545
G01 X10.0416 Y10.9613
G01 X10.0963 Y11.0111
G01 X10.1479 Y11.0678
G01 X10.1529 Y11.0740
G01 X10.1938 Y11.1292
G01 X10.1983 Y11.1357
G01 X10.2363 Y11.1992
G01 X10.2485 Y11.2243
G01 X14.5796 Y11.2243
G01 X14.6147 Y11.2260
G01 X14.6495 Y11.2312
G01 X14.6784 Y11.2383
G01 X14.6886 Y11.2414
G01 X14.7142 Y11.2506
G01 X14.7215 Y11.2537
G01 X14.7484 Y11.2666
G01 X14.7786 Y11.2846
G01 X14.8068 Y11.3056
G01 X14.8290 Y11.3255
G01 X15.9915 Y12.4880
G01 X16.0114 Y12.5102
G01 X16.0324 Y12.5384
G01 X16.0504 Y12.5686
G01 X16.0655 Y12.6004
G01 X16.0773 Y12.6334
G01 X16.0858 Y12.6675
G01 X16.0910 Y12.7023
G01 X16.0927 Y12.7374
G01 X16.0927 Y23.6381
G01 X18.3207 Y25.8661
G01 X18.3682 Y25.8440
G01 X18.4584 Y25.8116
G01 X18.4660 Y25.8092
G01 X18.5642 Y25.7847
G01 X18.6643 Y25.7698
G01 X18.6722 Y25.7691
G01 X18.7653 Y25.7645
G01 X18.7759 Y25.7645
G01 X18.8743 Y25.7695
G01 X18.9718 Y25.7838
G01 X18.9796 Y25.7853
G01 X19.0777 Y25.8100
G01 X19.1755 Y25.8449
G01 X19.2693 Y25.8893
G01 X19.3539 Y25.9399
G01 X19.3627 Y25.9458
G01 X19.4376 Y26.0013
G01 X19.4458 Y26.0080
G01 X19.5187 Y26.0743
G01 X19.5867 Y26.1492
G01 X19.5917 Y26.1554
G01 X19.6503 Y26.2346
G01 X19.7037 Y26.3237
G01 X19.7481 Y26.4175
G01 X19.7830 Y26.5153
G01 X19.8083 Y26.6160
G01 X19.8235 Y26.7187
G01 X19.8286 Y26.8224
G01 X19.8239 Y26.9208
G01 X19.8229 Y26.9314
G01 X19.8092 Y27.0236
G01 X19.8071 Y27.0340
G01 X19.7830 Y27.1295
G01 X19.7500 Y27.2223
G01 X19.7459 Y27.2321
G01 X19.7037 Y27.3211
G01 X19.6503 Y27.4102
G01 X19.5884 Y27.4936
G01 X19.5224 Y27.5667
G01 X19.5149 Y27.5742
G01 X19.4418 Y27.6402
G01 X19.3584 Y27.7021
G01 X19.2693 Y27.7555
G01 X19.1755 Y27.7999
G01 X19.0777 Y27.8348
G01 X18.9770 Y27.8601
G01 X18.8743 Y27.8753
G01 X18.7759 Y27.8803
G01 X18.7653 Y27.8803
G01 X18.6669 Y27.8753
G01 X18.5642 Y27.8601
G01 X18.4635 Y27.8348
G01 X18.3707 Y27.8018
G01 X18.3609 Y27.7977
G01 X18.2719 Y27.7555
G01 X18.1873 Y27.7049
G01 X18.1785 Y27.6990
G01 X18.1036 Y27.6435
G01 X18.0954 Y27.6368
G01 X18.0225 Y27.5705
G01 X17.9528 Y27.4936
G01 X17.8909 Y27.4102
G01 X17.8401 Y27.3257
G01 X17.8351 Y27.3164
G01 X17.7953 Y27.2321
G01 X17.7912 Y27.2223
G01 X17.7582 Y27.1295
G01 X17.7335 Y27.0314
G01 X17.7320 Y27.0236
G01 X17.7177 Y26.9261
G01 X17.7127 Y26.8277
G01 X17.7127 Y26.8171
G01 X17.7173 Y26.7240
G01 X17.7180 Y26.7161
G01 X17.7329 Y26.6160
G01 X17.7574 Y26.5178
G01 X17.7598 Y26.5102
G01 X17.7922 Y26.4200
G01 X17.8143 Y26.3725
G01 X15.4795 Y24.0377
G01 X15.4595 Y24.0156
G01 X15.4545 Y24.0094
G01 X15.4368 Y23.9854
G01 X15.4214 Y23.9598
G01 X15.4164 Y23.9505
G01 X15.4037 Y23.9234
G01 X15.3936 Y23.8954
G01 X15.3912 Y23.8878
G01 X15.3834 Y23.8563
G01 X15.3788 Y23.8268
G01 X15.3778 Y23.8162
G01 X15.3765 Y23.7864
G01 X15.3765 Y12.8857
G01 X14.4313 Y11.9405
G01 X10.2485 Y11.9405
G01 X10.2363 Y11.9656
G01 X10.1983 Y12.0291
G01 X10.1938 Y12.0356
G01 X10.1529 Y12.0908
G01 X10.1479 Y12.0970
G01 X10.0963 Y12.1537
G01 X10.0416 Y12.2035
G01 X10.0334 Y12.2103
G01 X9.9782 Y12.2512
G01 X9.9717 Y12.2557
G01 X9.9059 Y12.2950
G01 X9.8391 Y12.3267
G01 X9.8293 Y12.3308
G01 X9.7595 Y12.3556
G01 X9.6826 Y12.3749
G01 X9.6095 Y12.3859
G01 X9.5989 Y12.3869
G01 X9.5250 Y12.3904
G01 X9.4511 Y12.3869
G01 X9.4405 Y12.3859
G01 X9.3674 Y12.3749
G01 X9.2905 Y12.3556
G01 X9.2207 Y12.3308
G01 X9.2109 Y12.3267
G01 X9.1441 Y12.2950
G01 X9.0783 Y12.2557
G01 X9.0718 Y12.2512
G01 X9.0166 Y12.2103
G01 X9.0084 Y12.2035
G01 X8.9537 Y12.1537
G01 X8.9021 Y12.0970
G01 X8.8971 Y12.0908
G01 X8.8562 Y12.0356
G01 X8.8517 Y12.0291
G01 X8.8137 Y11.9656
G01 X8.8015 Y11.9405
G01 X5.0352 Y11.9405
G00 Z2.0000
G00 X5.0014 Y20.8079
G01 F60.00
G01 Z-0.0700
G01 F120.00
G01 X4.9671 Y20.9034
G01 X4.9226 Y20.9975
G01 X4.8692 Y21.0867
G01 X4.8072 Y21.1703
G01 X4.7373 Y21.2473
G01 X4.6603 Y21.3172
G01 X4.5767 Y21.3792
G01 X4.4875 Y21.4326
G01 X4.3934 Y21.4771
G01 X4.2955 Y21.5122
G01 X4.1946 Y21.5374
G01 X4.0917 Y21.5527
G01 X3.9878 Y21.5578
G01 X3.8839 Y21.5527
G01 X3.7810 Y21.5374
G01 X3.6801 Y21.5122
G01 X3.5822 Y21.4771
G01 X3.4881 Y21.4326
G01 X3.3989 Y21.3792
G01 X3.3153 Y21.3172
G01 X3.2383 Y21.2473
G01 X3.1684 Y21.1703
G01 X3.1064 Y21.0867
G01 X3.0530 Y20.9975
G01 X3.0085 Y20.9034
G01 X2.9734 Y20.8055
G01 X2.9482 Y20.7046
G01 X2.9329 Y20.6017
G01 X2.9278 Y20.4978
G01 X2.9329 Y20.3939
G01 X2.9482 Y20.2910
G01 X2.9734 Y20.1901
G01 X3.0085 Y20.0922
G01 X3.0530 Y19.9981
G01 X3.1064 Y19.9089
G01 X3.1684 Y19.8253
G01 X3.2383 Y19.7483
G01 X3.3153 Y19.6784
G01 X3.3989 Y19.6164
G01 X3.4881 Y19.5630
G01 X3.5822 Y19.5185
G01 X3.6801 Y19.4834
G01 X3.7810 Y19.4582
G01 X3.8839 Y19.4429
G01 X3.9878 Y19.4378
G01 X4.0917 Y19.4429
G01 X4.1946 Y19.4582
G01 X4.2941 Y19.4830
G01 X4.3934 Y19.5185
G01 X4.4848 Y19.5616
G01 X4.4900 Y19.5644
G01 X4.5767 Y19.6164
G01 X4.6579 Y19.6766
G01 X4.6625 Y19.6803
G01 X4.7373 Y19.7483
G01 X4.8072 Y19.8253
G01 X4.8675 Y19.9065
G01 X4.8707 Y19.9114
G01 X4.9226 Y19.9981
G01 X4.9659 Y20.0895
G01 X4.9682 Y20.0949
G01 X5.0014 Y20.1877
G01 X6.8341 Y20.1877
G01 X6.8659 Y20.1895
G01 X6.8931 Y20.1936
G01 X6.9198 Y20.2002
G01 X6.9254 Y20.2020
G01 X6.9513 Y20.2113
G01 X6.9788 Y20.2243
G01 X7.0049 Y20.2399
G01 X7.0270 Y20.2563
G01 X7.0316 Y20.2600
G01 X7.0519 Y20.2785
G01 X8.2457 Y21.4723
G01 X8.2661 Y21.4949
G01 X8.2826 Y21.5169
G01 X8.2858 Y21.5218
G01 X8.2999 Y21.5454
G01 X8.3117 Y21.5702
G01 X8.3140 Y21.5757
G01 X8.3232 Y21.6016
G01 X8.3306 Y21.6311
G01 X8.3347 Y21.6583
G01 X8.3352 Y21.6641
G01 X8.3365 Y21.6916
G01 X8.3365 Y37.7683
G01 X10.7711 Y40.2029
G01 X14.1717 Y40.2029
G01 X15.1077 Y39.2669
G01 X15.1077 Y32.7152
G01 X15.1092 Y32.6848
G01 X15.1131 Y32.6576
G01 X15.1143 Y32.6518
G01 X15.1220 Y32.6224
G01 X15.1313 Y32.5965
G01 X15.1430 Y32.5716
G01 X15.1584 Y32.5454
G01 X15.1616 Y32.5405
G01 X15.1781 Y32.5185
G01 X15.1985 Y32.4959
G01 X17.8721 Y29.8223
G01 X17.8375 Y29.7489
G01 X17.8041 Y29.6556
G01 X17.7800 Y29.5594
G01 X17.7658 Y29.4643
G01 X17.7652 Y29.4585
G01 X17.7607 Y29.3653
G01 X17.7607 Y29.3595
G01 X17.7655 Y29.2634
G01 X17.7800 Y29.1654
G01 X17.8041 Y29.0692
G01 X17.8364 Y28.9786
G01 X17.8387 Y28.9732
G01 X17.8785 Y28.8889
G01 X17.8813 Y28.8837
G01 X17.9308 Y28.8013
G01 X17.9899 Y28.7217
G01 X18.0564 Y28.6482
G01 X18.1287 Y28.5826
G01 X18.2095 Y28.5226
G01 X18.2945 Y28.4717
G01 X18.3841 Y28.4293
G01 X18.4774 Y28.3959
G01 X18.5736 Y28.3718
G01 X18.6716 Y28.3573
G01 X18.7706 Y28.3524
G01 X18.8711 Y28.3574
G01 X18.9676 Y28.3718
G01 X19.0638 Y28.3959
G01 X19.1571 Y28.4293
G01 X19.2467 Y28.4717
G01 X19.3317 Y28.5226
G01 X19.4090 Y28.5798
G01 X19.4136 Y28.5836
G01 X19.4826 Y28.6462
G01 X19.4868 Y28.6504
G01 X19.5513 Y28.7217
G01 X19.5979 Y28.7844
G01 X19.6720 Y28.7844
G01 X21.3632 Y27.0932
G01 X21.3453 Y27.0430
G01 X21.3269 Y26.9692
G01 X21.3163 Y26.8969
G01 X21.3126 Y26.8209
G01 X21.3163 Y26.7479
G01 X21.3272 Y26.6741
G01 X21.3453 Y26.6018
G01 X21.3705 Y26.5316
G01 X21.4023 Y26.4641
G01 X21.4407 Y26.4002
G01 X21.4851 Y26.3403
G01 X21.5342 Y26.2861
G01 X21.5905 Y26.2349
G01 X21.6492 Y26.1913
G01 X21.7143 Y26.1521
G01 X21.7625 Y26.1293
G01 X21.7625 Y24.8905
G01 X21.7640 Y24.8616
G01 X21.7684 Y24.8315
G01 X21.7758 Y24.8020
G01 X21.7850 Y24.7761
G01 X21.7873 Y24.7706
G01 X21.7991 Y24.7458
G01 X21.8147 Y24.7197
G01 X21.8329 Y24.6953
G01 X21.8523 Y24.6738
G01 X22.4932 Y24.0329
G01 X22.5147 Y24.0135
G01 X22.5391 Y23.9953
G01 X22.5652 Y23.9797
G01 X22.5927 Y23.9667
G01 X22.6214 Y23.9564
G01 X22.6509 Y23.9490
G01 X22.6810 Y23.9446
G01 X22.7099 Y23.9431
G01 X25.9604 Y23.9431
G01 X25.9927 Y23.8890
G01 X25.9959 Y23.8841
G01 X26.0328 Y23.8345
G01 X26.0763 Y23.7865
G01 X26.1243 Y23.7430
G01 X26.1739 Y23.7061
G01 X26.1788 Y23.7029
G01 X26.2319 Y23.6711
G01 X26.2904 Y23.6434
G01 X26.3486 Y23.6225
G01 X26.3543 Y23.6208
G01 X26.4142 Y23.6059
G01 X26.4754 Y23.5967
G01 X26.4812 Y23.5962
G01 X26.5430 Y23.5932
G01 X26.6062 Y23.5963
G01 X26.6718 Y23.6059
G01 X26.7346 Y23.6216
G01 X26.7956 Y23.6434
G01 X26.8541 Y23.6711
G01 X26.9097 Y23.7044
G01 X26.9617 Y23.7430
G01 X27.0097 Y23.7865
G01 X27.0513 Y23.8323
G01 X27.0550 Y23.8368
G01 X27.0918 Y23.8865
G01 X27.1236 Y23.9395
G01 X27.1264 Y23.9447
G01 X27.1528 Y24.0006
G01 X27.1737 Y24.0588
G01 X27.1754 Y24.0645
G01 X27.1897 Y24.1216
G01 X27.1908 Y24.1273
G01 X27.1998 Y24.1885
G01 X27.2030 Y24.2532
G01 X27.1998 Y24.3179
G01 X27.1906 Y24.3805
G01 X27.1746 Y24.4448
G01 X27.1538 Y24.5030
G01 X27.1516 Y24.5085
G01 X27.1264 Y24.5617
G01 X27.1236 Y24.5669
G01 X27.0918 Y24.6199
G01 X27.0532 Y24.6719
G01 X27.0097 Y24.7199
G01 X26.9617 Y24.7634
G01 X26.9097 Y24.8020
G01 X26.8567 Y24.8338
G01 X26.8515 Y24.8366
G01 X26.7983 Y24.8618
G01 X26.7928 Y24.8640
G01 X26.7346 Y24.8848
G01 X26.6718 Y24.9005
G01 X26.6077 Y24.9100
G01 X26.5459 Y24.9131
G01 X26.5401 Y24.9131
G01 X26.4812 Y24.9102
G01 X26.4754 Y24.9097
G01 X26.4142 Y24.9005
G01 X26.3543 Y24.8856
G01 X26.3486 Y24.8839
G01 X26.2904 Y24.8630
G01 X26.2345 Y24.8366
G01 X26.2293 Y24.8338
G01 X26.1763 Y24.8020
G01 X26.1266 Y24.7652
G01 X26.1221 Y24.7615
G01 X26.0763 Y24.7199
G01 X26.0328 Y24.6719
G01 X25.9959 Y24.6223
G01 X25.9927 Y24.6174
G01 X25.9604 Y24.5633
G01 X22.8399 Y24.5633
G01 X22.3827 Y25.0205
G01 X22.3827 Y26.1293
G01 X22.4309 Y26.1521
G01 X22.4923 Y26.1889
G01 X22.4972 Y26.1922
G01 X22.5547 Y26.2349
G01 X22.6079 Y26.2830
G01 X22.6120 Y26.2871
G01 X22.6601 Y26.3403
G01 X22.7037 Y26.3990
G01 X22.7429 Y26.4641
G01 X22.7736 Y26.5289
G01 X22.7758 Y26.5343
G01 X22.7999 Y26.6018
G01 X22.8174 Y26.6713
G01 X22.8185 Y26.6770
G01 X22.8288 Y26.7464
G01 X22.8326 Y26.8224
G01 X22.8289 Y26.8969
G01 X22.8180 Y26.9707
G01 X22.7999 Y27.0430
G01 X22.7747 Y27.1132
G01 X22.7429 Y27.1807
G01 X22.7045 Y27.2446
G01 X22.6591 Y27.3057
G01 X22.6100 Y27.3598
G01 X22.5570 Y27.4080
G01 X22.5524 Y27.4117
G01 X22.4948 Y27.4543
G01 X22.4309 Y27.4927
G01 X22.3661 Y27.5234
G01 X22.3607 Y27.5256
G01 X22.2918 Y27.5501
G01 X22.2209 Y27.5678
G01 X22.1500 Y27.5784
G01 X22.1442 Y27.5790
G01 X22.0755 Y27.5823
G01 X22.0697 Y27.5823
G01 X21.9981 Y27.5787
G01 X21.9243 Y27.5678
G01 X21.8520 Y27.5497
G01 X21.8018 Y27.5318
G01 X20.0177 Y29.3158
G01 X19.9972 Y29.3342
G01 X19.9728 Y29.3524
G01 X19.9467 Y29.3680
G01 X19.9219 Y29.3798
G01 X19.9164 Y29.3821
G01 X19.8905 Y29.3913
G01 X19.8596 Y29.3989
G01 X19.8294 Y29.4033
G01 X19.8020 Y29.4046
G01 X19.7786 Y29.4046
G01 X19.7756 Y29.4629
G01 X19.7615 Y29.5580
G01 X19.7375 Y29.6542
G01 X19.7037 Y29.7489
G01 X19.6606 Y29.8398
G01 X19.6120 Y29.9210
G01 X19.6087 Y29.9259
G01 X19.5513 Y30.0031
G01 X19.4868 Y30.0744
G01 X19.4826 Y30.0786
G01 X19.4113 Y30.1431
G01 X19.3317 Y30.2022
G01 X19.2493 Y30.2517
G01 X19.2441 Y30.2545
G01 X19.1571 Y30.2955
G01 X19.0666 Y30.3280
G01 X19.0609 Y30.3297
G01 X18.9676 Y30.3530
G01 X18.8725 Y30.3672
G01 X18.8667 Y30.3678
G01 X18.7706 Y30.3724
G01 X18.6745 Y30.3678
G01 X18.6687 Y30.3672
G01 X18.5736 Y30.3530
G01 X18.4803 Y30.3297
G01 X18.4746 Y30.3280
G01 X18.3841 Y30.2955
G01 X18.3107 Y30.2609
G01 X15.7279 Y32.8437
G01 X15.7279 Y39.3954
G01 X15.7264 Y39.4258
G01 X15.7225 Y39.4530
G01 X15.7154 Y39.4826
G01 X15.7136 Y39.4882
G01 X15.7043 Y39.5141
G01 X15.6913 Y39.5416
G01 X15.6757 Y39.5677
G01 X15.6593 Y39.5898
G01 X15.6556 Y39.5944
G01 X15.6371 Y39.6147
G01 X14.5184 Y40.7333
G01 X14.4969 Y40.7527
G01 X14.4749 Y40.7692
G01 X14.4700 Y40.7724
G01 X14.4464 Y40.7865
G01 X14.4216 Y40.7983
G01 X14.4161 Y40.8006
G01 X14.3902 Y40.8098
G01 X14.3636 Y40.8165
G01 X14.3578 Y40.8177
G01 X14.3306 Y40.8216
G01 X14.3002 Y40.8231
G01 X10.6426 Y40.8231
G01 X10.6122 Y40.8216
G01 X10.5835 Y40.8174
G01 X10.5554 Y40.8106
G01 X10.5498 Y40.8088
G01 X10.5239 Y40.7995
G01 X10.4964 Y40.7865
G01 X10.4728 Y40.7724
G01 X10.4679 Y40.7692
G01 X10.4459 Y40.7527
G01 X10.4244 Y40.7333
G01 X7.8071 Y38.1161
G01 X7.7886 Y38.0958
G01 X7.7849 Y38.0912
G01 X7.7685 Y38.0691
G01 X7.7529 Y38.0430
G01 X7.7399 Y38.0155
G01 X7.7306 Y37.9896
G01 X7.7288 Y37.9840
G01 X7.7217 Y37.9544
G01 X7.7178 Y37.9272
G01 X7.7163 Y37.8968
G01 X7.7163 Y21.8201
G01 X6.7041 Y20.8079
G01 X5.0014 Y20.8079
G00 Z2.0000
G00 X5.0352 Y20.8559
G01 F60.00
G01 Z-0.0700
G01 F120.00
G01 X5.0134 Y20.9169
G01 X5.0104 Y20.9242
G01 X4.9674 Y21.0154
G01 X4.9637 Y21.0224
G01 X4.9091 Y21.1134
G01 X4.8476 Y21.1965
G01 X4.8426 Y21.2027
G01 X4.7713 Y21.2813
G01 X4.6907 Y21.3543
G01 X4.6034 Y21.4191
G01 X4.5147 Y21.4724
G01 X4.5078 Y21.4762
G01 X4.4118 Y21.5215
G01 X4.3094 Y21.5581
G01 X4.2040 Y21.5845
G01 X4.0964 Y21.6005
G01 X3.9878 Y21.6058
G01 X3.8792 Y21.6005
G01 X3.7716 Y21.5845
G01 X3.6713 Y21.5595
G01 X3.6636 Y21.5573
G01 X3.5638 Y21.5215
G01 X3.4655 Y21.4750
G01 X3.3722 Y21.4191
G01 X3.2849 Y21.3543
G01 X3.2043 Y21.2813
G01 X3.1313 Y21.2007
G01 X3.0665 Y21.1134
G01 X3.0106 Y21.0201
G01 X2.9641 Y20.9218
G01 X2.9275 Y20.8194
G01 X2.9011 Y20.7140
G01 X2.8851 Y20.6064
G01 X2.8798 Y20.4978
G01 X2.8851 Y20.3892
G01 X2.9011 Y20.2816
G01 X2.9261 Y20.1813
G01 X2.9283 Y20.1736
G01 X2.9641 Y20.0738
G01 X3.0106 Y19.9755
G01 X3.0665 Y19.8822
G01 X3.1313 Y19.7949
G01 X3.2043 Y19.7143
G01 X3.2849 Y19.6413
G01 X3.3722 Y19.5765
G01 X3.4655 Y19.5206
G01 X3.5638 Y19.4741
G01 X3.6662 Y19.4375
G01 X3.7716 Y19.4111
G01 X3.8792 Y19.3951
G01 X3.9878 Y19.3898
G01 X4.0964 Y19.3951
G01 X4.2040 Y19.4111
G01 X4.3043 Y19.4361
G01 X4.3145 Y19.4392
G01 X4.4118 Y19.4741
G01 X4.5054 Y19.5182
G01 X4.5147 Y19.5232
G01 X4.6034 Y19.5765
G01 X4.6865 Y19.6380
G01 X4.6947 Y19.6448
G01 X4.7694 Y19.7125
G01 X4.7749 Y19.7182
G01 X4.8443 Y19.7949
G01 X4.9060 Y19.8779
G01 X4.9105 Y19.8845
G01 X4.9624 Y19.9709
G01 X4.9662 Y19.9778
G01 X5.0115 Y20.0738
G01 X5.0352 Y20.1397
G01 X6.8353 Y20.1397
G01 X6.8651 Y20.1412
G01 X6.8730 Y20.1420
G01 X6.9025 Y20.1466
G01 X6.9314 Y20.1537
G01 X6.9416 Y20.1568
G01 X6.9696 Y20.1669
G01 X7.0014 Y20.1820
G01 X7.0316 Y20.2000
G01 X7.0556 Y20.2177
G01 X7.0638 Y20.2244
G01 X7.0858 Y20.2446
G01 X8.2815 Y21.4403
G01 X8.3015 Y21.4624
G01 X8.3065 Y21.4686
G01 X8.3242 Y21.4926
G01 X8.3396 Y21.5182
G01 X8.3446 Y21.5275
G01 X8.3573 Y21.5546
G01 X8.3691 Y21.5876
G01 X8.3776 Y21.6217
G01 X8.3822 Y21.6512
G01 X8.3832 Y21.6618
G01 X8.3845 Y21.6916
G01 X8.3845 Y37.7485
G01 X10.7909 Y40.1549
G01 X14.1519 Y40.1549
G01 X15.0597 Y39.2471
G01 X15.0597 Y32.7152
G01 X15.0614 Y32.6801
G01 X15.0657 Y32.6506
G01 X15.0677 Y32.6402
G01 X15.0744 Y32.6138
G01 X15.0768 Y32.6062
G01 X15.0869 Y32.5782
G01 X15.0996 Y32.5511
G01 X15.1032 Y32.5441
G01 X15.1172 Y32.5207
G01 X15.1231 Y32.5119
G01 X15.1410 Y32.4880
G01 X15.1646 Y32.4620
G01 X17.8143 Y29.8123
G01 X17.7922 Y29.7648
G01 X17.7598 Y29.6746
G01 X17.7574 Y29.6670
G01 X17.7329 Y29.5688
G01 X17.7180 Y29.4687
G01 X17.7173 Y29.4608
G01 X17.7127 Y29.3677
G01 X17.7127 Y29.3571
G01 X17.7177 Y29.2587
G01 X17.7320 Y29.1612
G01 X17.7335 Y29.1534
G01 X17.7582 Y29.0553
G01 X17.7931 Y28.9575
G01 X17.8375 Y28.8637
G01 X17.8881 Y28.7791
G01 X17.8940 Y28.7703
G01 X17.9495 Y28.6954
G01 X17.9562 Y28.6872
G01 X18.0225 Y28.6143
G01 X18.0974 Y28.5463
G01 X18.1036 Y28.5413
G01 X18.1828 Y28.4827
G01 X18.2719 Y28.4293
G01 X18.3657 Y28.3849
G01 X18.4635 Y28.3500
G01 X18.5642 Y28.3247
G01 X18.6669 Y28.3095
G01 X18.7706 Y28.3044
G01 X18.8690 Y28.3091
G01 X18.8769 Y28.3098
G01 X18.9770 Y28.3247
G01 X19.0777 Y28.3500
G01 X19.1755 Y28.3849
G01 X19.2693 Y28.4293
G01 X19.3584 Y28.4827
G01 X19.4376 Y28.5413
G01 X19.4438 Y28.5463
G01 X19.5149 Y28.6106
G01 X19.5206 Y28.6162
G01 X19.5867 Y28.6892
G01 X19.5917 Y28.6954
G01 X19.6221 Y28.7364
G01 X19.6522 Y28.7364
G01 X21.3078 Y27.0808
G01 X21.2987 Y27.0544
G01 X21.2813 Y26.9852
G01 X21.2796 Y26.9774
G01 X21.2685 Y26.9016
G01 X21.2647 Y26.8277
G01 X21.2646 Y26.8197
G01 X21.2685 Y26.7432
G01 X21.2801 Y26.6648
G01 X21.2994 Y26.5879
G01 X21.3261 Y26.5132
G01 X21.3600 Y26.4415
G01 X21.4008 Y26.3735
G01 X21.4480 Y26.3098
G01 X21.4994 Y26.2530
G01 X21.5051 Y26.2474
G01 X21.5600 Y26.1978
G01 X21.6215 Y26.1521
G01 X21.6282 Y26.1477
G01 X21.6894 Y26.1111
G01 X21.7145 Y26.0989
G01 X21.7145 Y24.8893
G01 X21.7162 Y24.8569
G01 X21.7214 Y24.8221
G01 X21.7299 Y24.7880
G01 X21.7408 Y24.7574
G01 X21.7439 Y24.7501
G01 X21.7568 Y24.7232
G01 X21.7748 Y24.6930
G01 X21.7958 Y24.6648
G01 X21.8175 Y24.6407
G01 X22.4601 Y23.9981
G01 X22.4842 Y23.9764
G01 X22.5124 Y23.9554
G01 X22.5426 Y23.9374
G01 X22.5744 Y23.9223
G01 X22.6074 Y23.9105
G01 X22.6415 Y23.9020
G01 X22.6763 Y23.8968
G01 X22.7087 Y23.8951
G01 X25.9331 Y23.8951
G01 X25.9543 Y23.8599
G01 X25.9941 Y23.8061
G01 X25.9992 Y23.8000
G01 X26.0387 Y23.7564
G01 X26.0443 Y23.7507
G01 X26.0938 Y23.7059
G01 X26.1453 Y23.6676
G01 X26.1541 Y23.6617
G01 X26.2046 Y23.6314
G01 X26.2116 Y23.6276
G01 X26.2721 Y23.5991
G01 X26.3324 Y23.5773
G01 X26.3426 Y23.5743
G01 X26.4049 Y23.5588
G01 X26.4683 Y23.5493
G01 X26.4789 Y23.5482
G01 X26.5430 Y23.5452
G01 X26.6098 Y23.5484
G01 X26.6177 Y23.5493
G01 X26.6811 Y23.5588
G01 X26.7485 Y23.5757
G01 X26.8139 Y23.5991
G01 X26.8767 Y23.6288
G01 X26.9363 Y23.6645
G01 X26.9922 Y23.7059
G01 X27.0436 Y23.7526
G01 X27.0868 Y23.8000
G01 X27.0936 Y23.8082
G01 X27.1317 Y23.8599
G01 X27.1674 Y23.9195
G01 X27.1971 Y23.9823
G01 X27.2189 Y24.0426
G01 X27.2219 Y24.0528
G01 X27.2374 Y24.1151
G01 X27.2469 Y24.1785
G01 X27.2480 Y24.1891
G01 X27.2509 Y24.2479
G01 X27.2509 Y24.2585
G01 X27.2476 Y24.3226
G01 X27.2383 Y24.3861
G01 X27.2362 Y24.3965
G01 X27.2205 Y24.4587
G01 X27.1990 Y24.5192
G01 X27.1950 Y24.5290
G01 X27.1698 Y24.5822
G01 X27.1648 Y24.5916
G01 X27.1317 Y24.6465
G01 X27.0903 Y24.7024
G01 X27.0436 Y24.7538
G01 X26.9962 Y24.7970
G01 X26.9880 Y24.8038
G01 X26.9407 Y24.8388
G01 X26.9319 Y24.8447
G01 X26.8767 Y24.8776
G01 X26.8139 Y24.9073
G01 X26.7485 Y24.9307
G01 X26.6863 Y24.9464
G01 X26.6759 Y24.9485
G01 X26.6177 Y24.9571
G01 X26.6071 Y24.9582
G01 X26.5430 Y24.9612
G01 X26.4789 Y24.9582
G01 X26.4683 Y24.9571
G01 X26.4049 Y24.9476
G01 X26.3426 Y24.9321
G01 X26.3324 Y24.9291
G01 X26.2721 Y24.9073
G01 X26.2116 Y24.8788
G01 X26.2046 Y24.8750
G01 X26.1541 Y24.8447
G01 X26.1453 Y24.8388
G01 X26.0938 Y24.8005
G01 X26.0443 Y24.7557
G01 X26.0387 Y24.7500
G01 X25.9992 Y24.7064
G01 X25.9941 Y24.7003
G01 X25.9543 Y24.6465
G01 X25.9331 Y24.6113
G01 X22.8597 Y24.6113
G01 X22.4307 Y25.0403
G01 X22.4307 Y26.0989
G01 X22.4558 Y26.1111
G01 X22.5193 Y26.1491
G01 X22.5258 Y26.1536
G01 X22.5810 Y26.1945
G01 X22.5872 Y26.1995
G01 X22.6439 Y26.2511
G01 X22.6937 Y26.3058
G01 X22.7005 Y26.3140
G01 X22.7429 Y26.3713
G01 X22.7473 Y26.3780
G01 X22.7852 Y26.4415
G01 X22.8169 Y26.5083
G01 X22.8210 Y26.5181
G01 X22.8458 Y26.5879
G01 X22.8639 Y26.6596
G01 X22.8660 Y26.6700
G01 X22.8764 Y26.7406
G01 X22.8771 Y26.7485
G01 X22.8806 Y26.8224
G01 X22.8767 Y26.9016
G01 X22.8651 Y26.9800
G01 X22.8458 Y27.0569
G01 X22.8191 Y27.1316
G01 X22.7852 Y27.2033
G01 X22.7444 Y27.2713
G01 X22.7005 Y27.3308
G01 X22.6955 Y27.3370
G01 X22.6439 Y27.3937
G01 X22.5892 Y27.4435
G01 X22.5810 Y27.4503
G01 X22.5215 Y27.4942
G01 X22.4535 Y27.5350
G01 X22.3867 Y27.5667
G01 X22.3769 Y27.5708
G01 X22.3122 Y27.5939
G01 X22.3046 Y27.5963
G01 X22.2302 Y27.6149
G01 X22.1571 Y27.6259
G01 X22.1465 Y27.6269
G01 X22.0779 Y27.6303
G01 X22.0699 Y27.6304
G01 X21.9934 Y27.6265
G01 X21.9176 Y27.6154
G01 X21.9098 Y27.6137
G01 X21.8406 Y27.5963
G01 X21.8142 Y27.5872
G01 X20.0518 Y29.3496
G01 X20.0277 Y29.3713
G01 X19.9995 Y29.3923
G01 X19.9693 Y29.4103
G01 X19.9400 Y29.4243
G01 X19.9326 Y29.4273
G01 X19.9045 Y29.4372
G01 X19.8730 Y29.4452
G01 X19.8382 Y29.4506
G01 X19.8243 Y29.4516
G01 X19.8237 Y29.4635
G01 X19.8229 Y29.4714
G01 X19.8083 Y29.5688
G01 X19.7830 Y29.6695
G01 X19.7481 Y29.7673
G01 X19.7061 Y29.8564
G01 X19.7011 Y29.8657
G01 X19.6503 Y29.9502
G01 X19.5917 Y30.0294
G01 X19.5850 Y30.0376
G01 X19.5224 Y30.1067
G01 X19.5149 Y30.1142
G01 X19.4418 Y30.1802
G01 X19.3584 Y30.2421
G01 X19.2739 Y30.2929
G01 X19.2646 Y30.2979
G01 X19.1755 Y30.3399
G01 X19.0828 Y30.3732
G01 X19.0726 Y30.3763
G01 X18.9770 Y30.4001
G01 X18.8796 Y30.4147
G01 X18.8717 Y30.4155
G01 X18.7759 Y30.4203
G01 X18.7653 Y30.4203
G01 X18.6669 Y30.4153
G01 X18.5668 Y30.4006
G01 X18.5590 Y30.3989
G01 X18.4686 Y30.3763
G01 X18.4610 Y30.3740
G01 X18.3682 Y30.3408
G01 X18.3207 Y30.3187
G01 X15.7759 Y32.8635
G01 X15.7759 Y39.3954
G01 X15.7742 Y39.4305
G01 X15.7699 Y39.4600
G01 X15.7685 Y39.4679
G01 X15.7619 Y39.4942
G01 X15.7588 Y39.5044
G01 X15.7487 Y39.5324
G01 X15.7336 Y39.5642
G01 X15.7156 Y39.5944
G01 X15.6979 Y39.6184
G01 X15.6912 Y39.6266
G01 X15.6710 Y39.6486
G01 X14.5515 Y40.7681
G01 X14.5274 Y40.7898
G01 X14.5035 Y40.8077
G01 X14.4947 Y40.8136
G01 X14.4690 Y40.8288
G01 X14.4421 Y40.8417
G01 X14.4323 Y40.8458
G01 X14.4042 Y40.8557
G01 X14.3752 Y40.8631
G01 X14.3648 Y40.8651
G01 X14.3353 Y40.8694
G01 X14.3002 Y40.8711
G01 X10.6426 Y40.8711
G01 X10.6075 Y40.8694
G01 X10.5780 Y40.8651
G01 X10.5701 Y40.8637
G01 X10.5438 Y40.8571
G01 X10.5336 Y40.8540
G01 X10.5056 Y40.8439
G01 X10.4738 Y40.8288
G01 X10.4436 Y40.8108
G01 X10.4196 Y40.7931
G01 X10.4114 Y40.7864
G01 X10.3894 Y40.7662
G01 X7.7713 Y38.1481
G01 X7.7496 Y38.1240
G01 X7.7317 Y38.1001
G01 X7.7258 Y38.0913
G01 X7.7106 Y38.0656
G01 X7.6955 Y38.0338
G01 X7.6854 Y38.0058
G01 X7.6823 Y37.9956
G01 X7.6757 Y37.9693
G01 X7.6743 Y37.9614
G01 X7.6700 Y37.9319
G01 X7.6683 Y37.8968
G01 X7.6683 Y21.8399
G01 X6.6843 Y20.8559
G01 X5.0352 Y20.8559
G00 Z2.0000
G00 X8.4253 Y21.6152
G01 F60.00
G01 Z-0.0700
G01 F120.00
G01 X8.4348 Y21.6184
G01 X8.4423 Y21.6204
G01 X8.4652 Y21.6253
G01 X8.4801 Y21.6278
G01 X8.4915 Y21.6287
G01 X8.5067 Y21.6286
G01 X8.5971 Y21.6235
G01 X8.6049 Y21.6228
G01 X8.6164 Y21.6211
G01 X8.6316 Y21.6176
G01 X8.6645 Y21.6071
G01 X8.6716 Y21.6045
G01 X8.6816 Y21.6001
G01 X8.6731 Y21.6585
G01 X8.6692 Y21.7347
G01 X8.6692 Y21.7501
G01 X8.6728 Y21.8225
G01 X8.6741 Y21.8339
G01 X8.6854 Y21.9094
G01 X8.7038 Y21.9835
G01 X8.7070 Y21.9946
G01 X8.6899 Y21.9906
G01 X8.6747 Y21.9887
G01 X8.6594 Y21.9883
G01 X8.6442 Y21.9895
G01 X8.6328 Y21.9913
G01 X8.5021 Y22.0173
G01 X8.4947 Y22.0191
G01 X8.4837 Y22.0226
G01 X8.4730 Y22.0269
G01 X8.4661 Y22.0301
G01 X8.4560 Y22.0357
G01 X8.4496 Y22.0398
G01 X8.4403 Y22.0465
G01 X8.4325 Y22.0529
G01 X8.4325 Y21.6878
G01 X8.4306 Y21.6518
G01 X8.4253 Y21.6152
G00 Z2.0000
G00 X8.4800 Y21.6760
G01 F60.00
G01 Z-0.0700
G01 F120.00
G01 X8.4945 Y21.6768
G01 X8.5094 Y21.6765
G01 X8.6049 Y21.6710
G01 X8.6244 Y21.6685
G01 X8.6210 Y21.7424
G01 X8.6249 Y21.8260
G01 X8.6266 Y21.8409
G01 X8.6375 Y21.9138
G01 X8.6394 Y21.9237
G01 X8.6437 Y21.9412
G01 X8.6334 Y21.9425
G01 X8.6235 Y21.9442
G01 X8.4965 Y21.9694
G01 X8.4805 Y21.9733
G01 X8.4805 Y21.6916
G01 X8.4800 Y21.6760
G00 Z2.0000
G00 X9.1669 Y22.4659
G01 F60.00
G01 Z-0.0700
G01 F120.00
G01 X9.1418 Y22.4537
G01 X9.0783 Y22.4157
G01 X9.0718 Y22.4112
G01 X9.0145 Y22.3686
G01 X9.0084 Y22.3635
G01 X8.9537 Y22.3137
G01 X8.9021 Y22.2570
G01 X8.8971 Y22.2508
G01 X8.8532 Y22.1913
G01 X8.8124 Y22.1233
G01 X8.7785 Y22.0516
G01 X8.7526 Y21.9795
G01 X8.7504 Y21.9718
G01 X8.7325 Y21.9000
G01 X8.7209 Y21.8216
G01 X8.7170 Y21.7424
G01 X8.7209 Y21.6632
G01 X8.7325 Y21.5848
G01 X8.7518 Y21.5079
G01 X8.7785 Y21.4332
G01 X8.8112 Y21.3639
G01 X8.8150 Y21.3569
G01 X8.8532 Y21.2935
G01 X8.9004 Y21.2298
G01 X8.9537 Y21.1711
G01 X9.0124 Y21.1178
G01 X9.0761 Y21.0706
G01 X9.1441 Y21.0298
G01 X9.2158 Y20.9959
G01 X9.2905 Y20.9692
G01 X9.3674 Y20.9499
G01 X9.4458 Y20.9383
G01 X9.5250 Y20.9344
G01 X9.6042 Y20.9383
G01 X9.6826 Y20.9499
G01 X9.7595 Y20.9692
G01 X9.8342 Y20.9959
G01 X9.9035 Y21.0286
G01 X9.9105 Y21.0324
G01 X9.9694 Y21.0677
G01 X9.9782 Y21.0736
G01 X10.0376 Y21.1178
G01 X10.0925 Y21.1674
G01 X10.1000 Y21.1749
G01 X10.1496 Y21.2298
G01 X10.1938 Y21.2892
G01 X10.1997 Y21.2980
G01 X10.2376 Y21.3615
G01 X10.2693 Y21.4283
G01 X10.2734 Y21.4381
G01 X10.2982 Y21.5079
G01 X10.3175 Y21.5848
G01 X10.3285 Y21.6579
G01 X10.3295 Y21.6685
G01 X10.3330 Y21.7424
G01 X10.3295 Y21.8163
G01 X10.3285 Y21.8269
G01 X10.3175 Y21.9000
G01 X10.2982 Y21.9769
G01 X10.2734 Y22.0467
G01 X10.2693 Y22.0565
G01 X10.2376 Y22.1233
G01 X10.1983 Y22.1891
G01 X10.1938 Y22.1956
G01 X10.1529 Y22.2508
G01 X10.1461 Y22.2590
G01 X10.0963 Y22.3137
G01 X10.0396 Y22.3653
G01 X10.0334 Y22.3703
G01 X9.9782 Y22.4112
G01 X9.9717 Y22.4157
G01 X9.9082 Y22.4537
G01 X9.8831 Y22.4659
G01 X9.8831 Y36.4023
G01 X11.8069 Y38.3261
G01 X12.1165 Y38.3261
G01 X12.1219 Y38.3127
G01 X12.1599 Y38.2326
G01 X12.2054 Y38.1564
G01 X12.2113 Y38.1476
G01 X12.2643 Y38.0765
G01 X12.3237 Y38.0106
G01 X12.3312 Y38.0031
G01 X12.3971 Y37.9437
G01 X12.4682 Y37.8907
G01 X12.4770 Y37.8848
G01 X12.5532 Y37.8393
G01 X12.6333 Y37.8013
G01 X12.6431 Y37.7972
G01 X12.7267 Y37.7675
G01 X12.8127 Y37.7458
G01 X12.8205 Y37.7441
G01 X12.9056 Y37.7315
G01 X12.9162 Y37.7304
G01 X13.0048 Y37.7262
G01 X13.0934 Y37.7304
G01 X13.1040 Y37.7315
G01 X13.1917 Y37.7446
G01 X13.2829 Y37.7675
G01 X13.3714 Y37.7991
G01 X13.4517 Y37.8369
G01 X13.4610 Y37.8419
G01 X13.5370 Y37.8877
G01 X13.6084 Y37.9404
G01 X13.6166 Y37.9471
G01 X13.6803 Y38.0049
G01 X13.6859 Y38.0106
G01 X13.7419 Y38.0724
G01 X13.7486 Y38.0806
G01 X13.8013 Y38.1520
G01 X13.8471 Y38.2280
G01 X13.8521 Y38.2373
G01 X13.8899 Y38.3176
G01 X13.9199 Y38.4011
G01 X13.9230 Y38.4112
G01 X13.9444 Y38.4973
G01 X13.9575 Y38.5850
G01 X13.9586 Y38.5956
G01 X13.9628 Y38.6842
G01 X13.9586 Y38.7728
G01 X13.9575 Y38.7834
G01 X13.9444 Y38.8711
G01 X13.9215 Y38.9623
G01 X13.8918 Y39.0459
G01 X13.8877 Y39.0557
G01 X13.8497 Y39.1358
G01 X13.8042 Y39.2120
G01 X13.7983 Y39.2208
G01 X13.7453 Y39.2919
G01 X13.6859 Y39.3578
G01 X13.6784 Y39.3653
G01 X13.6125 Y39.4247
G01 X13.5414 Y39.4777
G01 X13.5326 Y39.4836
G01 X13.4564 Y39.5291
G01 X13.3763 Y39.5671
G01 X13.3665 Y39.5712
G01 X13.2829 Y39.6009
G01 X13.1943 Y39.6232
G01 X13.1865 Y39.6247
G01 X13.0987 Y39.6376
G01 X13.0101 Y39.6421
G01 X12.9995 Y39.6421
G01 X12.9162 Y39.6380
G01 X12.9056 Y39.6369
G01 X12.8179 Y39.6238
G01 X12.7267 Y39.6009
G01 X12.6382 Y39.5693
G01 X12.5532 Y39.5291
G01 X12.4726 Y39.4807
G01 X12.3971 Y39.4247
G01 X12.3274 Y39.3616
G01 X12.2677 Y39.2960
G01 X12.2610 Y39.2878
G01 X12.2083 Y39.2164
G01 X12.1625 Y39.1404
G01 X12.1575 Y39.1311
G01 X12.1219 Y39.0557
G01 X12.1165 Y39.0423
G01 X11.6586 Y39.0423
G01 X11.6288 Y39.0410
G01 X11.6209 Y39.0403
G01 X11.5887 Y39.0354
G01 X11.5598 Y39.0283
G01 X11.5496 Y39.0252
G01 X11.5216 Y39.0151
G01 X11.4945 Y39.0024
G01 X11.4852 Y38.9974
G01 X11.4596 Y38.9820
G01 X11.4356 Y38.9643
G01 X11.4274 Y38.9576
G01 X11.4054 Y38.9374
G01 X9.2699 Y36.8019
G01 X9.2482 Y36.7778
G01 X9.2303 Y36.7539
G01 X9.2244 Y36.7451
G01 X9.2092 Y36.7194
G01 X9.1963 Y36.6925
G01 X9.1922 Y36.6827
G01 X9.1823 Y36.6546
G01 X9.1743 Y36.6231
G01 X9.1729 Y36.6152
G01 X9.1686 Y36.5857
G01 X9.1669 Y36.5506
G01 X9.1669 Y22.4659
G00 Z2.0000
G00 X9.2149 Y22.4355
G01 F60.00
G01 Z-0.0700
G01 F120.00
G01 X9.1667 Y22.4127
G01 X9.1016 Y22.3735
G01 X9.0429 Y22.3299
G01 X8.9866 Y22.2787
G01 X8.9375 Y22.2245
G01 X8.8931 Y22.1646
G01 X8.8547 Y22.1007
G01 X8.8223 Y22.0319
G01 X8.7977 Y21.9630
G01 X8.7796 Y21.8907
G01 X8.7687 Y21.8169
G01 X8.7650 Y21.7424
G01 X8.7687 Y21.6679
G01 X8.7796 Y21.5941
G01 X8.7977 Y21.5218
G01 X8.8234 Y21.4502
G01 X8.8547 Y21.3841
G01 X8.8931 Y21.3202
G01 X8.9375 Y21.2603
G01 X8.9876 Y21.2050
G01 X9.0429 Y21.1549
G01 X9.1028 Y21.1105
G01 X9.1667 Y21.0721
G01 X9.2342 Y21.0403
G01 X9.3044 Y21.0151
G01 X9.3767 Y20.9970
G01 X9.4505 Y20.9861
G01 X9.5250 Y20.9824
G01 X9.5995 Y20.9861
G01 X9.6733 Y20.9970
G01 X9.7456 Y21.0151
G01 X9.8172 Y21.0408
G01 X9.8833 Y21.0721
G01 X9.9447 Y21.1089
G01 X9.9496 Y21.1122
G01 X10.0071 Y21.1549
G01 X10.0624 Y21.2050
G01 X10.1106 Y21.2580
G01 X10.1143 Y21.2626
G01 X10.1569 Y21.3202
G01 X10.1953 Y21.3841
G01 X10.2260 Y21.4489
G01 X10.2282 Y21.4543
G01 X10.2523 Y21.5218
G01 X10.2704 Y21.5941
G01 X10.2810 Y21.6650
G01 X10.2816 Y21.6708
G01 X10.2850 Y21.7424
G01 X10.2816 Y21.8140
G01 X10.2810 Y21.8198
G01 X10.2704 Y21.8907
G01 X10.2523 Y21.9630
G01 X10.2282 Y22.0305
G01 X10.2260 Y22.0359
G01 X10.1953 Y22.1007
G01 X10.1577 Y22.1634
G01 X10.1143 Y22.2222
G01 X10.1106 Y22.2268
G01 X10.0624 Y22.2798
G01 X10.0083 Y22.3289
G01 X9.9496 Y22.3726
G01 X9.9447 Y22.3759
G01 X9.8833 Y22.4127
G01 X9.8351 Y22.4355
G01 X9.8351 Y36.4221
G01 X11.7871 Y38.3741
G01 X12.1504 Y38.3741
G01 X12.1646 Y38.3346
G01 X12.2016 Y38.2565
G01 X12.2490 Y38.1774
G01 X12.2995 Y38.1092
G01 X12.3033 Y38.1047
G01 X12.3613 Y38.0407
G01 X12.4264 Y37.9817
G01 X12.4992 Y37.9276
G01 X12.5733 Y37.8831
G01 X12.5785 Y37.8803
G01 X12.6566 Y37.8435
G01 X12.7378 Y37.8143
G01 X12.7435 Y37.8126
G01 X12.8287 Y37.7914
G01 X12.9127 Y37.7789
G01 X12.9185 Y37.7784
G01 X13.0048 Y37.7742
G01 X13.0911 Y37.7784
G01 X13.0969 Y37.7789
G01 X13.1823 Y37.7917
G01 X13.2690 Y37.8134
G01 X13.3530 Y37.8435
G01 X13.4311 Y37.8803
G01 X13.4363 Y37.8831
G01 X13.5104 Y37.9276
G01 X13.5798 Y37.9789
G01 X13.5843 Y37.9827
G01 X13.6472 Y38.0397
G01 X13.7063 Y38.1047
G01 X13.7101 Y38.1092
G01 X13.7614 Y38.1786
G01 X13.8059 Y38.2527
G01 X13.8087 Y38.2579
G01 X13.8455 Y38.3360
G01 X13.8747 Y38.4172
G01 X13.8764 Y38.4229
G01 X13.8973 Y38.5067
G01 X13.9101 Y38.5921
G01 X13.9106 Y38.5979
G01 X13.9148 Y38.6842
G01 X13.9106 Y38.7705
G01 X13.9101 Y38.7763
G01 X13.8973 Y38.8617
G01 X13.8756 Y38.9484
G01 X13.8466 Y39.0297
G01 X13.8443 Y39.0351
G01 X13.8073 Y39.1132
G01 X13.7630 Y39.1873
G01 X13.7597 Y39.1922
G01 X13.7082 Y39.2615
G01 X13.6503 Y39.3255
G01 X13.6461 Y39.3297
G01 X13.5821 Y39.3876
G01 X13.5128 Y39.4391
G01 X13.5079 Y39.4424
G01 X13.4338 Y39.4867
G01 X13.3557 Y39.5237
G01 X13.3503 Y39.5260
G01 X13.2690 Y39.5550
G01 X13.1838 Y39.5764
G01 X13.0940 Y39.5898
G01 X13.0077 Y39.5941
G01 X13.0019 Y39.5941
G01 X12.9185 Y39.5900
G01 X12.9127 Y39.5895
G01 X12.8273 Y39.5767
G01 X12.7406 Y39.5550
G01 X12.6566 Y39.5249
G01 X12.5745 Y39.4860
G01 X12.4992 Y39.4408
G01 X12.4275 Y39.3876
G01 X12.3613 Y39.3277
G01 X12.3023 Y39.2626
G01 X12.2482 Y39.1898
G01 X12.2030 Y39.1145
G01 X12.1646 Y39.0338
G01 X12.1504 Y38.9943
G01 X11.6586 Y38.9943
G01 X11.6282 Y38.9928
G01 X11.6010 Y38.9889
G01 X11.5952 Y38.9877
G01 X11.5686 Y38.9810
G01 X11.5399 Y38.9707
G01 X11.5150 Y38.9590
G01 X11.5098 Y38.9563
G01 X11.4863 Y38.9421
G01 X11.4642 Y38.9257
G01 X11.4596 Y38.9220
G01 X11.4393 Y38.9035
G01 X9.3047 Y36.7688
G01 X9.2853 Y36.7473
G01 X9.2688 Y36.7253
G01 X9.2656 Y36.7204
G01 X9.2515 Y36.6968
G01 X9.2397 Y36.6720
G01 X9.2374 Y36.6665
G01 X9.2282 Y36.6406
G01 X9.2211 Y36.6125
G01 X9.2164 Y36.5810
G01 X9.2149 Y36.5506
G01 X9.2149 Y22.4355
G00 Z2.0000
G00 X10.1885 Y23.2975
G01 F60.00
G01 Z-0.0700
G01 F120.00
G01 X10.1885 Y31.3125
G01 X10.1767 Y31.3112
G01 X10.1667 Y31.3108
G01 X10.1517 Y31.3110
G01 X10.1417 Y31.3117
G01 X10.0097 Y31.3249
G01 X9.9949 Y31.3272
G01 X9.9791 Y31.3311
G01 X9.9791 Y23.2789
G01 X9.9949 Y23.2828
G01 X10.0097 Y23.2851
G01 X10.1417 Y23.2983
G01 X10.1517 Y23.2990
G01 X10.1667 Y23.2992
G01 X10.1767 Y23.2988
G01 X10.1885 Y23.2975
G00 Z2.0000
G00 X13.3797 Y25.7125
G01 F60.00
G01 Z-0.0700
G01 F120.00
G01 X14.1453 Y24.9469
G01 X14.1453 Y14.8459
G01 X14.1202 Y14.8337
G01 X14.0590 Y14.7971
G01 X14.0523 Y14.7927
G01 X13.9908 Y14.7470
G01 X13.9340 Y14.6956
G01 X13.9284 Y14.6899
G01 X13.8823 Y14.6390
G01 X13.8755 Y14.6308
G01 X13.8316 Y14.5713
G01 X13.7921 Y14.5056
G01 X13.7884 Y14.4986
G01 X13.7591 Y14.4365
G01 X13.7550 Y14.4267
G01 X13.7302 Y14.3569
G01 X13.7109 Y14.2800
G01 X13.6999 Y14.2069
G01 X13.6989 Y14.1963
G01 X13.6954 Y14.1224
G01 X13.6993 Y14.0432
G01 X13.7109 Y13.9648
G01 X13.7302 Y13.8879
G01 X13.7569 Y13.8132
G01 X13.7908 Y13.7415
G01 X13.8316 Y13.6735
G01 X13.8788 Y13.6098
G01 X13.9321 Y13.5511
G01 X13.9908 Y13.4978
G01 X14.0545 Y13.4506
G01 X14.1225 Y13.4098
G01 X14.1942 Y13.3759
G01 X14.2689 Y13.3492
G01 X14.3458 Y13.3299
G01 X14.4242 Y13.3183
G01 X14.5034 Y13.3144
G01 X14.5826 Y13.3183
G01 X14.6610 Y13.3299
G01 X14.7379 Y13.3492
G01 X14.8126 Y13.3759
G01 X14.8796 Y13.4074
G01 X14.8889 Y13.4124
G01 X14.9523 Y13.4506
G01 X15.0118 Y13.4945
G01 X15.0200 Y13.5013
G01 X15.0709 Y13.5474
G01 X15.0784 Y13.5549
G01 X15.1280 Y13.6098
G01 X15.1752 Y13.6735
G01 X15.2160 Y13.7415
G01 X15.2499 Y13.8132
G01 X15.2766 Y13.8879
G01 X15.2959 Y13.9648
G01 X15.3075 Y14.0432
G01 X15.3114 Y14.1197
G01 X15.3113 Y14.1277
G01 X15.3079 Y14.1963
G01 X15.3069 Y14.2069
G01 X15.2959 Y14.2800
G01 X15.2766 Y14.3569
G01 X15.2518 Y14.4267
G01 X15.2477 Y14.4365
G01 X15.2160 Y14.5033
G01 X15.1767 Y14.5691
G01 X15.1722 Y14.5756
G01 X15.1313 Y14.6308
G01 X15.1245 Y14.6390
G01 X15.0747 Y14.6937
G01 X15.0180 Y14.7453
G01 X15.0118 Y14.7503
G01 X14.9566 Y14.7912
G01 X14.9501 Y14.7957
G01 X14.8866 Y14.8337
G01 X14.8615 Y14.8459
G01 X14.8615 Y25.0952
G01 X14.8602 Y25.1250
G01 X14.8592 Y25.1356
G01 X14.8546 Y25.1651
G01 X14.8475 Y25.1940
G01 X14.8444 Y25.2042
G01 X14.8332 Y25.2347
G01 X14.8192 Y25.2640
G01 X14.8040 Y25.2897
G01 X14.7981 Y25.2985
G01 X14.7819 Y25.3203
G01 X14.7768 Y25.3264
G01 X14.7566 Y25.3484
G01 X13.8861 Y26.2189
G01 X13.8918 Y26.2321
G01 X13.9199 Y26.3107
G01 X13.9230 Y26.3208
G01 X13.9444 Y26.4069
G01 X13.9582 Y26.4999
G01 X13.9628 Y26.5938
G01 X13.9586 Y26.6824
G01 X13.9575 Y26.6930
G01 X13.9444 Y26.7807
G01 X13.9230 Y26.8668
G01 X13.9199 Y26.8769
G01 X13.8899 Y26.9604
G01 X13.8497 Y27.0454
G01 X13.8042 Y27.1216
G01 X13.7983 Y27.1304
G01 X13.7453 Y27.2015
G01 X13.6841 Y27.2693
G01 X13.6784 Y27.2749
G01 X13.6166 Y27.3309
G01 X13.6084 Y27.3376
G01 X13.5370 Y27.3903
G01 X13.4564 Y27.4387
G01 X13.3714 Y27.4789
G01 X13.2879 Y27.5089
G01 X13.2778 Y27.5120
G01 X13.1917 Y27.5334
G01 X13.1040 Y27.5465
G01 X13.0934 Y27.5476
G01 X13.0048 Y27.5518
G01 X12.9109 Y27.5472
G01 X12.8179 Y27.5334
G01 X12.7318 Y27.5120
G01 X12.7217 Y27.5089
G01 X12.6382 Y27.4789
G01 X12.5532 Y27.4387
G01 X12.4726 Y27.3903
G01 X12.3971 Y27.3343
G01 X12.3274 Y27.2712
G01 X12.2643 Y27.2015
G01 X12.2083 Y27.1260
G01 X12.1599 Y27.0454
G01 X12.1197 Y26.9604
G01 X12.0881 Y26.8719
G01 X12.0652 Y26.7807
G01 X12.0514 Y26.6877
G01 X12.0468 Y26.5938
G01 X12.0514 Y26.4999
G01 X12.0652 Y26.4069
G01 X12.0881 Y26.3157
G01 X12.1197 Y26.2272
G01 X12.1599 Y26.1422
G01 X12.2083 Y26.0616
G01 X12.2643 Y25.9861
G01 X12.3274 Y25.9164
G01 X12.3971 Y25.8533
G01 X12.4726 Y25.7973
G01 X12.5532 Y25.7489
G01 X12.6382 Y25.7087
G01 X12.7267 Y25.6771
G01 X12.8179 Y25.6542
G01 X12.9109 Y25.6404
G01 X13.0048 Y25.6358
G01 X13.0987 Y25.6404
G01 X13.1917 Y25.6542
G01 X13.2829 Y25.6771
G01 X13.3665 Y25.7068
G01 X13.3797 Y25.7125
G00 Z2.0000
G00 X13.3897 Y25.7703
G01 F60.00
G01 Z-0.0700
G01 F120.00
G01 X14.1933 Y24.9667
G01 X14.1933 Y14.8155
G01 X14.1451 Y14.7927
G01 X14.0812 Y14.7543
G01 X14.0213 Y14.7099
G01 X13.9681 Y14.6618
G01 X13.9640 Y14.6577
G01 X13.9178 Y14.6068
G01 X13.9141 Y14.6022
G01 X13.8715 Y14.5446
G01 X13.8338 Y14.4820
G01 X13.8024 Y14.4159
G01 X13.8002 Y14.4105
G01 X13.7761 Y14.3430
G01 X13.7580 Y14.2707
G01 X13.7474 Y14.1998
G01 X13.7468 Y14.1940
G01 X13.7434 Y14.1224
G01 X13.7471 Y14.0479
G01 X13.7580 Y13.9741
G01 X13.7761 Y13.9018
G01 X13.8013 Y13.8316
G01 X13.8331 Y13.7641
G01 X13.8715 Y13.7002
G01 X13.9159 Y13.6403
G01 X13.9660 Y13.5850
G01 X14.0213 Y13.5349
G01 X14.0812 Y13.4905
G01 X14.1451 Y13.4521
G01 X14.2126 Y13.4203
G01 X14.2828 Y13.3951
G01 X14.3551 Y13.3770
G01 X14.4289 Y13.3661
G01 X14.5034 Y13.3624
G01 X14.5779 Y13.3661
G01 X14.6517 Y13.3770
G01 X14.7240 Y13.3951
G01 X14.7942 Y13.4203
G01 X14.8590 Y13.4508
G01 X14.8642 Y13.4536
G01 X14.9256 Y13.4905
G01 X14.9832 Y13.5331
G01 X14.9878 Y13.5368
G01 X15.0387 Y13.5830
G01 X15.0428 Y13.5871
G01 X15.0909 Y13.6403
G01 X15.1353 Y13.7002
G01 X15.1737 Y13.7641
G01 X15.2055 Y13.8316
G01 X15.2307 Y13.9018
G01 X15.2488 Y13.9741
G01 X15.2597 Y14.0479
G01 X15.2634 Y14.1209
G01 X15.2600 Y14.1940
G01 X15.2594 Y14.1998
G01 X15.2488 Y14.2707
G01 X15.2307 Y14.3430
G01 X15.2066 Y14.4105
G01 X15.2044 Y14.4159
G01 X15.1737 Y14.4807
G01 X15.1361 Y14.5434
G01 X15.0927 Y14.6022
G01 X15.0890 Y14.6068
G01 X15.0408 Y14.6598
G01 X14.9867 Y14.7089
G01 X14.9280 Y14.7526
G01 X14.9231 Y14.7559
G01 X14.8617 Y14.7927
G01 X14.8135 Y14.8155
G01 X14.8135 Y25.0952
G01 X14.8122 Y25.1227
G01 X14.8117 Y25.1285
G01 X14.8076 Y25.1557
G01 X14.8002 Y25.1852
G01 X14.7899 Y25.2139
G01 X14.7782 Y25.2388
G01 X14.7755 Y25.2440
G01 X14.7596 Y25.2699
G01 X14.7431 Y25.2919
G01 X14.7247 Y25.3124
G01 X13.8283 Y26.2089
G01 X13.8461 Y26.2469
G01 X13.8760 Y26.3311
G01 X13.8973 Y26.4163
G01 X13.9103 Y26.5031
G01 X13.9147 Y26.5909
G01 X13.9147 Y26.5967
G01 X13.9104 Y26.6830
G01 X13.8976 Y26.7699
G01 X13.8764 Y26.8551
G01 X13.8747 Y26.8608
G01 X13.8455 Y26.9420
G01 X13.8073 Y27.0228
G01 X13.7630 Y27.0969
G01 X13.7597 Y27.1018
G01 X13.7082 Y27.1711
G01 X13.6493 Y27.2362
G01 X13.5843 Y27.2953
G01 X13.5798 Y27.2991
G01 X13.5104 Y27.3504
G01 X13.4338 Y27.3963
G01 X13.3530 Y27.4345
G01 X13.2718 Y27.4637
G01 X13.2661 Y27.4654
G01 X13.1823 Y27.4863
G01 X13.0969 Y27.4991
G01 X13.0911 Y27.4996
G01 X13.0048 Y27.5038
G01 X12.9156 Y27.4994
G01 X12.8273 Y27.4863
G01 X12.7435 Y27.4654
G01 X12.7378 Y27.4637
G01 X12.6552 Y27.4340
G01 X12.5758 Y27.3963
G01 X12.4992 Y27.3504
G01 X12.4275 Y27.2972
G01 X12.3613 Y27.2373
G01 X12.3014 Y27.1711
G01 X12.2482 Y27.0994
G01 X12.2023 Y27.0228
G01 X12.1641 Y26.9420
G01 X12.1340 Y26.8580
G01 X12.1123 Y26.7713
G01 X12.0992 Y26.6830
G01 X12.0948 Y26.5938
G01 X12.0992 Y26.5046
G01 X12.1123 Y26.4163
G01 X12.1340 Y26.3296
G01 X12.1646 Y26.2442
G01 X12.2023 Y26.1648
G01 X12.2482 Y26.0882
G01 X12.3014 Y26.0165
G01 X12.3613 Y25.9503
G01 X12.4275 Y25.8904
G01 X12.4992 Y25.8372
G01 X12.5758 Y25.7913
G01 X12.6579 Y25.7525
G01 X12.7406 Y25.7230
G01 X12.8273 Y25.7013
G01 X12.9156 Y25.6882
G01 X13.0063 Y25.6838
G01 X13.0940 Y25.6882
G01 X13.1838 Y25.7016
G01 X13.2704 Y25.7234
G01 X13.3517 Y25.7525
G01 X13.3897 Y25.7703
G00 Z2.0000
G00 X18.6104 Y25.6807
G01 F60.00
G01 Z-0.0700
G01 F120.00
G01 X18.5455 Y25.6906
G01 X18.4453 Y25.7154
G01 X18.4261 Y25.7212
G01 X18.3418 Y25.7514
G01 X16.1887 Y23.5983
G01 X16.1887 Y22.3428
G01 X17.6996 Y23.8536
G01 X17.6663 Y23.9474
G01 X17.6410 Y24.0475
G01 X17.6371 Y24.0671
G01 X17.6234 Y24.1594
G01 X17.6214 Y24.1793
G01 X17.6166 Y24.2824
G01 X17.6214 Y24.3855
G01 X17.6234 Y24.4054
G01 X17.6388 Y24.5075
G01 X17.6663 Y24.6174
G01 X17.7044 Y24.7240
G01 X17.7506 Y24.8219
G01 X17.7578 Y24.8351
G01 X17.8111 Y24.9235
G01 X17.8724 Y25.0066
G01 X17.8851 Y25.0221
G01 X17.9546 Y25.0984
G01 X18.0309 Y25.1679
G01 X18.0464 Y25.1806
G01 X18.1253 Y25.2391
G01 X18.1379 Y25.2473
G01 X18.2266 Y25.3001
G01 X18.3198 Y25.3445
G01 X18.3336 Y25.3504
G01 X18.4261 Y25.3836
G01 X18.4404 Y25.3881
G01 X18.5406 Y25.4132
G01 X18.5553 Y25.4159
G01 X18.6104 Y25.4241
G01 X18.6060 Y25.4392
G01 X18.6030 Y25.4538
G01 X18.6010 Y25.4685
G01 X18.6000 Y25.4884
G01 X18.6002 Y25.6263
G01 X18.6015 Y25.6412
G01 X18.6039 Y25.6559
G01 X18.6073 Y25.6705
G01 X18.6104 Y25.6807
G00 Z2.0000
G00 X18.6876 Y25.7203
G01 F60.00
G01 Z-0.0700
G01 F120.00
G01 X18.6660 Y25.7214
G01 X18.6584 Y25.7221
G01 X18.5624 Y25.7363
G01 X18.5474 Y25.7393
G01 X18.4569 Y25.7620
G01 X18.4459 Y25.7652
G01 X18.3509 Y25.7992
G01 X18.3308 Y25.8082
G01 X16.1407 Y23.6182
G01 X16.1407 Y22.2121
G01 X16.1491 Y22.2252
G01 X16.1683 Y22.2511
G01 X16.1757 Y22.2598
G01 X16.1974 Y22.2836
G01 X17.7564 Y23.8426
G01 X17.7474 Y23.8627
G01 X17.7122 Y23.9613
G01 X17.6859 Y24.0666
G01 X17.6699 Y24.1740
G01 X17.6648 Y24.2747
G01 X17.6648 Y24.2901
G01 X17.6699 Y24.3908
G01 X17.6845 Y24.4906
G01 X17.6875 Y24.5056
G01 X17.7102 Y24.5961
G01 X17.7146 Y24.6107
G01 X17.7488 Y24.7056
G01 X17.7934 Y24.8004
G01 X17.7990 Y24.8104
G01 X17.8510 Y24.8969
G01 X17.9109 Y24.9780
G01 X17.9207 Y24.9898
G01 X17.9885 Y25.0645
G01 X18.0632 Y25.1323
G01 X18.0750 Y25.1421
G01 X18.1561 Y25.2020
G01 X18.2426 Y25.2540
G01 X18.2561 Y25.2612
G01 X18.3474 Y25.3042
G01 X18.4459 Y25.3396
G01 X18.4569 Y25.3428
G01 X18.5474 Y25.3655
G01 X18.5586 Y25.3678
G01 X18.6584 Y25.3827
G01 X18.6660 Y25.3834
G01 X18.6876 Y25.3845
G01 X18.6806 Y25.3930
G01 X18.6740 Y25.4022
G01 X18.6680 Y25.4120
G01 X18.6628 Y25.4221
G01 X18.6597 Y25.4291
G01 X18.6558 Y25.4398
G01 X18.6526 Y25.4507
G01 X18.6503 Y25.4619
G01 X18.6487 Y25.4732
G01 X18.6480 Y25.4846
G01 X18.6480 Y25.6164
G01 X18.6484 Y25.6278
G01 X18.6503 Y25.6429
G01 X18.6536 Y25.6577
G01 X18.6583 Y25.6722
G01 X18.6628 Y25.6827
G01 X18.6699 Y25.6961
G01 X18.6783 Y25.7088
G01 X18.6876 Y25.7203
G00 Z2.0000
G00 X18.7706 Y28.2062
G01 F60.00
G01 Z-0.0700
G01 F120.00
G01 X18.7766 Y28.2098
G01 X18.7820 Y28.2122
G01 X18.7875 Y28.2141
G01 X18.7946 Y28.2157
G01 X19.0682 Y28.2518
G01 X19.3455 Y28.3666
G01 X19.5899 Y28.5541
G01 X19.5947 Y28.5574
G01 X19.5998 Y28.5603
G01 X19.6080 Y28.5636
G01 X19.6180 Y28.5659
G01 X19.6624 Y28.5690
G01 X19.6697 Y28.5689
G01 X19.6770 Y28.5679
G01 X19.6840 Y28.5660
G01 X19.6908 Y28.5633
G01 X19.6996 Y28.5581
G01 X19.7074 Y28.5515
G01 X21.1875 Y27.0712
G01 X21.1935 Y27.0627
G01 X21.1963 Y27.0575
G01 X21.1986 Y27.0520
G01 X21.2003 Y27.0463
G01 X21.2014 Y27.0405
G01 X21.2019 Y27.0345
G01 X21.2019 Y27.0286
G01 X21.1749 Y26.8224
G01 X21.2056 Y26.5901
G01 X21.2952 Y26.3736
G01 X21.4379 Y26.1876
G01 X21.6016 Y26.0618
G01 X21.6089 Y26.0544
G01 X21.6149 Y26.0459
G01 X21.6192 Y26.0365
G01 X21.6216 Y26.0279
G01 X21.6225 Y26.0220
G01 X21.6228 Y26.0161
G01 X21.6228 Y24.8979
G01 X21.6581 Y24.7203
G01 X21.7587 Y24.5697
G01 X22.3891 Y23.9393
G01 X22.5397 Y23.8387
G01 X22.7173 Y23.8034
G01 X25.8628 Y23.8034
G01 X25.8687 Y23.8031
G01 X25.8789 Y23.8012
G01 X25.8887 Y23.7975
G01 X25.8976 Y23.7923
G01 X25.9055 Y23.7855
G01 X25.9104 Y23.7799
G01 X25.9796 Y23.6898
G01 X26.1446 Y23.5631
G01 X26.3368 Y23.4836
G01 X26.5430 Y23.4564
G01 X26.7492 Y23.4836
G01 X26.9414 Y23.5631
G01 X27.1064 Y23.6898
G01 X27.2331 Y23.8548
G01 X27.3126 Y24.0470
G01 X27.3398 Y24.2532
G01 X27.3126 Y24.4594
G01 X27.2331 Y24.6516
G01 X27.1064 Y24.8166
G01 X26.9414 Y24.9433
G01 X26.7492 Y25.0228
G01 X26.5430 Y25.0500
G01 X26.3368 Y25.0228
G01 X26.1446 Y24.9433
G01 X25.9796 Y24.8166
G01 X25.9104 Y24.7265
G01 X25.9055 Y24.7209
G01 X25.9011 Y24.7169
G01 X25.8964 Y24.7133
G01 X25.8873 Y24.7082
G01 X25.8775 Y24.7048
G01 X25.8673 Y24.7032
G01 X22.9226 Y24.7030
G01 X22.9123 Y24.7039
G01 X22.9024 Y24.7065
G01 X22.8930 Y24.7108
G01 X22.8845 Y24.7166
G01 X22.8802 Y24.7206
G01 X22.5389 Y25.0618
G01 X22.5325 Y25.0699
G01 X22.5295 Y25.0749
G01 X22.5270 Y25.0802
G01 X22.5250 Y25.0858
G01 X22.5236 Y25.0915
G01 X22.5224 Y25.1017
G01 X22.5224 Y26.0161
G01 X22.5231 Y26.0250
G01 X22.5246 Y26.0322
G01 X22.5276 Y26.0406
G01 X22.5319 Y26.0485
G01 X22.5372 Y26.0556
G01 X22.5436 Y26.0618
G01 X22.7073 Y26.1876
G01 X22.8500 Y26.3736
G01 X22.9396 Y26.5901
G01 X22.9703 Y26.8224
G01 X22.9396 Y27.0547
G01 X22.8500 Y27.2712
G01 X22.7073 Y27.4572
G01 X22.5214 Y27.5998
G01 X22.3049 Y27.6894
G01 X22.0726 Y27.7201
G01 X21.8664 Y27.6931
G01 X21.8560 Y27.6934
G01 X21.8502 Y27.6944
G01 X21.8444 Y27.6959
G01 X21.8349 Y27.7000
G01 X21.8298 Y27.7031
G01 X21.8250 Y27.7066
G01 X21.8206 Y27.7106
G01 X20.1228 Y29.4084
G01 X19.9722 Y29.5090
G01 X19.9399 Y29.5155
G01 X19.9315 Y29.5180
G01 X19.9249 Y29.5211
G01 X19.9187 Y29.5249
G01 X19.9129 Y29.5294
G01 X19.9088 Y29.5335
G01 X19.9042 Y29.5392
G01 X19.8997 Y29.5467
G01 X19.8963 Y29.5548
G01 X19.8943 Y29.5618
G01 X19.8812 Y29.6600
G01 X19.7664 Y29.9373
G01 X19.5836 Y30.1754
G01 X19.3455 Y30.3582
G01 X19.0682 Y30.4730
G01 X18.7961 Y30.5089
G01 X18.7903 Y30.5100
G01 X18.7847 Y30.5116
G01 X18.7766 Y30.5150
G01 X18.7680 Y30.5204
G01 X18.7603 Y30.5272
G01 X18.7548 Y30.5341
G01 X18.7503 Y30.5416
G01 X18.7470 Y30.5497
G01 X18.7449 Y30.5582
G01 X18.7440 Y30.5684
G01 X18.7440 Y30.6964
G01 X18.7444 Y30.7037
G01 X18.7454 Y30.7095
G01 X18.7470 Y30.7151
G01 X18.7491 Y30.7206
G01 X18.7517 Y30.7258
G01 X18.7548 Y30.7307
G01 X18.7584 Y30.7354
G01 X18.7624 Y30.7396
G01 X18.7668 Y30.7435
G01 X18.7728 Y30.7477
G01 X18.7793 Y30.7511
G01 X18.7861 Y30.7537
G01 X18.7946 Y30.7557
G01 X19.0682 Y30.7918
G01 X19.3455 Y30.9066
G01 X19.5836 Y31.0894
G01 X19.7664 Y31.3275
G01 X19.8034 Y31.4169
G01 X19.8068 Y31.4234
G01 X19.8101 Y31.4283
G01 X19.8138 Y31.4329
G01 X19.8180 Y31.4371
G01 X19.8226 Y31.4408
G01 X19.8275 Y31.4441
G01 X19.8367 Y31.4486
G01 X19.8423 Y31.4504
G01 X19.8480 Y31.4517
G01 X19.8583 Y31.4526
G01 X21.2858 Y31.4526
G01 X21.2917 Y31.4523
G01 X21.2976 Y31.4514
G01 X21.3062 Y31.4490
G01 X21.3156 Y31.4447
G01 X21.3230 Y31.4397
G01 X21.3305 Y31.4326
G01 X21.4379 Y31.2931
G01 X21.6238 Y31.1504
G01 X21.8403 Y31.0608
G01 X22.0726 Y31.0301
G01 X22.3049 Y31.0608
G01 X22.5214 Y31.1504
G01 X22.7073 Y31.2931
G01 X22.8332 Y31.4569
G01 X22.8394 Y31.4632
G01 X22.8478 Y31.4693
G01 X22.8558 Y31.4734
G01 X22.8656 Y31.4765
G01 X22.8730 Y31.4777
G01 X22.8789 Y31.4780
G01 X23.9425 Y31.4780
G01 X24.1201 Y31.5133
G01 X24.2707 Y31.6139
G01 X26.2531 Y33.5963
G01 X26.2575 Y33.6003
G01 X26.2660 Y33.6062
G01 X26.2755 Y33.6105
G01 X26.2855 Y33.6131
G01 X26.2959 Y33.6139
G01 X26.3033 Y33.6134
G01 X26.4160 Y33.5986
G01 X26.6222 Y33.6258
G01 X26.8144 Y33.7053
G01 X26.9794 Y33.8320
G01 X27.1061 Y33.9970
G01 X27.1856 Y34.1892
G01 X27.2128 Y34.3954
G01 X27.1856 Y34.6016
G01 X27.1061 Y34.7938
G01 X26.9794 Y34.9588
G01 X26.8144 Y35.0855
G01 X26.6222 Y35.1650
G01 X26.4160 Y35.1922
G01 X26.2098 Y35.1650
G01 X26.0176 Y35.0855
G01 X25.8526 Y34.9588
G01 X25.7259 Y34.7938
G01 X25.6464 Y34.6016
G01 X25.6192 Y34.3954
G01 X25.6340 Y34.2827
G01 X25.6345 Y34.2753
G01 X25.6337 Y34.2649
G01 X25.6311 Y34.2549
G01 X25.6268 Y34.2454
G01 X25.6209 Y34.2369
G01 X25.6169 Y34.2325
G01 X23.7796 Y32.3952
G01 X23.7753 Y32.3912
G01 X23.7693 Y32.3869
G01 X23.7629 Y32.3834
G01 X23.7560 Y32.3806
G01 X23.7460 Y32.3782
G01 X23.7372 Y32.3776
G01 X22.8789 Y32.3776
G01 X22.8715 Y32.3781
G01 X22.8642 Y32.3794
G01 X22.8557 Y32.3822
G01 X22.8465 Y32.3871
G01 X22.8394 Y32.3924
G01 X22.8332 Y32.3988
G01 X22.7073 Y32.5626
G01 X22.5214 Y32.7052
G01 X22.3049 Y32.7948
G01 X22.0726 Y32.8255
G01 X21.8403 Y32.7948
G01 X21.6238 Y32.7052
G01 X21.4379 Y32.5626
G01 X21.2925 Y32.3734
G01 X21.2851 Y32.3661
G01 X21.2766 Y32.3601
G01 X21.2672 Y32.3558
G01 X21.2586 Y32.3534
G01 X21.2527 Y32.3525
G01 X21.2468 Y32.3522
G01 X19.8583 Y32.3522
G01 X19.8524 Y32.3525
G01 X19.8466 Y32.3534
G01 X19.8409 Y32.3548
G01 X19.8353 Y32.3568
G01 X19.8275 Y32.3607
G01 X19.8191 Y32.3668
G01 X19.8119 Y32.3741
G01 X19.8061 Y32.3826
G01 X19.8029 Y32.3892
G01 X19.7664 Y32.4773
G01 X19.5836 Y32.7155
G01 X19.3455 Y32.8982
G01 X19.0682 Y33.0130
G01 X18.7961 Y33.0489
G01 X18.7903 Y33.0500
G01 X18.7847 Y33.0516
G01 X18.7766 Y33.0550
G01 X18.7703 Y33.0587
G01 X18.7635 Y33.0642
G01 X18.7584 Y33.0694
G01 X18.7532 Y33.0765
G01 X18.7497 Y33.0829
G01 X18.7465 Y33.0911
G01 X18.7446 Y33.0997
G01 X18.7440 Y33.1084
G01 X18.7440 Y33.2364
G01 X18.7446 Y33.2451
G01 X18.7461 Y33.2523
G01 X18.7480 Y33.2579
G01 X18.7503 Y33.2632
G01 X18.7540 Y33.2695
G01 X18.7584 Y33.2754
G01 X18.7624 Y33.2796
G01 X18.7668 Y33.2835
G01 X18.7716 Y33.2869
G01 X18.7779 Y33.2904
G01 X18.7833 Y33.2927
G01 X18.7889 Y33.2945
G01 X18.7946 Y33.2957
G01 X19.0682 Y33.3318
G01 X19.3455 Y33.4466
G01 X19.5836 Y33.6293
G01 X19.7664 Y33.8675
G01 X19.8812 Y34.1448
G01 X19.9204 Y34.4424
G01 X19.8812 Y34.7400
G01 X19.7664 Y35.0173
G01 X19.5836 Y35.2554
G01 X19.3455 Y35.4382
G01 X19.0682 Y35.5530
G01 X18.7706 Y35.5922
G01 X18.4730 Y35.5530
G01 X18.1957 Y35.4382
G01 X17.9575 Y35.2554
G01 X17.7748 Y35.0173
G01 X17.6600 Y34.7400
G01 X17.6207 Y34.4424
G01 X17.6600 Y34.1448
G01 X17.7748 Y33.8675
G01 X17.8078 Y33.8246
G01 X17.8119 Y33.8184
G01 X17.8153 Y33.8118
G01 X17.8178 Y33.8049
G01 X17.8194 Y33.7976
G01 X17.8202 Y33.7903
G01 X17.8201 Y33.7844
G01 X17.8194 Y33.7785
G01 X17.8182 Y33.7727
G01 X17.8164 Y33.7670
G01 X17.8141 Y33.7616
G01 X17.8112 Y33.7564
G01 X17.8079 Y33.7515
G01 X17.8040 Y33.7470
G01 X17.7998 Y33.7429
G01 X17.7041 Y33.6589
G01 X17.6982 Y33.6544
G01 X17.6919 Y33.6506
G01 X17.6837 Y33.6471
G01 X17.6751 Y33.6449
G01 X17.6662 Y33.6440
G01 X17.6559 Y33.6446
G01 X17.6472 Y33.6465
G01 X17.6390 Y33.6497
G01 X17.6312 Y33.6541
G01 X17.6242 Y33.6595
G01 X17.0282 Y34.2556
G01 X17.0224 Y34.2623
G01 X17.0170 Y34.2710
G01 X17.0146 Y34.2764
G01 X17.0124 Y34.2834
G01 X17.0111 Y34.2907
G01 X17.0106 Y34.2980
G01 X17.0106 Y39.7197
G01 X16.9753 Y39.8973
G01 X16.8747 Y40.0479
G01 X14.9781 Y41.9445
G01 X14.8275 Y42.0451
G01 X14.6499 Y42.0804
G01 X10.0389 Y42.0804
G01 X9.8613 Y42.0451
G01 X9.7107 Y41.9445
G01 X6.5695 Y38.8033
G01 X6.4689 Y38.6527
G01 X6.4336 Y38.4751
G01 X6.4336 Y30.5134
G01 X6.4331 Y30.5061
G01 X6.4318 Y30.4988
G01 X6.4290 Y30.4904
G01 X6.4258 Y30.4838
G01 X6.4209 Y30.4765
G01 X6.4160 Y30.4710
G01 X5.8256 Y29.8806
G01 X5.8177 Y29.8739
G01 X5.8089 Y29.8688
G01 X5.8034 Y29.8665
G01 X5.7963 Y29.8645
G01 X5.7891 Y29.8633
G01 X5.7832 Y29.8630
G01 X5.1281 Y29.8630
G01 X5.1223 Y29.8635
G01 X5.1150 Y29.8648
G01 X5.1080 Y29.8670
G01 X5.1013 Y29.8701
G01 X5.0950 Y29.8740
G01 X5.0904 Y29.8776
G01 X5.0861 Y29.8816
G01 X5.0814 Y29.8873
G01 X5.0774 Y29.8934
G01 X5.0747 Y29.8987
G01 X5.0273 Y30.0133
G01 X4.8365 Y30.2619
G01 X4.5879 Y30.4527
G01 X4.2984 Y30.5725
G01 X3.9878 Y30.6135
G01 X3.6772 Y30.5725
G01 X3.3877 Y30.4527
G01 X3.1391 Y30.2619
G01 X2.9483 Y30.0133
G01 X2.8285 Y29.7238
G01 X2.7875 Y29.4132
G01 X2.8285 Y29.1026
G01 X2.9483 Y28.8131
G01 X3.1391 Y28.5645
G01 X3.3877 Y28.3737
G01 X3.6772 Y28.2539
G01 X3.9878 Y28.2129
G01 X4.2984 Y28.2539
G01 X4.5879 Y28.3737
G01 X4.8365 Y28.5645
G01 X5.0273 Y28.8131
G01 X5.0742 Y28.9263
G01 X5.0774 Y28.9330
G01 X5.0832 Y28.9415
G01 X5.0904 Y28.9488
G01 X5.0987 Y28.9549
G01 X5.1080 Y28.9594
G01 X5.1136 Y28.9612
G01 X5.1193 Y28.9625
G01 X5.1296 Y28.9634
G01 X5.9885 Y28.9634
G01 X6.1661 Y28.9987
G01 X6.3167 Y29.0993
G01 X7.1973 Y29.9799
G01 X7.2979 Y30.1305
G01 X7.3314 Y30.2987
G01 X7.3342 Y30.3071
G01 X7.3381 Y30.3149
G01 X7.3432 Y30.3222
G01 X7.3482 Y30.3276
G01 X7.3527 Y30.3314
G01 X7.3575 Y30.3348
G01 X7.3666 Y30.3395
G01 X7.3722 Y30.3415
G01 X7.3779 Y30.3429
G01 X7.3881 Y30.3441
G01 X7.3955 Y30.3438
G01 X7.5225 Y30.3313
G01 X7.5297 Y30.3301
G01 X7.5368 Y30.3281
G01 X7.5436 Y30.3252
G01 X7.5487 Y30.3223
G01 X7.5535 Y30.3189
G01 X7.5590 Y30.3140
G01 X7.5630 Y30.3097
G01 X7.5673 Y30.3037
G01 X7.5708 Y30.2973
G01 X7.5740 Y30.2890
G01 X7.5760 Y30.2804
G01 X7.5766 Y30.2716
G01 X7.5766 Y21.9028
G01 X7.5760 Y21.8940
G01 X7.5740 Y21.8854
G01 X7.5715 Y21.8785
G01 X7.5681 Y21.8720
G01 X7.5639 Y21.8659
G01 X7.5590 Y21.8604
G01 X6.6638 Y20.9652
G01 X6.6559 Y20.9585
G01 X6.6510 Y20.9554
G01 X6.6457 Y20.9527
G01 X6.6360 Y20.9494
G01 X6.6258 Y20.9478
G01 X5.1296 Y20.9476
G01 X5.1208 Y20.9482
G01 X5.1122 Y20.9502
G01 X5.1066 Y20.9522
G01 X5.1013 Y20.9547
G01 X5.0963 Y20.9577
G01 X5.0915 Y20.9612
G01 X5.0872 Y20.9652
G01 X5.0832 Y20.9695
G01 X5.0774 Y20.9780
G01 X5.0742 Y20.9847
G01 X5.0273 Y21.0979
G01 X4.8365 Y21.3465
G01 X4.5879 Y21.5373
G01 X4.2984 Y21.6571
G01 X3.9878 Y21.6981
G01 X3.6772 Y21.6571
G01 X3.3877 Y21.5373
G01 X3.1391 Y21.3465
G01 X2.9483 Y21.0979
G01 X2.8285 Y20.8084
G01 X2.7875 Y20.4978
G01 X2.8285 Y20.1872
G01 X2.9483 Y19.8977
G01 X3.1391 Y19.6491
G01 X3.3877 Y19.4583
G01 X3.6772 Y19.3385
G01 X3.9878 Y19.2975
G01 X4.2984 Y19.3385
G01 X4.5879 Y19.4583
G01 X4.8365 Y19.6491
G01 X5.0273 Y19.8977
G01 X5.0742 Y20.0109
G01 X5.0767 Y20.0163
G01 X5.0805 Y20.0225
G01 X5.0842 Y20.0272
G01 X5.0882 Y20.0314
G01 X5.0963 Y20.0379
G01 X5.1053 Y20.0428
G01 X5.1150 Y20.0462
G01 X5.1223 Y20.0475
G01 X5.1296 Y20.0480
G01 X6.8267 Y20.0480
G01 X7.0043 Y20.0833
G01 X7.1549 Y20.1839
G01 X8.3403 Y21.3693
G01 X8.4289 Y21.5020
G01 X8.4325 Y21.5068
G01 X8.4365 Y21.5112
G01 X8.4409 Y21.5152
G01 X8.4457 Y21.5187
G01 X8.4508 Y21.5218
G01 X8.4562 Y21.5243
G01 X8.4648 Y21.5270
G01 X8.4882 Y21.5320
G01 X8.4940 Y21.5327
G01 X8.5013 Y21.5327
G01 X8.5917 Y21.5276
G01 X8.5976 Y21.5270
G01 X8.6050 Y21.5253
G01 X8.6361 Y21.5153
G01 X8.6439 Y21.5115
G01 X8.6523 Y21.5057
G01 X8.6566 Y21.5018
G01 X8.6613 Y21.4963
G01 X8.6654 Y21.4903
G01 X8.6688 Y21.4839
G01 X8.7476 Y21.2936
G01 X8.8903 Y21.1077
G01 X9.0762 Y20.9650
G01 X9.2927 Y20.8753
G01 X9.5250 Y20.8447
G01 X9.7573 Y20.8753
G01 X9.9738 Y20.9650
G01 X10.1597 Y21.1077
G01 X10.3024 Y21.2936
G01 X10.3921 Y21.5101
G01 X10.4227 Y21.7424
G01 X10.3921 Y21.9747
G01 X10.3024 Y22.1912
G01 X10.1597 Y22.3772
G01 X9.9948 Y22.5039
G01 X9.9877 Y22.5115
G01 X9.9820 Y22.5202
G01 X9.9779 Y22.5297
G01 X9.9757 Y22.5384
G01 X9.9748 Y22.5487
G01 X9.9748 Y23.0827
G01 X9.9754 Y23.0915
G01 X9.9778 Y23.1015
G01 X9.9806 Y23.1083
G01 X9.9841 Y23.1148
G01 X9.9884 Y23.1207
G01 X9.9934 Y23.1261
G01 X9.9990 Y23.1309
G01 X10.0052 Y23.1349
G01 X10.0118 Y23.1381
G01 X10.0188 Y23.1405
G01 X10.0289 Y23.1424
G01 X10.1573 Y23.1551
G01 X10.1662 Y23.1551
G01 X10.1749 Y23.1538
G01 X10.1806 Y23.1523
G01 X10.1861 Y23.1502
G01 X10.1914 Y23.1475
G01 X10.1963 Y23.1444
G01 X10.2042 Y23.1377
G01 X10.2082 Y23.1334
G01 X10.2117 Y23.1286
G01 X10.2160 Y23.1209
G01 X10.2196 Y23.1113
G01 X10.2281 Y23.0693
G01 X10.3287 Y22.9187
G01 X11.5468 Y21.7006
G01 X11.5526 Y21.6939
G01 X11.5573 Y21.6865
G01 X11.5609 Y21.6784
G01 X11.5632 Y21.6699
G01 X11.5641 Y21.6641
G01 X11.5644 Y21.6582
G01 X11.5642 Y18.7342
G01 X11.5626 Y18.7240
G01 X11.5608 Y18.7183
G01 X11.5585 Y18.7128
G01 X11.5557 Y18.7076
G01 X11.5524 Y18.7027
G01 X11.5486 Y18.6981
G01 X11.5443 Y18.6939
G01 X11.3794 Y18.5672
G01 X11.2368 Y18.3812
G01 X11.1471 Y18.1647
G01 X11.1165 Y17.9324
G01 X11.1471 Y17.7001
G01 X11.2368 Y17.4836
G01 X11.3794 Y17.2976
G01 X11.5653 Y17.1550
G01 X11.7819 Y17.0654
G01 X12.0142 Y17.0347
G01 X12.2465 Y17.0654
G01 X12.4630 Y17.1550
G01 X12.6489 Y17.2976
G01 X12.7916 Y17.4836
G01 X12.8812 Y17.7001
G01 X12.9119 Y17.9324
G01 X12.8812 Y18.1647
G01 X12.7916 Y18.3812
G01 X12.6489 Y18.5672
G01 X12.4840 Y18.6939
G01 X12.4798 Y18.6981
G01 X12.4760 Y18.7027
G01 X12.4705 Y18.7115
G01 X12.4666 Y18.7211
G01 X12.4652 Y18.7269
G01 X12.4643 Y18.7328
G01 X12.4640 Y18.7387
G01 X12.4640 Y21.8635
G01 X12.4287 Y22.0411
G01 X12.3281 Y22.1917
G01 X11.1100 Y23.4098
G01 X11.1033 Y23.4177
G01 X11.0988 Y23.4252
G01 X11.0950 Y23.4348
G01 X11.0929 Y23.4449
G01 X11.0924 Y23.4522
G01 X11.0926 Y31.1622
G01 X11.0942 Y31.1724
G01 X11.0975 Y31.1821
G01 X11.1002 Y31.1874
G01 X11.1033 Y31.1923
G01 X11.1100 Y31.2002
G01 X11.9290 Y32.0192
G01 X11.9346 Y32.0242
G01 X11.9420 Y32.0291
G01 X11.9501 Y32.0329
G01 X11.9572 Y32.0351
G01 X11.9645 Y32.0364
G01 X11.9734 Y32.0368
G01 X12.1372 Y32.0272
G01 X12.1445 Y32.0263
G01 X12.1502 Y32.0250
G01 X12.1558 Y32.0231
G01 X12.1611 Y32.0207
G01 X12.1662 Y32.0177
G01 X12.1721 Y32.0134
G01 X12.1765 Y32.0094
G01 X12.1804 Y32.0050
G01 X12.2631 Y31.8973
G01 X12.4804 Y31.7305
G01 X12.7333 Y31.6258
G01 X13.0048 Y31.5900
G01 X13.2763 Y31.6258
G01 X13.5293 Y31.7305
G01 X13.7465 Y31.8973
G01 X13.9132 Y32.1145
G01 X14.0180 Y32.3675
G01 X14.0538 Y32.6390
G01 X14.0180 Y32.9105
G01 X13.9132 Y33.1635
G01 X13.7465 Y33.3807
G01 X13.5293 Y33.5474
G01 X13.2763 Y33.6522
G01 X13.0048 Y33.6880
G01 X12.7333 Y33.6522
G01 X12.4804 Y33.5474
G01 X12.2631 Y33.3807
G01 X12.0964 Y33.1635
G01 X12.0436 Y33.0365
G01 X12.0399 Y33.0302
G01 X12.0345 Y33.0232
G01 X12.0281 Y33.0171
G01 X12.0221 Y33.0128
G01 X12.0143 Y33.0086
G01 X12.0074 Y33.0061
G01 X12.0003 Y33.0044
G01 X11.9929 Y33.0036
G01 X11.8332 Y33.0035
G01 X11.6556 Y32.9682
G01 X11.5052 Y32.8676
G01 X10.3287 Y31.6913
G01 X10.2281 Y31.5407
G01 X10.2203 Y31.5016
G01 X10.2183 Y31.4945
G01 X10.2154 Y31.4877
G01 X10.2117 Y31.4814
G01 X10.2072 Y31.4755
G01 X10.2021 Y31.4702
G01 X10.1975 Y31.4665
G01 X10.1926 Y31.4632
G01 X10.1874 Y31.4605
G01 X10.1820 Y31.4582
G01 X10.1764 Y31.4565
G01 X10.1706 Y31.4553
G01 X10.1647 Y31.4548
G01 X10.1588 Y31.4548
G01 X10.0245 Y31.4682
G01 X10.0173 Y31.4699
G01 X10.0091 Y31.4731
G01 X10.0027 Y31.4766
G01 X9.9956 Y31.4819
G01 X9.9913 Y31.4859
G01 X9.9866 Y31.4916
G01 X9.9833 Y31.4965
G01 X9.9806 Y31.5017
G01 X9.9778 Y31.5085
G01 X9.9763 Y31.5142
G01 X9.9751 Y31.5214
G01 X9.9748 Y31.5273
G01 X9.9748 Y36.3409
G01 X9.9753 Y36.3467
G01 X9.9763 Y36.3525
G01 X9.9794 Y36.3624
G01 X9.9819 Y36.3677
G01 X9.9849 Y36.3727
G01 X9.9884 Y36.3775
G01 X9.9924 Y36.3818
G01 X11.8274 Y38.2168
G01 X11.8317 Y38.2208
G01 X11.8365 Y38.2243
G01 X11.8415 Y38.2273
G01 X11.8468 Y38.2298
G01 X11.8524 Y38.2318
G01 X11.8581 Y38.2332
G01 X11.8683 Y38.2344
G01 X12.0268 Y38.2344
G01 X12.0355 Y38.2335
G01 X12.0427 Y38.2318
G01 X12.0509 Y38.2287
G01 X12.0574 Y38.2251
G01 X12.0622 Y38.2217
G01 X12.0677 Y38.2169
G01 X12.0725 Y38.2114
G01 X12.0767 Y38.2053
G01 X12.0801 Y38.1988
G01 X12.0964 Y38.1598
G01 X12.2631 Y37.9425
G01 X12.4804 Y37.7758
G01 X12.7333 Y37.6710
G01 X13.0048 Y37.6352
G01 X13.2763 Y37.6710
G01 X13.5293 Y37.7758
G01 X13.7465 Y37.9425
G01 X13.9132 Y38.1598
G01 X14.0180 Y38.4127
G01 X14.0538 Y38.6842
G01 X14.0180 Y38.9557
G01 X13.9132 Y39.2087
G01 X13.7465 Y39.4259
G01 X13.5293 Y39.5926
G01 X13.2763 Y39.6974
G01 X13.0048 Y39.7332
G01 X12.7333 Y39.6974
G01 X12.4804 Y39.5926
G01 X12.2631 Y39.4259
G01 X12.0964 Y39.2087
G01 X12.0801 Y39.1696
G01 X12.0775 Y39.1644
G01 X12.0735 Y39.1582
G01 X12.0687 Y39.1526
G01 X12.0633 Y39.1476
G01 X12.0574 Y39.1433
G01 X12.0523 Y39.1404
G01 X12.0469 Y39.1380
G01 X12.0399 Y39.1358
G01 X12.0326 Y39.1345
G01 X12.0268 Y39.1340
G01 X11.6645 Y39.1340
G01 X11.4869 Y39.0987
G01 X11.3363 Y38.9981
G01 X9.2111 Y36.8729
G01 X9.1105 Y36.7223
G01 X9.0752 Y36.5447
G01 X9.0751 Y22.5457
G01 X9.0745 Y22.5398
G01 X9.0734 Y22.5340
G01 X9.0716 Y22.5283
G01 X9.0693 Y22.5228
G01 X9.0665 Y22.5176
G01 X9.0632 Y22.5127
G01 X9.0594 Y22.5081
G01 X9.0552 Y22.5039
G01 X8.8903 Y22.3772
G01 X8.7476 Y22.1912
G01 X8.7186 Y22.1213
G01 X8.7161 Y22.1160
G01 X8.7123 Y22.1097
G01 X8.7077 Y22.1040
G01 X8.7024 Y22.0989
G01 X8.6953 Y22.0936
G01 X8.6862 Y22.0889
G01 X8.6764 Y22.0858
G01 X8.6662 Y22.0844
G01 X8.6573 Y22.0846
G01 X8.6515 Y22.0854
G01 X8.5245 Y22.1106
G01 X8.5174 Y22.1125
G01 X8.5092 Y22.1159
G01 X8.5017 Y22.1204
G01 X8.4948 Y22.1260
G01 X8.4898 Y22.1314
G01 X8.4847 Y22.1386
G01 X8.4808 Y22.1465
G01 X8.4780 Y22.1549
G01 X8.4765 Y22.1636
G01 X8.4762 Y22.1695
G01 X8.4762 Y37.6856
G01 X8.4767 Y37.6929
G01 X8.4788 Y37.7030
G01 X8.4826 Y37.7126
G01 X8.4871 Y37.7201
G01 X8.4938 Y37.7280
G01 X10.8114 Y40.0456
G01 X10.8181 Y40.0514
G01 X10.8255 Y40.0561
G01 X10.8322 Y40.0592
G01 X10.8392 Y40.0614
G01 X10.8465 Y40.0627
G01 X10.8538 Y40.0632
G01 X14.0890 Y40.0632
G01 X14.0949 Y40.0629
G01 X14.1007 Y40.0620
G01 X14.1092 Y40.0597
G01 X14.1173 Y40.0561
G01 X14.1247 Y40.0514
G01 X14.1314 Y40.0456
G01 X14.9504 Y39.2266
G01 X14.9544 Y39.2223
G01 X14.9579 Y39.2175
G01 X14.9622 Y39.2099
G01 X14.9654 Y39.2016
G01 X14.9674 Y39.1930
G01 X14.9680 Y39.1842
G01 X14.9680 Y32.7211
G01 X15.0033 Y32.5435
G01 X15.1039 Y32.3929
G01 X17.6834 Y29.8134
G01 X17.6892 Y29.8067
G01 X17.6925 Y29.8018
G01 X17.6952 Y29.7966
G01 X17.6975 Y29.7912
G01 X17.6992 Y29.7856
G01 X17.7004 Y29.7798
G01 X17.7009 Y29.7739
G01 X17.7009 Y29.7680
G01 X17.7003 Y29.7622
G01 X17.6988 Y29.7550
G01 X17.6970 Y29.7494
G01 X17.6600 Y29.6600
G01 X17.6207 Y29.3624
G01 X17.6600 Y29.0648
G01 X17.7748 Y28.7875
G01 X17.9575 Y28.5493
G01 X18.1957 Y28.3666
G01 X18.4730 Y28.2518
G01 X18.7466 Y28.2157
G01 X18.7537 Y28.2141
G01 X18.7592 Y28.2122
G01 X18.7646 Y28.2098
G01 X18.7706 Y28.2062
G00 Z2.0000
G00 X18.7706 Y28.2591
G01 F60.00
G01 Z-0.0700
G01 F120.00
G01 X18.7794 Y28.2616
G01 X18.7898 Y28.2635
G01 X19.0557 Y28.2985
G01 X19.3213 Y28.4085
G01 X19.5607 Y28.5922
G01 X19.5716 Y28.5996
G01 X19.5810 Y28.6045
G01 X19.5883 Y28.6075
G01 X19.5958 Y28.6101
G01 X19.6035 Y28.6120
G01 X19.6113 Y28.6134
G01 X19.6191 Y28.6143
G01 X19.6630 Y28.6171
G01 X19.6761 Y28.6165
G01 X19.6891 Y28.6144
G01 X19.6992 Y28.6115
G01 X19.7114 Y28.6066
G01 X19.7184 Y28.6030
G01 X19.7273 Y28.5973
G01 X19.7336 Y28.5925
G01 X19.7414 Y28.5855
G01 X21.2184 Y27.1084
G01 X21.2238 Y27.1025
G01 X21.2288 Y27.0962
G01 X21.2348 Y27.0873
G01 X21.2386 Y27.0803
G01 X21.2419 Y27.0730
G01 X21.2447 Y27.0654
G01 X21.2475 Y27.0551
G01 X21.2489 Y27.0472
G01 X21.2498 Y27.0393
G01 X21.2499 Y27.0286
G01 X21.2491 Y27.0179
G01 X21.2233 Y26.8224
G01 X21.2523 Y26.6026
G01 X21.3371 Y26.3978
G01 X21.4721 Y26.2218
G01 X21.6286 Y26.1018
G01 X21.6367 Y26.0949
G01 X21.6423 Y26.0892
G01 X21.6475 Y26.0830
G01 X21.6538 Y26.0743
G01 X21.6578 Y26.0674
G01 X21.6614 Y26.0602
G01 X21.6644 Y26.0528
G01 X21.6668 Y26.0452
G01 X21.6687 Y26.0374
G01 X21.6703 Y26.0268
G01 X21.6708 Y26.0161
G01 X21.6708 Y24.9026
G01 X21.7033 Y24.7390
G01 X21.7960 Y24.6003
G01 X22.4197 Y23.9766
G01 X22.5584 Y23.8839
G01 X22.7220 Y23.8514
G01 X25.8628 Y23.8514
G01 X25.8735 Y23.8509
G01 X25.8814 Y23.8498
G01 X25.8893 Y23.8481
G01 X25.8970 Y23.8459
G01 X25.9045 Y23.8430
G01 X25.9118 Y23.8397
G01 X25.9188 Y23.8358
G01 X25.9255 Y23.8314
G01 X25.9318 Y23.8265
G01 X25.9397 Y23.8192
G01 X25.9468 Y23.8113
G01 X26.0138 Y23.7240
G01 X26.1688 Y23.6050
G01 X26.3493 Y23.5303
G01 X26.5430 Y23.5048
G01 X26.7367 Y23.5303
G01 X26.9172 Y23.6050
G01 X27.0722 Y23.7240
G01 X27.1912 Y23.8790
G01 X27.2659 Y24.0595
G01 X27.2914 Y24.2532
G01 X27.2659 Y24.4469
G01 X27.1912 Y24.6274
G01 X27.0722 Y24.7824
G01 X26.9172 Y24.9014
G01 X26.7367 Y24.9761
G01 X26.5430 Y25.0016
G01 X26.3493 Y24.9761
G01 X26.1688 Y24.9014
G01 X26.0138 Y24.7824
G01 X25.9468 Y24.6951
G01 X25.9397 Y24.6872
G01 X25.9318 Y24.6799
G01 X25.9255 Y24.6750
G01 X25.9188 Y24.6706
G01 X25.9118 Y24.6667
G01 X25.9045 Y24.6634
G01 X25.8970 Y24.6605
G01 X25.8867 Y24.6577
G01 X25.8788 Y24.6562
G01 X25.8708 Y24.6553
G01 X25.8628 Y24.6550
G01 X22.9226 Y24.6550
G01 X22.9147 Y24.6553
G01 X22.9041 Y24.6566
G01 X22.8938 Y24.6589
G01 X22.8862 Y24.6613
G01 X22.8788 Y24.6643
G01 X22.8694 Y24.6690
G01 X22.8604 Y24.6747
G01 X22.8541 Y24.6795
G01 X22.8462 Y24.6866
G01 X22.5024 Y25.0307
G01 X22.4957 Y25.0389
G01 X22.4912 Y25.0454
G01 X22.4859 Y25.0546
G01 X22.4826 Y25.0619
G01 X22.4791 Y25.0718
G01 X22.4770 Y25.0795
G01 X22.4752 Y25.0900
G01 X22.4744 Y25.1005
G01 X22.4744 Y26.0161
G01 X22.4752 Y26.0294
G01 X22.4765 Y26.0374
G01 X22.4784 Y26.0452
G01 X22.4808 Y26.0528
G01 X22.4838 Y26.0602
G01 X22.4900 Y26.0721
G01 X22.4944 Y26.0788
G01 X22.4993 Y26.0851
G01 X22.5047 Y26.0911
G01 X22.5105 Y26.0967
G01 X22.5166 Y26.1018
G01 X22.6731 Y26.2218
G01 X22.8081 Y26.3978
G01 X22.8929 Y26.6026
G01 X22.9219 Y26.8224
G01 X22.8929 Y27.0422
G01 X22.8081 Y27.2470
G01 X22.6731 Y27.4230
G01 X22.4972 Y27.5579
G01 X22.2924 Y27.6427
G01 X22.0726 Y27.6717
G01 X21.8771 Y27.6459
G01 X21.8691 Y27.6452
G01 X21.8584 Y27.6451
G01 X21.8478 Y27.6461
G01 X21.8399 Y27.6475
G01 X21.8321 Y27.6495
G01 X21.8245 Y27.6521
G01 X21.8171 Y27.6552
G01 X21.8100 Y27.6589
G01 X21.8009 Y27.6646
G01 X21.7946 Y27.6695
G01 X21.7866 Y27.6766
G01 X20.0922 Y29.3711
G01 X19.9534 Y29.4638
G01 X19.9242 Y29.4699
G01 X19.9143 Y29.4732
G01 X19.9070 Y29.4763
G01 X19.8977 Y29.4813
G01 X19.8890 Y29.4871
G01 X19.8808 Y29.4938
G01 X19.8733 Y29.5012
G01 X19.8651 Y29.5114
G01 X19.8581 Y29.5226
G01 X19.8526 Y29.5345
G01 X19.8485 Y29.5470
G01 X19.8460 Y29.5599
G01 X19.8345 Y29.6475
G01 X19.7245 Y29.9131
G01 X19.5494 Y30.1412
G01 X19.3213 Y30.3163
G01 X19.0557 Y30.4263
G01 X18.7871 Y30.4617
G01 X18.7794 Y30.4632
G01 X18.7718 Y30.4653
G01 X18.7619 Y30.4689
G01 X18.7547 Y30.4723
G01 X18.7478 Y30.4761
G01 X18.7413 Y30.4805
G01 X18.7350 Y30.4853
G01 X18.7291 Y30.4906
G01 X18.7236 Y30.4963
G01 X18.7186 Y30.5023
G01 X18.7112 Y30.5132
G01 X18.7051 Y30.5249
G01 X18.7022 Y30.5322
G01 X18.6999 Y30.5398
G01 X18.6972 Y30.5527
G01 X18.6963 Y30.5605
G01 X18.6960 Y30.5684
G01 X18.6960 Y30.6964
G01 X18.6965 Y30.7069
G01 X18.6976 Y30.7147
G01 X18.6999 Y30.7250
G01 X18.7031 Y30.7350
G01 X18.7074 Y30.7447
G01 X18.7112 Y30.7516
G01 X18.7170 Y30.7604
G01 X18.7219 Y30.7666
G01 X18.7272 Y30.7724
G01 X18.7350 Y30.7795
G01 X18.7413 Y30.7843
G01 X18.7478 Y30.7887
G01 X18.7595 Y30.7948
G01 X18.7718 Y30.7995
G01 X18.7845 Y30.8026
G01 X19.0557 Y30.8385
G01 X19.3213 Y30.9485
G01 X19.5494 Y31.1236
G01 X19.7245 Y31.3517
G01 X19.7596 Y31.4364
G01 X19.7657 Y31.4481
G01 X19.7732 Y31.4590
G01 X19.7801 Y31.4671
G01 X19.7858 Y31.4726
G01 X19.7940 Y31.4793
G01 X19.8028 Y31.4852
G01 X19.8121 Y31.4902
G01 X19.8219 Y31.4943
G01 X19.8295 Y31.4967
G01 X19.8398 Y31.4990
G01 X19.8504 Y31.5003
G01 X19.8583 Y31.5006
G01 X21.2858 Y31.5006
G01 X21.2965 Y31.5001
G01 X21.3070 Y31.4985
G01 X21.3148 Y31.4966
G01 X21.3225 Y31.4942
G01 X21.3299 Y31.4912
G01 X21.3371 Y31.4876
G01 X21.3440 Y31.4836
G01 X21.3506 Y31.4790
G01 X21.3568 Y31.4740
G01 X21.3627 Y31.4685
G01 X21.3715 Y31.4584
G01 X21.4721 Y31.3273
G01 X21.6480 Y31.1923
G01 X21.8528 Y31.1075
G01 X22.0726 Y31.0785
G01 X22.2924 Y31.1075
G01 X22.4972 Y31.1923
G01 X22.6731 Y31.3273
G01 X22.7932 Y31.4838
G01 X22.8002 Y31.4919
G01 X22.8059 Y31.4976
G01 X22.8120 Y31.5028
G01 X22.8184 Y31.5075
G01 X22.8253 Y31.5117
G01 X22.8324 Y31.5155
G01 X22.8397 Y31.5186
G01 X22.8473 Y31.5213
G01 X22.8550 Y31.5233
G01 X22.8656 Y31.5252
G01 X22.8789 Y31.5260
G01 X23.9378 Y31.5260
G01 X24.1014 Y31.5585
G01 X24.2401 Y31.6512
G01 X26.2191 Y33.6303
G01 X26.2271 Y33.6374
G01 X26.2334 Y33.6423
G01 X26.2402 Y33.6466
G01 X26.2472 Y33.6505
G01 X26.2545 Y33.6538
G01 X26.2620 Y33.6566
G01 X26.2697 Y33.6588
G01 X26.2776 Y33.6604
G01 X26.2855 Y33.6614
G01 X26.2962 Y33.6619
G01 X26.3069 Y33.6613
G01 X26.4160 Y33.6470
G01 X26.6097 Y33.6725
G01 X26.7902 Y33.7472
G01 X26.9452 Y33.8662
G01 X27.0642 Y34.0212
G01 X27.1389 Y34.2017
G01 X27.1644 Y34.3954
G01 X27.1389 Y34.5891
G01 X27.0642 Y34.7696
G01 X26.9452 Y34.9246
G01 X26.7902 Y35.0436
G01 X26.6097 Y35.1183
G01 X26.4160 Y35.1438
G01 X26.2223 Y35.1183
G01 X26.0418 Y35.0436
G01 X25.8868 Y34.9246
G01 X25.7678 Y34.7696
G01 X25.6931 Y34.5891
G01 X25.6676 Y34.3954
G01 X25.6819 Y34.2863
G01 X25.6825 Y34.2756
G01 X25.6820 Y34.2649
G01 X25.6810 Y34.2570
G01 X25.6794 Y34.2491
G01 X25.6772 Y34.2414
G01 X25.6744 Y34.2339
G01 X25.6711 Y34.2266
G01 X25.6672 Y34.2196
G01 X25.6629 Y34.2128
G01 X25.6580 Y34.2065
G01 X25.6509 Y34.1985
G01 X23.8136 Y32.3612
G01 X23.8036 Y32.3525
G01 X23.7950 Y32.3464
G01 X23.7834 Y32.3400
G01 X23.7711 Y32.3351
G01 X23.7609 Y32.3322
G01 X23.7530 Y32.3308
G01 X23.7451 Y32.3299
G01 X23.7372 Y32.3296
G01 X22.8789 Y32.3296
G01 X22.8656 Y32.3304
G01 X22.8524 Y32.3329
G01 X22.8447 Y32.3351
G01 X22.8372 Y32.3380
G01 X22.8252 Y32.3439
G01 X22.8184 Y32.3481
G01 X22.8120 Y32.3528
G01 X22.8059 Y32.3581
G01 X22.8002 Y32.3637
G01 X22.7932 Y32.3718
G01 X22.6731 Y32.5284
G01 X22.4972 Y32.6633
G01 X22.2924 Y32.7481
G01 X22.0726 Y32.7771
G01 X21.8528 Y32.7481
G01 X21.6480 Y32.6633
G01 X21.4721 Y32.5284
G01 X21.3325 Y32.3464
G01 X21.3255 Y32.3383
G01 X21.3198 Y32.3327
G01 X21.3137 Y32.3274
G01 X21.3050 Y32.3212
G01 X21.2981 Y32.3172
G01 X21.2909 Y32.3136
G01 X21.2835 Y32.3106
G01 X21.2759 Y32.3082
G01 X21.2681 Y32.3063
G01 X21.2575 Y32.3047
G01 X21.2468 Y32.3042
G01 X19.8583 Y32.3042
G01 X19.8477 Y32.3047
G01 X19.8372 Y32.3063
G01 X19.8269 Y32.3089
G01 X19.8170 Y32.3124
G01 X19.8097 Y32.3157
G01 X19.8028 Y32.3196
G01 X19.7918 Y32.3271
G01 X19.7819 Y32.3358
G01 X19.7765 Y32.3417
G01 X19.7715 Y32.3479
G01 X19.7643 Y32.3590
G01 X19.7596 Y32.3684
G01 X19.7245 Y32.4531
G01 X19.5494 Y32.6813
G01 X19.3213 Y32.8563
G01 X19.0557 Y32.9663
G01 X18.7898 Y33.0013
G01 X18.7768 Y33.0039
G01 X18.7668 Y33.0070
G01 X18.7595 Y33.0100
G01 X18.7524 Y33.0135
G01 X18.7413 Y33.0205
G01 X18.7350 Y33.0253
G01 X18.7291 Y33.0306
G01 X18.7202 Y33.0403
G01 X18.7125 Y33.0510
G01 X18.7062 Y33.0625
G01 X18.7014 Y33.0747
G01 X18.6992 Y33.0823
G01 X18.6976 Y33.0901
G01 X18.6965 Y33.0979
G01 X18.6960 Y33.1084
G01 X18.6960 Y33.2364
G01 X18.6965 Y33.2469
G01 X18.6980 Y33.2573
G01 X18.7006 Y33.2675
G01 X18.7041 Y33.2775
G01 X18.7086 Y33.2870
G01 X18.7140 Y33.2961
G01 X18.7202 Y33.3045
G01 X18.7272 Y33.3124
G01 X18.7350 Y33.3195
G01 X18.7434 Y33.3258
G01 X18.7524 Y33.3313
G01 X18.7643 Y33.3368
G01 X18.7743 Y33.3402
G01 X18.7871 Y33.3431
G01 X19.0557 Y33.3785
G01 X19.3213 Y33.4885
G01 X19.5494 Y33.6635
G01 X19.7245 Y33.8917
G01 X19.8345 Y34.1573
G01 X19.8720 Y34.4424
G01 X19.8345 Y34.7275
G01 X19.7245 Y34.9931
G01 X19.5494 Y35.2212
G01 X19.3213 Y35.3963
G01 X19.0557 Y35.5063
G01 X18.7706 Y35.5438
G01 X18.4855 Y35.5063
G01 X18.2199 Y35.3963
G01 X17.9917 Y35.2212
G01 X17.8167 Y34.9931
G01 X17.7067 Y34.7275
G01 X17.6691 Y34.4424
G01 X17.7067 Y34.1573
G01 X17.8167 Y33.8917
G01 X17.8490 Y33.8495
G01 X17.8546 Y33.8404
G01 X17.8593 Y33.8309
G01 X17.8631 Y33.8209
G01 X17.8658 Y33.8106
G01 X17.8675 Y33.8001
G01 X17.8682 Y33.7894
G01 X17.8680 Y33.7815
G01 X17.8668 Y33.7709
G01 X17.8646 Y33.7604
G01 X17.8614 Y33.7503
G01 X17.8583 Y33.7429
G01 X17.8534 Y33.7334
G01 X17.8476 Y33.7245
G01 X17.8426 Y33.7182
G01 X17.8373 Y33.7123
G01 X17.8314 Y33.7068
G01 X17.7337 Y33.6211
G01 X17.7230 Y33.6132
G01 X17.7114 Y33.6067
G01 X17.7040 Y33.6035
G01 X17.6965 Y33.6008
G01 X17.6835 Y33.5977
G01 X17.6756 Y33.5966
G01 X17.6676 Y33.5960
G01 X17.6597 Y33.5961
G01 X17.6517 Y33.5968
G01 X17.6438 Y33.5980
G01 X17.6360 Y33.5998
G01 X17.6284 Y33.6022
G01 X17.6209 Y33.6052
G01 X17.6137 Y33.6087
G01 X17.6068 Y33.6127
G01 X17.6002 Y33.6172
G01 X17.5940 Y33.6222
G01 X17.5881 Y33.6276
G01 X16.9942 Y34.2216
G01 X16.9888 Y34.2275
G01 X16.9823 Y34.2358
G01 X16.9780 Y34.2425
G01 X16.9741 Y34.2494
G01 X16.9689 Y34.2616
G01 X16.9652 Y34.2743
G01 X16.9631 Y34.2874
G01 X16.9626 Y34.2980
G01 X16.9626 Y39.7150
G01 X16.9301 Y39.8786
G01 X16.8374 Y40.0173
G01 X14.9475 Y41.9072
G01 X14.8088 Y41.9999
G01 X14.6452 Y42.0324
G01 X10.0436 Y42.0324
G01 X9.8800 Y41.9999
G01 X9.7413 Y41.9072
G01 X6.6068 Y38.7727
G01 X6.5141 Y38.6340
G01 X6.4816 Y38.4704
G01 X6.4816 Y30.5134
G01 X6.4813 Y30.5055
G01 X6.4804 Y30.4976
G01 X6.4777 Y30.4846
G01 X6.4734 Y30.4721
G01 X6.4676 Y30.4602
G01 X6.4603 Y30.4491
G01 X6.4554 Y30.4429
G01 X6.4500 Y30.4370
G01 X5.8596 Y29.8466
G01 X5.8537 Y29.8412
G01 X5.8454 Y29.8347
G01 X5.8387 Y29.8304
G01 X5.8294 Y29.8254
G01 X5.8196 Y29.8213
G01 X5.8069 Y29.8176
G01 X5.7964 Y29.8158
G01 X5.7859 Y29.8150
G01 X5.1269 Y29.8150
G01 X5.1137 Y29.8162
G01 X5.1033 Y29.8182
G01 X5.0907 Y29.8222
G01 X5.0810 Y29.8265
G01 X5.0696 Y29.8332
G01 X5.0611 Y29.8395
G01 X5.0514 Y29.8486
G01 X5.0444 Y29.8566
G01 X5.0369 Y29.8675
G01 X5.0308 Y29.8793
G01 X4.9854 Y29.9891
G01 X4.8023 Y30.2277
G01 X4.5637 Y30.4108
G01 X4.2859 Y30.5258
G01 X3.9878 Y30.5651
G01 X3.6897 Y30.5258
G01 X3.4119 Y30.4108
G01 X3.1733 Y30.2277
G01 X2.9902 Y29.9891
G01 X2.8752 Y29.7113
G01 X2.8359 Y29.4132
G01 X2.8752 Y29.1151
G01 X2.9902 Y28.8373
G01 X3.1733 Y28.5987
G01 X3.4119 Y28.4156
G01 X3.6897 Y28.3006
G01 X3.9878 Y28.2613
G01 X4.2859 Y28.3006
G01 X4.5637 Y28.4156
G01 X4.8023 Y28.5987
G01 X4.9854 Y28.8373
G01 X5.0308 Y28.9471
G01 X5.0356 Y28.9566
G01 X5.0413 Y28.9656
G01 X5.0461 Y28.9719
G01 X5.0514 Y28.9778
G01 X5.0571 Y28.9834
G01 X5.0631 Y28.9885
G01 X5.0696 Y28.9932
G01 X5.0764 Y28.9974
