(G-CODE GENERATED BY FLATCAM v8.993 - www.flatcam.org - Version Date: 2020/06/05)

(Name: isolation)
(Type: G-code from Geometry)
(Units: MM)

(Created on Tuesday, 29 December 2020 at 14:25)

(This preprocessor is the default preprocessor used by FlatCAM.)
(It is made to work with MACH3 compatible motion controllers.)

(TOOL DIAMETER: 0.12 mm)
(Feedrate_XY: 120.0 mm/min)
(Feedrate_Z: 60.0 mm/min)
(Feedrate rapids 1500.0 mm/min)

(Z_Cut: -0.07 mm)
(Z_Move: 2.0 mm)
(Z Start: None mm)
(Z End: 15.0 mm)
(Steps per circle: 64)
(Preprocessor Geometry: default)

(X range:    0.1954 ...   81.2624  mm)
(Y range:    0.1954 ...   78.3668  mm)

(Spindle Speed: 8000 RPM)
G21
G90
G94



G01 F120.00
G00 Z2.0000

M03 S8000
G00 X7.9908 Y1.2592
G01 F60.00
G01 Z-0.0700
G01 F120.00
G01 X8.3319 Y1.2927
G01 X8.6599 Y1.3923
G01 X8.9622 Y1.5538
G01 X9.2271 Y1.7713
G01 X9.4446 Y2.0362
G01 X9.6061 Y2.3385
G01 X9.7056 Y2.6665
G01 X9.7392 Y3.0076
G01 X9.7056 Y3.3487
G01 X9.6061 Y3.6767
G01 X9.4446 Y3.9790
G01 X9.2271 Y4.2439
G01 X8.9622 Y4.4614
G01 X8.6599 Y4.6229
G01 X8.3319 Y4.7225
G01 X7.9908 Y4.7560
G01 X7.6497 Y4.7225
G01 X7.3217 Y4.6229
G01 X7.0194 Y4.4614
G01 X6.7545 Y4.2439
G01 X6.5370 Y3.9790
G01 X6.3755 Y3.6767
G01 X6.2759 Y3.3487
G01 X6.2424 Y3.0076
G01 X6.2759 Y2.6665
G01 X6.3755 Y2.3385
G01 X6.5370 Y2.0362
G01 X6.7545 Y1.7713
G01 X7.0194 Y1.5538
G01 X7.3217 Y1.3923
G01 X7.6497 Y1.2927
G01 X7.9908 Y1.2592
G00 Z2.0000
G00 X7.9908 Y1.3195
G01 F60.00
G01 Z-0.0700
G01 F120.00
G01 X8.3202 Y1.3519
G01 X8.6369 Y1.4480
G01 X8.9287 Y1.6040
G01 X9.1844 Y1.8140
G01 X9.3944 Y2.0697
G01 X9.5504 Y2.3615
G01 X9.6464 Y2.6782
G01 X9.6789 Y3.0076
G01 X9.6464 Y3.3370
G01 X9.5504 Y3.6537
G01 X9.3944 Y3.9455
G01 X9.1844 Y4.2012
G01 X8.9287 Y4.4112
G01 X8.6369 Y4.5672
G01 X8.3202 Y4.6633
G01 X7.9908 Y4.6957
G01 X7.6614 Y4.6633
G01 X7.3447 Y4.5672
G01 X7.0529 Y4.4112
G01 X6.7972 Y4.2012
G01 X6.5872 Y3.9455
G01 X6.4312 Y3.6537
G01 X6.3351 Y3.3370
G01 X6.3027 Y3.0076
G01 X6.3351 Y2.6782
G01 X6.4312 Y2.3615
G01 X6.5872 Y2.0697
G01 X6.7972 Y1.8140
G01 X7.0529 Y1.6040
G01 X7.3447 Y1.4480
G01 X7.6614 Y1.3519
G01 X7.9908 Y1.3195
G00 Z2.0000
G00 X7.9908 Y1.3798
G01 F60.00
G01 Z-0.0700
G01 F120.00
G01 X8.3084 Y1.4110
G01 X8.6138 Y1.5037
G01 X8.8952 Y1.6541
G01 X9.1418 Y1.8566
G01 X9.3443 Y2.1032
G01 X9.4947 Y2.3846
G01 X9.5873 Y2.6900
G01 X9.6186 Y3.0076
G01 X9.5873 Y3.3252
G01 X9.4947 Y3.6306
G01 X9.3443 Y3.9120
G01 X9.1418 Y4.1586
G01 X8.8952 Y4.3611
G01 X8.6138 Y4.5115
G01 X8.3084 Y4.6042
G01 X7.9908 Y4.6354
G01 X7.6732 Y4.6042
G01 X7.3678 Y4.5115
G01 X7.0864 Y4.3611
G01 X6.8398 Y4.1586
G01 X6.6373 Y3.9120
G01 X6.4869 Y3.6306
G01 X6.3942 Y3.3252
G01 X6.3630 Y3.0076
G01 X6.3942 Y2.6900
G01 X6.4869 Y2.3846
G01 X6.6373 Y2.1032
G01 X6.8398 Y1.8566
G01 X7.0864 Y1.6541
G01 X7.3678 Y1.5037
G01 X7.6732 Y1.4110
G01 X7.9908 Y1.3798
G00 Z2.0000
G00 X7.9908 Y1.4401
G01 F60.00
G01 Z-0.0700
G01 F120.00
G01 X8.2966 Y1.4701
G01 X8.5907 Y1.5594
G01 X8.8617 Y1.7042
G01 X9.0992 Y1.8992
G01 X9.2942 Y2.1367
G01 X9.4390 Y2.4077
G01 X9.5282 Y2.7018
G01 X9.5583 Y3.0076
G01 X9.5282 Y3.3134
G01 X9.4390 Y3.6075
G01 X9.2942 Y3.8785
G01 X9.0992 Y4.1160
G01 X8.8617 Y4.3110
G01 X8.5907 Y4.4558
G01 X8.2966 Y4.5451
G01 X7.9908 Y4.5751
G01 X7.6850 Y4.5451
G01 X7.3909 Y4.4558
G01 X7.1199 Y4.3110
G01 X6.8824 Y4.1160
G01 X6.6874 Y3.8785
G01 X6.5426 Y3.6075
G01 X6.4533 Y3.3134
G01 X6.4233 Y3.0076
G01 X6.4533 Y2.7018
G01 X6.5426 Y2.4077
G01 X6.6874 Y2.1367
G01 X6.8824 Y1.8992
G01 X7.1199 Y1.7042
G01 X7.3909 Y1.5594
G01 X7.6850 Y1.4701
G01 X7.9908 Y1.4401
G00 Z2.0000
G00 X9.0007 Y3.0047
G01 F60.00
G01 Z-0.0700
G01 F120.00
G01 X9.0007 Y3.0105
G01 X8.9959 Y3.1066
G01 X8.9814 Y3.2046
G01 X8.9573 Y3.3008
G01 X8.9239 Y3.3941
G01 X8.8815 Y3.4837
G01 X8.8306 Y3.5687
G01 X8.7715 Y3.6483
G01 X8.7050 Y3.7218
G01 X8.6315 Y3.7883
G01 X8.5519 Y3.8474
G01 X8.4669 Y3.8983
G01 X8.3773 Y3.9407
G01 X8.2840 Y3.9741
G01 X8.1878 Y3.9982
G01 X8.0898 Y4.0127
G01 X7.9908 Y4.0176
G01 X7.8918 Y4.0127
G01 X7.7938 Y3.9982
G01 X7.6976 Y3.9741
G01 X7.6043 Y3.9407
G01 X7.5147 Y3.8983
G01 X7.4297 Y3.8474
G01 X7.3501 Y3.7883
G01 X7.2766 Y3.7218
G01 X7.2101 Y3.6483
G01 X7.1510 Y3.5687
G01 X7.1001 Y3.4837
G01 X7.0577 Y3.3941
G01 X7.0243 Y3.3008
G01 X7.0002 Y3.2046
G01 X6.9857 Y3.1066
G01 X6.9808 Y3.0076
G01 X6.9857 Y2.9086
G01 X7.0002 Y2.8106
G01 X7.0243 Y2.7144
G01 X7.0577 Y2.6211
G01 X7.1001 Y2.5315
G01 X7.1510 Y2.4465
G01 X7.2101 Y2.3669
G01 X7.2766 Y2.2934
G01 X7.3501 Y2.2269
G01 X7.4297 Y2.1678
G01 X7.5147 Y2.1169
G01 X7.6043 Y2.0745
G01 X7.6976 Y2.0411
G01 X7.7938 Y2.0170
G01 X7.8918 Y2.0025
G01 X7.9908 Y1.9976
G01 X8.0898 Y2.0025
G01 X8.1878 Y2.0170
G01 X8.2840 Y2.0411
G01 X8.3773 Y2.0745
G01 X8.4669 Y2.1169
G01 X8.5519 Y2.1678
G01 X8.6315 Y2.2269
G01 X8.7050 Y2.2934
G01 X8.7715 Y2.3669
G01 X8.8306 Y2.4465
G01 X8.8815 Y2.5315
G01 X8.9239 Y2.6211
G01 X8.9573 Y2.7144
G01 X8.9814 Y2.8106
G01 X8.9959 Y2.9086
G01 X9.0007 Y3.0047
G00 Z2.0000
G00 X9.0607 Y3.0017
G01 F60.00
G01 Z-0.0700
G01 F120.00
G01 X9.0607 Y3.0135
G01 X9.0556 Y3.1125
G01 X9.0402 Y3.2163
G01 X9.0147 Y3.3182
G01 X8.9794 Y3.4171
G01 X8.9345 Y3.5120
G01 X8.8805 Y3.6021
G01 X8.8179 Y3.6864
G01 X8.7474 Y3.7642
G01 X8.6696 Y3.8347
G01 X8.5853 Y3.8973
G01 X8.4952 Y3.9513
G01 X8.4003 Y3.9962
G01 X8.3014 Y4.0315
G01 X8.1995 Y4.0570
G01 X8.0957 Y4.0724
G01 X7.9908 Y4.0776
G01 X7.8859 Y4.0724
G01 X7.7821 Y4.0570
G01 X7.6802 Y4.0315
G01 X7.5813 Y3.9962
G01 X7.4864 Y3.9513
G01 X7.3963 Y3.8973
G01 X7.3120 Y3.8347
G01 X7.2342 Y3.7642
G01 X7.1637 Y3.6864
G01 X7.1011 Y3.6021
G01 X7.0471 Y3.5120
G01 X7.0022 Y3.4171
G01 X6.9669 Y3.3182
G01 X6.9414 Y3.2163
G01 X6.9260 Y3.1125
G01 X6.9208 Y3.0076
G01 X6.9260 Y2.9027
G01 X6.9414 Y2.7989
G01 X6.9669 Y2.6970
G01 X7.0022 Y2.5981
G01 X7.0471 Y2.5032
G01 X7.1011 Y2.4131
G01 X7.1637 Y2.3288
G01 X7.2342 Y2.2510
G01 X7.3120 Y2.1805
G01 X7.3963 Y2.1179
G01 X7.4864 Y2.0639
G01 X7.5813 Y2.0190
G01 X7.6802 Y1.9837
G01 X7.7821 Y1.9582
G01 X7.8859 Y1.9428
G01 X7.9908 Y1.9376
G01 X8.0957 Y1.9428
G01 X8.1995 Y1.9582
G01 X8.3014 Y1.9837
G01 X8.4003 Y2.0190
G01 X8.4952 Y2.0639
G01 X8.5853 Y2.1179
G01 X8.6696 Y2.1805
G01 X8.7474 Y2.2510
G01 X8.8179 Y2.3288
G01 X8.8805 Y2.4131
G01 X8.9345 Y2.5032
G01 X8.9794 Y2.5981
G01 X9.0147 Y2.6970
G01 X9.0402 Y2.7989
G01 X9.0556 Y2.9027
G01 X9.0607 Y3.0017
G00 Z2.0000
G00 X9.1206 Y2.9988
G01 F60.00
G01 Z-0.0700
G01 F120.00
G01 X9.1206 Y3.0164
G01 X9.1154 Y3.1184
G01 X9.0991 Y3.2281
G01 X9.0721 Y3.3356
G01 X9.0348 Y3.4400
G01 X8.9874 Y3.5403
G01 X8.9304 Y3.6354
G01 X8.8643 Y3.7245
G01 X8.7898 Y3.8066
G01 X8.7077 Y3.8811
G01 X8.6186 Y3.9472
G01 X8.5235 Y4.0042
G01 X8.4232 Y4.0516
G01 X8.3188 Y4.0889
G01 X8.2113 Y4.1159
G01 X8.1016 Y4.1322
G01 X7.9908 Y4.1376
G01 X7.8800 Y4.1322
G01 X7.7703 Y4.1159
G01 X7.6628 Y4.0889
G01 X7.5584 Y4.0516
G01 X7.4581 Y4.0042
G01 X7.3630 Y3.9472
G01 X7.2739 Y3.8811
G01 X7.1918 Y3.8066
G01 X7.1173 Y3.7245
G01 X7.0512 Y3.6354
G01 X6.9942 Y3.5403
G01 X6.9468 Y3.4400
G01 X6.9095 Y3.3356
G01 X6.8825 Y3.2281
G01 X6.8662 Y3.1184
G01 X6.8608 Y3.0076
G01 X6.8662 Y2.8968
G01 X6.8825 Y2.7871
G01 X6.9095 Y2.6796
G01 X6.9468 Y2.5752
G01 X6.9942 Y2.4749
G01 X7.0512 Y2.3798
G01 X7.1173 Y2.2907
G01 X7.1918 Y2.2086
G01 X7.2739 Y2.1341
G01 X7.3630 Y2.0680
G01 X7.4581 Y2.0110
G01 X7.5584 Y1.9636
G01 X7.6628 Y1.9263
G01 X7.7703 Y1.8993
G01 X7.8800 Y1.8830
G01 X7.9908 Y1.8776
G01 X8.1016 Y1.8830
G01 X8.2113 Y1.8993
G01 X8.3188 Y1.9263
G01 X8.4232 Y1.9636
G01 X8.5235 Y2.0110
G01 X8.6186 Y2.0680
G01 X8.7077 Y2.1341
G01 X8.7898 Y2.2086
G01 X8.8643 Y2.2907
G01 X8.9304 Y2.3798
G01 X8.9874 Y2.4749
G01 X9.0348 Y2.5752
G01 X9.0721 Y2.6796
G01 X9.0991 Y2.7871
G01 X9.1154 Y2.8968
G01 X9.1206 Y2.9988
G00 Z2.0000
G00 X9.1805 Y2.9958
G01 F60.00
G01 Z-0.0700
G01 F120.00
G01 X9.1808 Y3.0076
G01 X9.1805 Y3.0194
G01 X9.1759 Y3.1125
G01 X9.1751 Y3.1242
G01 X9.1736 Y3.1359
G01 X9.1599 Y3.2282
G01 X9.1579 Y3.2398
G01 X9.1554 Y3.2513
G01 X9.1327 Y3.3417
G01 X9.1296 Y3.3530
G01 X9.1259 Y3.3642
G01 X9.0945 Y3.4520
G01 X9.0902 Y3.4630
G01 X9.0854 Y3.4738
G01 X9.0456 Y3.5580
G01 X9.0403 Y3.5686
G01 X9.0345 Y3.5788
G01 X8.9866 Y3.6588
G01 X8.9802 Y3.6687
G01 X8.9735 Y3.6784
G01 X8.9179 Y3.7532
G01 X8.9107 Y3.7625
G01 X8.9030 Y3.7714
G01 X8.8404 Y3.8405
G01 X8.8323 Y3.8491
G01 X8.8237 Y3.8572
G01 X8.7546 Y3.9198
G01 X8.7457 Y3.9275
G01 X8.7364 Y3.9347
G01 X8.6616 Y3.9903
G01 X8.6519 Y3.9970
G01 X8.6420 Y4.0034
G01 X8.5620 Y4.0513
G01 X8.5518 Y4.0571
G01 X8.5412 Y4.0624
G01 X8.4570 Y4.1022
G01 X8.4462 Y4.1070
G01 X8.4352 Y4.1113
G01 X8.3474 Y4.1427
G01 X8.3362 Y4.1464
G01 X8.3249 Y4.1495
G01 X8.2345 Y4.1722
G01 X8.2230 Y4.1747
G01 X8.2114 Y4.1767
G01 X8.1191 Y4.1904
G01 X8.1074 Y4.1919
G01 X8.0957 Y4.1927
G01 X8.0026 Y4.1973
G01 X7.9908 Y4.1976
G01 X7.9790 Y4.1973
G01 X7.8859 Y4.1927
G01 X7.8742 Y4.1919
G01 X7.8625 Y4.1904
G01 X7.7702 Y4.1767
G01 X7.7586 Y4.1747
G01 X7.7471 Y4.1722
G01 X7.6567 Y4.1495
G01 X7.6454 Y4.1464
G01 X7.6342 Y4.1427
G01 X7.5464 Y4.1113
G01 X7.5354 Y4.1070
G01 X7.5246 Y4.1022
G01 X7.4404 Y4.0624
G01 X7.4298 Y4.0571
G01 X7.4196 Y4.0513
G01 X7.3396 Y4.0034
G01 X7.3297 Y3.9970
G01 X7.3200 Y3.9903
G01 X7.2452 Y3.9347
G01 X7.2359 Y3.9275
G01 X7.2270 Y3.9198
G01 X7.1579 Y3.8572
G01 X7.1493 Y3.8491
G01 X7.1412 Y3.8405
G01 X7.0786 Y3.7714
G01 X7.0709 Y3.7625
G01 X7.0637 Y3.7532
G01 X7.0081 Y3.6784
G01 X7.0014 Y3.6687
G01 X6.9950 Y3.6588
G01 X6.9471 Y3.5788
G01 X6.9413 Y3.5686
G01 X6.9360 Y3.5580
G01 X6.8962 Y3.4738
G01 X6.8914 Y3.4630
G01 X6.8871 Y3.4520
G01 X6.8557 Y3.3642
G01 X6.8520 Y3.3530
G01 X6.8489 Y3.3417
G01 X6.8262 Y3.2513
G01 X6.8237 Y3.2398
G01 X6.8217 Y3.2282
G01 X6.8080 Y3.1359
G01 X6.8065 Y3.1242
G01 X6.8057 Y3.1125
G01 X6.8011 Y3.0194
G01 X6.8008 Y3.0076
G01 X6.8011 Y2.9958
G01 X6.8057 Y2.9027
G01 X6.8065 Y2.8910
G01 X6.8080 Y2.8793
G01 X6.8217 Y2.7870
G01 X6.8237 Y2.7754
G01 X6.8262 Y2.7639
G01 X6.8489 Y2.6735
G01 X6.8520 Y2.6622
G01 X6.8557 Y2.6510
G01 X6.8871 Y2.5632
G01 X6.8914 Y2.5522
G01 X6.8962 Y2.5414
G01 X6.9360 Y2.4572
G01 X6.9413 Y2.4466
G01 X6.9471 Y2.4364
G01 X6.9950 Y2.3564
G01 X7.0014 Y2.3465
G01 X7.0081 Y2.3368
G01 X7.0637 Y2.2620
G01 X7.0709 Y2.2527
G01 X7.0786 Y2.2438
G01 X7.1412 Y2.1747
G01 X7.1493 Y2.1661
G01 X7.1579 Y2.1580
G01 X7.2270 Y2.0954
G01 X7.2359 Y2.0877
G01 X7.2452 Y2.0805
G01 X7.3200 Y2.0249
G01 X7.3297 Y2.0182
G01 X7.3396 Y2.0118
G01 X7.4196 Y1.9639
G01 X7.4298 Y1.9581
G01 X7.4404 Y1.9528
G01 X7.5246 Y1.9130
G01 X7.5354 Y1.9082
G01 X7.5464 Y1.9039
G01 X7.6342 Y1.8725
G01 X7.6454 Y1.8688
G01 X7.6567 Y1.8657
G01 X7.7471 Y1.8430
G01 X7.7586 Y1.8405
G01 X7.7702 Y1.8385
G01 X7.8625 Y1.8248
G01 X7.8742 Y1.8233
G01 X7.8859 Y1.8225
G01 X7.9790 Y1.8179
G01 X7.9908 Y1.8176
G01 X8.0026 Y1.8179
G01 X8.0957 Y1.8225
G01 X8.1074 Y1.8233
G01 X8.1191 Y1.8248
G01 X8.2114 Y1.8385
G01 X8.2230 Y1.8405
G01 X8.2345 Y1.8430
G01 X8.3249 Y1.8657
G01 X8.3362 Y1.8688
G01 X8.3474 Y1.8725
G01 X8.4352 Y1.9039
G01 X8.4462 Y1.9082
G01 X8.4570 Y1.9130
G01 X8.5412 Y1.9528
G01 X8.5518 Y1.9581
G01 X8.5620 Y1.9639
G01 X8.6420 Y2.0118
G01 X8.6519 Y2.0182
G01 X8.6616 Y2.0249
G01 X8.7364 Y2.0805
G01 X8.7457 Y2.0877
G01 X8.7546 Y2.0954
G01 X8.8237 Y2.1580
G01 X8.8323 Y2.1661
G01 X8.8404 Y2.1747
G01 X8.9030 Y2.2438
G01 X8.9107 Y2.2527
G01 X8.9179 Y2.2620
G01 X8.9735 Y2.3368
G01 X8.9802 Y2.3465
G01 X8.9866 Y2.3564
G01 X9.0345 Y2.4364
G01 X9.0403 Y2.4466
G01 X9.0456 Y2.4572
G01 X9.0854 Y2.5414
G01 X9.0902 Y2.5522
G01 X9.0945 Y2.5632
G01 X9.1259 Y2.6510
G01 X9.1296 Y2.6622
G01 X9.1327 Y2.6735
G01 X9.1554 Y2.7639
G01 X9.1579 Y2.7754
G01 X9.1599 Y2.7870
G01 X9.1736 Y2.8793
G01 X9.1751 Y2.8910
G01 X9.1759 Y2.9027
G01 X9.1805 Y2.9958
G00 Z2.0000
G00 X27.9908 Y11.4743
G01 F60.00
G01 Z-0.0700
G01 F120.00
G01 X28.3014 Y11.5153
G01 X28.5909 Y11.6351
G01 X28.8395 Y11.8259
G01 X29.0303 Y12.0745
G01 X29.1501 Y12.3640
G01 X29.1911 Y12.6746
G01 X29.1501 Y12.9852
G01 X29.0303 Y13.2747
G01 X28.8395 Y13.5233
G01 X28.5909 Y13.7141
G01 X28.3255 Y13.8240
G01 X28.3164 Y13.8287
G01 X28.3104 Y13.8330
G01 X28.3050 Y13.8380
G01 X28.3003 Y13.8437
G01 X28.2963 Y13.8498
G01 X28.2925 Y13.8578
G01 X28.2903 Y13.8648
G01 X28.2890 Y13.8721
G01 X28.2885 Y13.8794
G01 X28.2885 Y14.0098
G01 X28.2888 Y14.0157
G01 X28.2907 Y14.0258
G01 X28.2943 Y14.0355
G01 X28.2994 Y14.0444
G01 X28.3061 Y14.0522
G01 X28.3140 Y14.0589
G01 X28.3189 Y14.0620
G01 X28.3242 Y14.0647
G01 X28.5909 Y14.1751
G01 X28.8395 Y14.3659
G01 X29.0303 Y14.6145
G01 X29.1501 Y14.9040
G01 X29.1911 Y15.2146
G01 X29.1501 Y15.5252
G01 X29.0303 Y15.8147
G01 X28.8395 Y16.0633
G01 X28.5909 Y16.2541
G01 X28.3255 Y16.3640
G01 X28.3202 Y16.3665
G01 X28.3140 Y16.3703
G01 X28.3082 Y16.3749
G01 X28.3021 Y16.3813
G01 X28.2978 Y16.3873
G01 X28.2936 Y16.3951
G01 X28.2911 Y16.4020
G01 X28.2894 Y16.4091
G01 X28.2886 Y16.4165
G01 X28.2885 Y16.5498
G01 X28.2888 Y16.5557
G01 X28.2907 Y16.5658
G01 X28.2943 Y16.5755
G01 X28.2994 Y16.5844
G01 X28.3061 Y16.5922
G01 X28.3140 Y16.5989
G01 X28.3189 Y16.6020
G01 X28.3242 Y16.6047
G01 X28.5909 Y16.7151
G01 X28.8395 Y16.9059
G01 X29.0303 Y17.1545
G01 X29.1501 Y17.4440
G01 X29.1911 Y17.7546
G01 X29.1501 Y18.0652
G01 X29.0303 Y18.3547
G01 X28.8395 Y18.6033
G01 X28.5909 Y18.7941
G01 X28.3255 Y18.9040
G01 X28.3202 Y18.9065
G01 X28.3140 Y18.9103
G01 X28.3082 Y18.9149
G01 X28.3031 Y18.9202
G01 X28.2986 Y18.9261
G01 X28.2949 Y18.9324
G01 X28.2920 Y18.9392
G01 X28.2897 Y18.9477
G01 X28.2887 Y18.9550
G01 X28.2885 Y19.0898
G01 X28.2888 Y19.0957
G01 X28.2907 Y19.1058
G01 X28.2943 Y19.1155
G01 X28.2994 Y19.1244
G01 X28.3061 Y19.1322
G01 X28.3140 Y19.1389
G01 X28.3189 Y19.1420
G01 X28.3242 Y19.1447
G01 X28.5909 Y19.2551
G01 X28.8395 Y19.4459
G01 X29.0303 Y19.6945
G01 X29.1501 Y19.9840
G01 X29.1911 Y20.2946
G01 X29.1501 Y20.6052
G01 X29.0303 Y20.8947
G01 X28.8395 Y21.1433
G01 X28.5909 Y21.3341
G01 X28.3215 Y21.4458
G01 X28.3152 Y21.4495
G01 X28.3093 Y21.4540
G01 X28.3040 Y21.4591
G01 X28.3003 Y21.4637
G01 X28.2963 Y21.4698
G01 X28.2931 Y21.4764
G01 X28.2907 Y21.4834
G01 X28.2891 Y21.4906
G01 X28.2885 Y21.4994
G01 X28.2885 Y21.6298
G01 X28.2888 Y21.6357
G01 X28.2907 Y21.6458
G01 X28.2943 Y21.6555
G01 X28.2994 Y21.6644
G01 X28.3061 Y21.6722
G01 X28.3140 Y21.6789
G01 X28.3189 Y21.6820
G01 X28.3242 Y21.6847
G01 X28.5909 Y21.7951
G01 X28.8395 Y21.9859
G01 X29.0303 Y22.2345
G01 X29.1501 Y22.5240
G01 X29.1911 Y22.8346
G01 X29.1501 Y23.1452
G01 X29.0303 Y23.4347
G01 X28.8395 Y23.6833
G01 X28.5909 Y23.8741
G01 X28.3242 Y23.9845
G01 X28.3152 Y23.9895
G01 X28.3104 Y23.9930
G01 X28.3061 Y23.9970
G01 X28.2994 Y24.0048
G01 X28.2943 Y24.0137
G01 X28.2907 Y24.0234
G01 X28.2888 Y24.0335
G01 X28.2885 Y24.0394
G01 X28.2885 Y24.1698
G01 X28.2888 Y24.1757
G01 X28.2900 Y24.1829
G01 X28.2920 Y24.1900
G01 X28.2943 Y24.1955
G01 X28.2970 Y24.2007
G01 X28.3012 Y24.2067
G01 X28.3050 Y24.2112
G01 X28.3104 Y24.2162
G01 X28.3152 Y24.2197
G01 X28.3215 Y24.2234
G01 X28.5909 Y24.3351
G01 X28.8395 Y24.5259
G01 X29.0303 Y24.7745
G01 X29.1501 Y25.0640
G01 X29.1911 Y25.3746
G01 X29.1501 Y25.6852
G01 X29.0303 Y25.9747
G01 X28.8395 Y26.2233
G01 X28.5909 Y26.4141
G01 X28.3242 Y26.5245
G01 X28.3152 Y26.5295
G01 X28.3104 Y26.5330
G01 X28.3061 Y26.5370
G01 X28.2994 Y26.5448
G01 X28.2943 Y26.5537
G01 X28.2907 Y26.5634
G01 X28.2888 Y26.5735
G01 X28.2885 Y26.5794
G01 X28.2885 Y26.7098
G01 X28.2888 Y26.7157
G01 X28.2900 Y26.7229
G01 X28.2920 Y26.7300
G01 X28.2949 Y26.7368
G01 X28.2986 Y26.7431
G01 X28.3031 Y26.7490
G01 X28.3082 Y26.7543
G01 X28.3140 Y26.7589
G01 X28.3202 Y26.7627
G01 X28.3255 Y26.7652
G01 X28.5909 Y26.8751
G01 X28.8395 Y27.0659
G01 X29.0303 Y27.3145
G01 X29.1501 Y27.6040
G01 X29.1911 Y27.9146
G01 X29.1501 Y28.2252
G01 X29.0303 Y28.5147
G01 X28.8395 Y28.7633
G01 X28.5909 Y28.9541
G01 X28.3242 Y29.0645
G01 X28.3152 Y29.0695
G01 X28.3104 Y29.0730
G01 X28.3061 Y29.0770
G01 X28.2994 Y29.0848
G01 X28.2943 Y29.0937
G01 X28.2907 Y29.1034
G01 X28.2888 Y29.1135
G01 X28.2885 Y29.1194
G01 X28.2887 Y29.2542
G01 X28.2897 Y29.2615
G01 X28.2920 Y29.2700
G01 X28.2949 Y29.2768
G01 X28.2986 Y29.2831
G01 X28.3031 Y29.2890
G01 X28.3082 Y29.2943
G01 X28.3140 Y29.2989
G01 X28.3202 Y29.3027
G01 X28.3255 Y29.3052
G01 X28.5909 Y29.4151
G01 X28.8395 Y29.6059
G01 X29.0303 Y29.8545
G01 X29.1501 Y30.1440
G01 X29.1911 Y30.4546
G01 X29.1501 Y30.7652
G01 X29.0303 Y31.0547
G01 X28.8395 Y31.3033
G01 X28.5909 Y31.4941
G01 X28.3242 Y31.6045
G01 X28.3152 Y31.6095
G01 X28.3104 Y31.6130
G01 X28.3061 Y31.6170
G01 X28.2994 Y31.6248
G01 X28.2943 Y31.6337
G01 X28.2907 Y31.6434
G01 X28.2888 Y31.6535
G01 X28.2885 Y31.6594
G01 X28.2886 Y31.7927
G01 X28.2894 Y31.8001
G01 X28.2911 Y31.8072
G01 X28.2943 Y31.8155
G01 X28.2978 Y31.8219
G01 X28.3021 Y31.8279
G01 X28.3082 Y31.8343
G01 X28.3140 Y31.8389
G01 X28.3202 Y31.8427
G01 X28.3255 Y31.8452
G01 X28.5909 Y31.9551
G01 X28.8395 Y32.1459
G01 X29.0303 Y32.3945
G01 X29.1501 Y32.6840
G01 X29.1911 Y32.9946
G01 X29.1501 Y33.3052
G01 X29.0303 Y33.5947
G01 X28.8395 Y33.8433
G01 X28.5909 Y34.0341
G01 X28.3242 Y34.1445
G01 X28.3152 Y34.1495
G01 X28.3104 Y34.1530
G01 X28.3061 Y34.1570
G01 X28.2994 Y34.1648
G01 X28.2943 Y34.1737
G01 X28.2907 Y34.1834
G01 X28.2888 Y34.1935
G01 X28.2885 Y34.1994
G01 X28.2886 Y34.3327
G01 X28.2894 Y34.3401
G01 X28.2911 Y34.3472
G01 X28.2943 Y34.3555
G01 X28.2978 Y34.3619
G01 X28.3021 Y34.3679
G01 X28.3082 Y34.3743
G01 X28.3140 Y34.3789
G01 X28.3202 Y34.3827
G01 X28.3255 Y34.3852
G01 X28.5909 Y34.4951
G01 X28.8395 Y34.6859
G01 X29.0303 Y34.9345
G01 X29.1501 Y35.2240
G01 X29.1911 Y35.5346
G01 X29.1501 Y35.8452
G01 X29.0303 Y36.1347
G01 X28.8395 Y36.3833
G01 X28.5909 Y36.5741
G01 X28.3242 Y36.6845
G01 X28.3152 Y36.6895
G01 X28.3104 Y36.6930
G01 X28.3061 Y36.6970
G01 X28.2994 Y36.7048
G01 X28.2943 Y36.7137
G01 X28.2907 Y36.7234
G01 X28.2888 Y36.7335
G01 X28.2885 Y36.7394
G01 X28.2886 Y36.8727
G01 X28.2894 Y36.8801
G01 X28.2911 Y36.8872
G01 X28.2943 Y36.8955
G01 X28.2978 Y36.9019
G01 X28.3021 Y36.9079
G01 X28.3082 Y36.9143
G01 X28.3140 Y36.9189
G01 X28.3202 Y36.9227
G01 X28.3255 Y36.9252
G01 X28.5909 Y37.0351
G01 X28.8395 Y37.2259
G01 X29.0303 Y37.4745
G01 X29.1501 Y37.7640
G01 X29.1911 Y38.0746
G01 X29.1501 Y38.3852
G01 X29.0303 Y38.6747
G01 X28.8395 Y38.9233
G01 X28.5909 Y39.1141
G01 X28.3242 Y39.2245
G01 X28.3152 Y39.2295
G01 X28.3104 Y39.2330
G01 X28.3061 Y39.2370
G01 X28.2994 Y39.2448
G01 X28.2943 Y39.2537
G01 X28.2907 Y39.2634
G01 X28.2888 Y39.2735
G01 X28.2885 Y39.2794
G01 X28.2885 Y39.4113
G01 X28.2891 Y39.4186
G01 X28.2907 Y39.4258
G01 X28.2931 Y39.4328
G01 X28.2963 Y39.4394
G01 X28.3003 Y39.4455
G01 X28.3050 Y39.4512
G01 X28.3104 Y39.4562
G01 X28.3164 Y39.4605
G01 X28.3255 Y39.4652
G01 X28.5909 Y39.5751
G01 X28.8395 Y39.7659
G01 X29.0303 Y40.0145
G01 X29.1501 Y40.3040
G01 X29.1911 Y40.6146
G01 X29.1501 Y40.9252
G01 X29.0303 Y41.2147
G01 X28.8395 Y41.4633
G01 X28.5909 Y41.6541
G01 X28.3014 Y41.7739
G01 X27.9908 Y41.8149
G01 X27.6802 Y41.7739
G01 X27.3907 Y41.6541
G01 X27.1421 Y41.4633
G01 X26.9513 Y41.2147
G01 X26.8315 Y40.9252
G01 X26.7905 Y40.6146
G01 X26.8315 Y40.3040
G01 X26.9513 Y40.0145
G01 X27.1421 Y39.7659
G01 X27.3907 Y39.5751
G01 X27.6561 Y39.4652
G01 X27.6652 Y39.4605
G01 X27.6712 Y39.4562
G01 X27.6766 Y39.4512
G01 X27.6813 Y39.4455
G01 X27.6853 Y39.4394
G01 X27.6885 Y39.4328
G01 X27.6909 Y39.4258
G01 X27.6925 Y39.4186
G01 X27.6931 Y39.4098
G01 X27.6931 Y39.2794
G01 X27.6928 Y39.2735
G01 X27.6909 Y39.2634
G01 X27.6873 Y39.2537
G01 X27.6822 Y39.2448
G01 X27.6755 Y39.2370
G01 X27.6676 Y39.2303
G01 X27.6627 Y39.2272
G01 X27.6574 Y39.2245
G01 X27.3907 Y39.1141
G01 X27.1421 Y38.9233
G01 X26.9513 Y38.6747
G01 X26.8315 Y38.3852
G01 X26.7905 Y38.0746
G01 X26.8315 Y37.7640
G01 X26.9513 Y37.4745
G01 X27.1421 Y37.2259
G01 X27.3907 Y37.0351
G01 X27.6561 Y36.9252
G01 X27.6614 Y36.9227
G01 X27.6676 Y36.9189
G01 X27.6734 Y36.9143
G01 X27.6795 Y36.9079
G01 X27.6838 Y36.9019
G01 X27.6880 Y36.8941
G01 X27.6905 Y36.8872
G01 X27.6922 Y36.8801
G01 X27.6930 Y36.8727
G01 X27.6931 Y36.7394
G01 X27.6928 Y36.7335
G01 X27.6909 Y36.7234
G01 X27.6873 Y36.7137
G01 X27.6822 Y36.7048
G01 X27.6755 Y36.6970
G01 X27.6676 Y36.6903
G01 X27.6627 Y36.6872
G01 X27.6574 Y36.6845
G01 X27.3907 Y36.5741
G01 X27.1421 Y36.3833
G01 X26.9513 Y36.1347
G01 X26.8315 Y35.8452
G01 X26.7905 Y35.5346
G01 X26.8315 Y35.2240
G01 X26.9513 Y34.9345
G01 X27.1421 Y34.6859
G01 X27.3907 Y34.4951
G01 X27.6561 Y34.3852
G01 X27.6614 Y34.3827
G01 X27.6676 Y34.3789
G01 X27.6734 Y34.3743
G01 X27.6785 Y34.3690
G01 X27.6830 Y34.3631
G01 X27.6867 Y34.3568
G01 X27.6896 Y34.3500
G01 X27.6919 Y34.3415
G01 X27.6929 Y34.3342
G01 X27.6931 Y34.1994
G01 X27.6928 Y34.1935
G01 X27.6909 Y34.1834
G01 X27.6873 Y34.1737
G01 X27.6822 Y34.1648
G01 X27.6755 Y34.1570
G01 X27.6676 Y34.1503
G01 X27.6627 Y34.1472
G01 X27.6574 Y34.1445
G01 X27.3907 Y34.0341
G01 X27.1421 Y33.8433
G01 X26.9513 Y33.5947
G01 X26.8315 Y33.3052
G01 X26.7905 Y32.9946
G01 X26.8315 Y32.6840
G01 X26.9513 Y32.3945
G01 X27.1421 Y32.1459
G01 X27.3907 Y31.9551
G01 X27.6601 Y31.8434
G01 X27.6664 Y31.8397
G01 X27.6723 Y31.8352
G01 X27.6776 Y31.8301
G01 X27.6813 Y31.8255
G01 X27.6853 Y31.8194
G01 X27.6885 Y31.8128
G01 X27.6909 Y31.8058
G01 X27.6925 Y31.7986
G01 X27.6931 Y31.7898
G01 X27.6931 Y31.6594
G01 X27.6928 Y31.6535
G01 X27.6909 Y31.6434
G01 X27.6873 Y31.6337
G01 X27.6822 Y31.6248
G01 X27.6755 Y31.6170
G01 X27.6676 Y31.6103
G01 X27.6627 Y31.6072
G01 X27.6574 Y31.6045
G01 X27.3907 Y31.4941
G01 X27.1421 Y31.3033
G01 X26.9513 Y31.0547
G01 X26.8315 Y30.7652
G01 X26.7905 Y30.4546
G01 X26.8315 Y30.1440
G01 X26.9513 Y29.8545
G01 X27.1421 Y29.6059
G01 X27.3907 Y29.4151
G01 X27.6574 Y29.3047
G01 X27.6664 Y29.2997
G01 X27.6712 Y29.2962
G01 X27.6755 Y29.2922
G01 X27.6822 Y29.2844
G01 X27.6873 Y29.2755
G01 X27.6909 Y29.2658
G01 X27.6928 Y29.2557
G01 X27.6931 Y29.2498
G01 X27.6931 Y29.1194
G01 X27.6928 Y29.1135
G01 X27.6916 Y29.1063
G01 X27.6896 Y29.0992
G01 X27.6873 Y29.0937
G01 X27.6846 Y29.0885
G01 X27.6804 Y29.0825
G01 X27.6766 Y29.0780
G01 X27.6712 Y29.0730
G01 X27.6664 Y29.0695
G01 X27.6601 Y29.0658
G01 X27.3907 Y28.9541
G01 X27.1421 Y28.7633
G01 X26.9513 Y28.5147
G01 X26.8315 Y28.2252
G01 X26.7905 Y27.9146
G01 X26.8315 Y27.6040
G01 X26.9513 Y27.3145
G01 X27.1421 Y27.0659
G01 X27.3907 Y26.8751
G01 X27.6574 Y26.7647
G01 X27.6664 Y26.7597
G01 X27.6712 Y26.7562
G01 X27.6755 Y26.7522
G01 X27.6822 Y26.7444
G01 X27.6873 Y26.7355
G01 X27.6909 Y26.7258
G01 X27.6928 Y26.7157
G01 X27.6931 Y26.7098
G01 X27.6931 Y26.5794
G01 X27.6928 Y26.5735
G01 X27.6916 Y26.5663
G01 X27.6896 Y26.5592
G01 X27.6867 Y26.5524
G01 X27.6830 Y26.5461
G01 X27.6785 Y26.5402
G01 X27.6734 Y26.5349
G01 X27.6676 Y26.5303
G01 X27.6614 Y26.5265
G01 X27.6561 Y26.5240
G01 X27.3907 Y26.4141
G01 X27.1421 Y26.2233
G01 X26.9513 Y25.9747
G01 X26.8315 Y25.6852
G01 X26.7905 Y25.3746
G01 X26.8315 Y25.0640
G01 X26.9513 Y24.7745
G01 X27.1421 Y24.5259
G01 X27.3907 Y24.3351
G01 X27.6574 Y24.2247
G01 X27.6664 Y24.2197
G01 X27.6712 Y24.2162
G01 X27.6755 Y24.2122
G01 X27.6822 Y24.2044
G01 X27.6873 Y24.1955
G01 X27.6909 Y24.1858
G01 X27.6928 Y24.1757
G01 X27.6931 Y24.1698
G01 X27.6929 Y24.0350
G01 X27.6919 Y24.0277
G01 X27.6896 Y24.0192
G01 X27.6867 Y24.0124
G01 X27.6830 Y24.0061
G01 X27.6785 Y24.0002
G01 X27.6734 Y23.9949
G01 X27.6676 Y23.9903
G01 X27.6614 Y23.9865
G01 X27.6561 Y23.9840
G01 X27.3907 Y23.8741
G01 X27.1421 Y23.6833
G01 X26.9513 Y23.4347
G01 X26.8315 Y23.1452
G01 X26.7905 Y22.8346
G01 X26.8315 Y22.5240
G01 X26.9513 Y22.2345
G01 X27.1421 Y21.9859
G01 X27.3907 Y21.7951
G01 X27.6574 Y21.6847
G01 X27.6664 Y21.6797
G01 X27.6712 Y21.6762
G01 X27.6755 Y21.6722
G01 X27.6822 Y21.6644
G01 X27.6873 Y21.6555
G01 X27.6909 Y21.6458
G01 X27.6928 Y21.6357
G01 X27.6931 Y21.6298
G01 X27.6930 Y21.4965
G01 X27.6922 Y21.4891
G01 X27.6905 Y21.4820
G01 X27.6873 Y21.4737
G01 X27.6838 Y21.4673
G01 X27.6795 Y21.4613
G01 X27.6734 Y21.4549
G01 X27.6676 Y21.4503
G01 X27.6614 Y21.4465
G01 X27.6561 Y21.4440
G01 X27.3907 Y21.3341
G01 X27.1421 Y21.1433
G01 X26.9513 Y20.8947
G01 X26.8315 Y20.6052
G01 X26.7905 Y20.2946
G01 X26.8315 Y19.9840
G01 X26.9513 Y19.6945
G01 X27.1421 Y19.4459
G01 X27.3907 Y19.2551
G01 X27.6574 Y19.1447
G01 X27.6664 Y19.1397
G01 X27.6712 Y19.1362
G01 X27.6755 Y19.1322
G01 X27.6822 Y19.1244
G01 X27.6873 Y19.1155
G01 X27.6909 Y19.1058
G01 X27.6928 Y19.0957
G01 X27.6931 Y19.0898
G01 X27.6930 Y18.9565
G01 X27.6922 Y18.9491
G01 X27.6905 Y18.9420
G01 X27.6873 Y18.9337
G01 X27.6838 Y18.9273
G01 X27.6795 Y18.9213
G01 X27.6734 Y18.9149
G01 X27.6676 Y18.9103
G01 X27.6614 Y18.9065
G01 X27.6561 Y18.9040
G01 X27.3907 Y18.7941
G01 X27.1421 Y18.6033
G01 X26.9513 Y18.3547
G01 X26.8315 Y18.0652
G01 X26.7905 Y17.7546
G01 X26.8315 Y17.4440
G01 X26.9513 Y17.1545
G01 X27.1421 Y16.9059
G01 X27.3907 Y16.7151
G01 X27.6574 Y16.6047
G01 X27.6664 Y16.5997
G01 X27.6712 Y16.5962
G01 X27.6755 Y16.5922
G01 X27.6822 Y16.5844
G01 X27.6873 Y16.5755
G01 X27.6909 Y16.5658
G01 X27.6928 Y16.5557
G01 X27.6931 Y16.5498
G01 X27.6930 Y16.4165
G01 X27.6922 Y16.4091
G01 X27.6905 Y16.4020
G01 X27.6873 Y16.3937
G01 X27.6838 Y16.3873
G01 X27.6795 Y16.3813
G01 X27.6734 Y16.3749
G01 X27.6676 Y16.3703
G01 X27.6614 Y16.3665
G01 X27.6561 Y16.3640
G01 X27.3907 Y16.2541
G01 X27.1421 Y16.0633
G01 X26.9513 Y15.8147
G01 X26.8315 Y15.5252
G01 X26.7905 Y15.2146
G01 X26.8315 Y14.9040
G01 X26.9513 Y14.6145
G01 X27.1421 Y14.3659
G01 X27.3907 Y14.1751
G01 X27.6574 Y14.0647
G01 X27.6664 Y14.0597
G01 X27.6712 Y14.0562
G01 X27.6755 Y14.0522
G01 X27.6822 Y14.0444
G01 X27.6873 Y14.0355
G01 X27.6909 Y14.0258
G01 X27.6928 Y14.0157
G01 X27.6931 Y14.0098
G01 X27.6931 Y13.8779
G01 X27.6925 Y13.8706
G01 X27.6909 Y13.8634
G01 X27.6885 Y13.8564
G01 X27.6853 Y13.8498
G01 X27.6813 Y13.8437
G01 X27.6766 Y13.8380
G01 X27.6712 Y13.8330
G01 X27.6652 Y13.8287
G01 X27.6561 Y13.8240
G01 X27.3907 Y13.7141
G01 X27.1421 Y13.5233
G01 X26.9513 Y13.2747
G01 X26.8315 Y12.9852
G01 X26.7905 Y12.6746
G01 X26.8315 Y12.3640
G01 X26.9513 Y12.0745
G01 X27.1421 Y11.8259
G01 X27.3907 Y11.6351
G01 X27.6802 Y11.5153
G01 X27.9908 Y11.4743
G00 Z2.0000
G00 X27.9908 Y11.5348
G01 F60.00
G01 Z-0.0700
G01 F120.00
G01 X28.2858 Y11.5737
G01 X28.5607 Y11.6875
G01 X28.7967 Y11.8687
G01 X28.9779 Y12.1047
G01 X29.0917 Y12.3796
G01 X29.1306 Y12.6746
G01 X29.0917 Y12.9696
G01 X28.9779 Y13.2445
G01 X28.7967 Y13.4805
G01 X28.5607 Y13.6617
G01 X28.3026 Y13.7685
G01 X28.2919 Y13.7736
G01 X28.2794 Y13.7813
G01 X28.2679 Y13.7905
G01 X28.2576 Y13.8010
G01 X28.2487 Y13.8127
G01 X28.2413 Y13.8254
G01 X28.2355 Y13.8390
G01 X28.2314 Y13.8531
G01 X28.2291 Y13.8676
G01 X28.2285 Y13.8794
G01 X28.2285 Y14.0098
G01 X28.2291 Y14.0216
G01 X28.2303 Y14.0303
G01 X28.2321 Y14.0390
G01 X28.2346 Y14.0474
G01 X28.2376 Y14.0557
G01 X28.2427 Y14.0664
G01 X28.2471 Y14.0740
G01 X28.2521 Y14.0813
G01 X28.2576 Y14.0882
G01 X28.2637 Y14.0947
G01 X28.2724 Y14.1026
G01 X28.2794 Y14.1079
G01 X28.2894 Y14.1142
G01 X28.2999 Y14.1195
G01 X28.5607 Y14.2275
G01 X28.7967 Y14.4087
G01 X28.9779 Y14.6447
G01 X29.0917 Y14.9196
G01 X29.1306 Y15.2146
G01 X29.0917 Y15.5096
G01 X28.9779 Y15.7845
G01 X28.7967 Y16.0205
G01 X28.5607 Y16.2017
G01 X28.3026 Y16.3085
G01 X28.2894 Y16.3150
G01 X28.2794 Y16.3213
G01 X28.2701 Y16.3285
G01 X28.2596 Y16.3388
G01 X28.2521 Y16.3479
G01 X28.2441 Y16.3602
G01 X28.2376 Y16.3735
G01 X28.2337 Y16.3846
G01 X28.2303 Y16.3989
G01 X28.2286 Y16.4135
G01 X28.2285 Y16.5498
G01 X28.2288 Y16.5586
G01 X28.2298 Y16.5674
G01 X28.2314 Y16.5761
G01 X28.2337 Y16.5846
G01 X28.2376 Y16.5957
G01 X28.2413 Y16.6038
G01 X28.2456 Y16.6115
G01 X28.2504 Y16.6189
G01 X28.2557 Y16.6259
G01 X28.2616 Y16.6326
G01 X28.2701 Y16.6407
G01 X28.2794 Y16.6479
G01 X28.2894 Y16.6542
G01 X28.2999 Y16.6595
G01 X28.5607 Y16.7675
G01 X28.7967 Y16.9487
G01 X28.9779 Y17.1847
G01 X29.0917 Y17.4596
G01 X29.1306 Y17.7546
G01 X29.0917 Y18.0496
G01 X28.9779 Y18.3245
G01 X28.7967 Y18.5605
G01 X28.5607 Y18.7417
G01 X28.3026 Y18.8485
G01 X28.2894 Y18.8550
G01 X28.2794 Y18.8613
G01 X28.2701 Y18.8685
G01 X28.2596 Y18.8788
G01 X28.2521 Y18.8879
G01 X28.2441 Y18.9002
G01 X28.2376 Y18.9135
G01 X28.2337 Y18.9246
G01 X28.2308 Y18.9360
G01 X28.2288 Y18.9506
G01 X28.2285 Y18.9594
G01 X28.2285 Y19.0898
G01 X28.2288 Y19.0986
G01 X28.2298 Y19.1074
G01 X28.2314 Y19.1161
G01 X28.2337 Y19.1246
G01 X28.2376 Y19.1357
G01 X28.2413 Y19.1438
G01 X28.2456 Y19.1515
G01 X28.2504 Y19.1589
G01 X28.2557 Y19.1659
G01 X28.2616 Y19.1726
G01 X28.2701 Y19.1807
G01 X28.2794 Y19.1879
G01 X28.2894 Y19.1942
G01 X28.2999 Y19.1995
G01 X28.5607 Y19.3075
G01 X28.7967 Y19.4887
G01 X28.9779 Y19.7247
G01 X29.0917 Y19.9996
G01 X29.1306 Y20.2946
G01 X29.0917 Y20.5896
G01 X28.9779 Y20.8645
G01 X28.7967 Y21.1005
G01 X28.5607 Y21.2817
G01 X28.3026 Y21.3885
G01 X28.2919 Y21.3936
G01 X28.2818 Y21.3996
G01 X28.2724 Y21.4066
G01 X28.2637 Y21.4145
G01 X28.2557 Y21.4233
G01 X28.2471 Y21.4352
G01 X28.2413 Y21.4454
G01 X28.2365 Y21.4562
G01 X28.2321 Y21.4702
G01 X28.2298 Y21.4818
G01 X28.2288 Y21.4906
G01 X28.2285 Y21.4994
G01 X28.2285 Y21.6298
G01 X28.2288 Y21.6386
G01 X28.2298 Y21.6474
G01 X28.2314 Y21.6561
G01 X28.2337 Y21.6646
G01 X28.2376 Y21.6757
G01 X28.2413 Y21.6838
G01 X28.2456 Y21.6915
G01 X28.2504 Y21.6989
G01 X28.2557 Y21.7059
G01 X28.2616 Y21.7126
G01 X28.2701 Y21.7207
G01 X28.2794 Y21.7279
G01 X28.2894 Y21.7342
G01 X28.2999 Y21.7395
G01 X28.5607 Y21.8475
G01 X28.7967 Y22.0287
G01 X28.9779 Y22.2647
G01 X29.0917 Y22.5396
G01 X29.1306 Y22.8346
G01 X29.0917 Y23.1296
G01 X28.9779 Y23.4045
G01 X28.7967 Y23.6405
G01 X28.5607 Y23.8217
G01 X28.2999 Y23.9297
G01 X28.2894 Y23.9350
G01 X28.2794 Y23.9413
G01 X28.2701 Y23.9485
G01 X28.2616 Y23.9566
G01 X28.2557 Y23.9633
G01 X28.2504 Y23.9703
G01 X28.2456 Y23.9777
G01 X28.2400 Y23.9881
G01 X28.2365 Y23.9962
G01 X28.2337 Y24.0046
G01 X28.2308 Y24.0160
G01 X28.2294 Y24.0247
G01 X28.2285 Y24.0394
G01 X28.2285 Y24.1698
G01 X28.2294 Y24.1845
G01 X28.2314 Y24.1961
G01 X28.2346 Y24.2074
G01 X28.2388 Y24.2184
G01 X28.2441 Y24.2290
G01 X28.2504 Y24.2389
G01 X28.2576 Y24.2482
G01 X28.2658 Y24.2567
G01 X28.2724 Y24.2626
G01 X28.2818 Y24.2696
G01 X28.2919 Y24.2756
G01 X28.3026 Y24.2807
G01 X28.5607 Y24.3875
G01 X28.7967 Y24.5687
G01 X28.9779 Y24.8047
G01 X29.0917 Y25.0796
G01 X29.1306 Y25.3746
G01 X29.0917 Y25.6696
G01 X28.9779 Y25.9445
G01 X28.7967 Y26.1805
G01 X28.5607 Y26.3617
G01 X28.2999 Y26.4697
G01 X28.2894 Y26.4750
G01 X28.2794 Y26.4813
G01 X28.2701 Y26.4885
G01 X28.2616 Y26.4966
G01 X28.2557 Y26.5033
G01 X28.2504 Y26.5103
G01 X28.2456 Y26.5177
G01 X28.2400 Y26.5281
G01 X28.2365 Y26.5362
G01 X28.2337 Y26.5446
G01 X28.2314 Y26.5531
G01 X28.2298 Y26.5618
G01 X28.2288 Y26.5706
G01 X28.2285 Y26.5794
G01 X28.2285 Y26.7098
G01 X28.2291 Y26.7216
G01 X28.2314 Y26.7361
G01 X28.2346 Y26.7474
G01 X28.2400 Y26.7611
G01 X28.2456 Y26.7715
G01 X28.2521 Y26.7813
G01 X28.2616 Y26.7926
G01 X28.2724 Y26.8026
G01 X28.2818 Y26.8096
G01 X28.2919 Y26.8156
G01 X28.3026 Y26.8207
G01 X28.5607 Y26.9275
G01 X28.7967 Y27.1087
G01 X28.9779 Y27.3447
G01 X29.0917 Y27.6196
G01 X29.1306 Y27.9146
G01 X29.0917 Y28.2096
G01 X28.9779 Y28.4845
G01 X28.7967 Y28.7205
G01 X28.5607 Y28.9017
G01 X28.2999 Y29.0097
G01 X28.2894 Y29.0150
G01 X28.2794 Y29.0213
G01 X28.2701 Y29.0285
G01 X28.2616 Y29.0366
G01 X28.2557 Y29.0433
G01 X28.2504 Y29.0503
G01 X28.2456 Y29.0577
G01 X28.2400 Y29.0681
G01 X28.2365 Y29.0762
G01 X28.2337 Y29.0846
G01 X28.2314 Y29.0931
G01 X28.2298 Y29.1018
G01 X28.2288 Y29.1106
G01 X28.2285 Y29.1194
G01 X28.2285 Y29.2498
G01 X28.2288 Y29.2586
G01 X28.2303 Y29.2703
G01 X28.2337 Y29.2846
G01 X28.2376 Y29.2957
G01 X28.2441 Y29.3090
G01 X28.2521 Y29.3213
G01 X28.2596 Y29.3304
G01 X28.2679 Y29.3387
G01 X28.2794 Y29.3479
G01 X28.2894 Y29.3542
G01 X28.3026 Y29.3607
G01 X28.5607 Y29.4675
G01 X28.7967 Y29.6487
G01 X28.9779 Y29.8847
G01 X29.0917 Y30.1596
G01 X29.1306 Y30.4546
G01 X29.0917 Y30.7496
G01 X28.9779 Y31.0245
G01 X28.7967 Y31.2605
G01 X28.5607 Y31.4417
G01 X28.2999 Y31.5497
G01 X28.2894 Y31.5550
G01 X28.2794 Y31.5613
G01 X28.2701 Y31.5685
G01 X28.2616 Y31.5766
G01 X28.2557 Y31.5833
G01 X28.2504 Y31.5903
G01 X28.2456 Y31.5977
G01 X28.2413 Y31.6054
G01 X28.2365 Y31.6162
G01 X28.2337 Y31.6246
G01 X28.2314 Y31.6331
G01 X28.2298 Y31.6418
G01 X28.2288 Y31.6506
G01 X28.2285 Y31.6594
G01 X28.2286 Y31.7957
G01 X28.2303 Y31.8103
G01 X28.2328 Y31.8218
G01 X28.2376 Y31.8357
G01 X28.2427 Y31.8464
G01 X28.2504 Y31.8589
G01 X28.2576 Y31.8682
G01 X28.2679 Y31.8787
G01 X28.2794 Y31.8879
G01 X28.2894 Y31.8942
G01 X28.3026 Y31.9007
G01 X28.5607 Y32.0075
G01 X28.7967 Y32.1887
G01 X28.9779 Y32.4247
G01 X29.0917 Y32.6996
G01 X29.1306 Y32.9946
G01 X29.0917 Y33.2896
G01 X28.9779 Y33.5645
G01 X28.7967 Y33.8005
G01 X28.5607 Y33.9817
G01 X28.2999 Y34.0897
G01 X28.2894 Y34.0950
G01 X28.2794 Y34.1013
G01 X28.2701 Y34.1085
G01 X28.2616 Y34.1166
G01 X28.2557 Y34.1233
G01 X28.2504 Y34.1303
G01 X28.2456 Y34.1377
G01 X28.2413 Y34.1454
G01 X28.2376 Y34.1535
G01 X28.2337 Y34.1646
G01 X28.2314 Y34.1731
G01 X28.2298 Y34.1818
G01 X28.2288 Y34.1906
G01 X28.2285 Y34.1994
G01 X28.2286 Y34.3357
G01 X28.2303 Y34.3503
G01 X28.2328 Y34.3618
G01 X28.2376 Y34.3757
G01 X28.2427 Y34.3864
G01 X28.2504 Y34.3989
G01 X28.2596 Y34.4104
G01 X28.2701 Y34.4207
G01 X28.2794 Y34.4279
G01 X28.2919 Y34.4356
G01 X28.3026 Y34.4407
G01 X28.5607 Y34.5475
G01 X28.7967 Y34.7287
G01 X28.9779 Y34.9647
G01 X29.0917 Y35.2396
G01 X29.1306 Y35.5346
G01 X29.0917 Y35.8296
G01 X28.9779 Y36.1045
G01 X28.7967 Y36.3405
G01 X28.5607 Y36.5217
G01 X28.2999 Y36.6297
G01 X28.2894 Y36.6350
G01 X28.2794 Y36.6413
G01 X28.2701 Y36.6485
G01 X28.2616 Y36.6566
G01 X28.2557 Y36.6633
G01 X28.2504 Y36.6703
G01 X28.2456 Y36.6777
G01 X28.2413 Y36.6854
G01 X28.2376 Y36.6935
G01 X28.2337 Y36.7046
G01 X28.2314 Y36.7131
G01 X28.2298 Y36.7218
G01 X28.2288 Y36.7306
G01 X28.2285 Y36.7394
G01 X28.2286 Y36.8757
G01 X28.2303 Y36.8903
G01 X28.2328 Y36.9018
G01 X28.2376 Y36.9157
G01 X28.2427 Y36.9264
G01 X28.2504 Y36.9389
G01 X28.2596 Y36.9504
G01 X28.2701 Y36.9607
G01 X28.2794 Y36.9679
G01 X28.2919 Y36.9756
G01 X28.3026 Y36.9807
G01 X28.5607 Y37.0875
G01 X28.7967 Y37.2687
G01 X28.9779 Y37.5047
G01 X29.0917 Y37.7796
G01 X29.1306 Y38.0746
G01 X29.0917 Y38.3696
G01 X28.9779 Y38.6445
G01 X28.7967 Y38.8805
G01 X28.5607 Y39.0617
G01 X28.2999 Y39.1697
G01 X28.2894 Y39.1750
G01 X28.2794 Y39.1813
G01 X28.2701 Y39.1885
G01 X28.2616 Y39.1966
G01 X28.2557 Y39.2033
G01 X28.2504 Y39.2103
G01 X28.2456 Y39.2177
G01 X28.2413 Y39.2254
G01 X28.2376 Y39.2335
G01 X28.2337 Y39.2446
G01 X28.2314 Y39.2531
G01 X28.2298 Y39.2618
G01 X28.2288 Y39.2706
G01 X28.2285 Y39.2794
G01 X28.2285 Y39.4127
G01 X28.2298 Y39.4274
G01 X28.2328 Y39.4418
G01 X28.2376 Y39.4557
G01 X28.2427 Y39.4664
G01 X28.2504 Y39.4789
G01 X28.2596 Y39.4904
G01 X28.2701 Y39.5007
G01 X28.2794 Y39.5079
G01 X28.2919 Y39.5156
G01 X28.3026 Y39.5207
G01 X28.5607 Y39.6275
G01 X28.7967 Y39.8087
G01 X28.9779 Y40.0447
G01 X29.0917 Y40.3196
G01 X29.1306 Y40.6146
G01 X29.0917 Y40.9096
G01 X28.9779 Y41.1845
G01 X28.7967 Y41.4205
G01 X28.5607 Y41.6017
G01 X28.2858 Y41.7155
G01 X27.9908 Y41.7544
G01 X27.6958 Y41.7155
G01 X27.4209 Y41.6017
G01 X27.1849 Y41.4205
G01 X27.0037 Y41.1845
G01 X26.8899 Y40.9096
G01 X26.8510 Y40.6146
G01 X26.8899 Y40.3196
G01 X27.0037 Y40.0447
G01 X27.1849 Y39.8087
G01 X27.4209 Y39.6275
G01 X27.6790 Y39.5207
G01 X27.6922 Y39.5142
G01 X27.7022 Y39.5079
G01 X27.7137 Y39.4987
G01 X27.7240 Y39.4882
G01 X27.7329 Y39.4765
G01 X27.7389 Y39.4664
G01 X27.7451 Y39.4530
G01 X27.7495 Y39.4390
G01 X27.7522 Y39.4245
G01 X27.7531 Y39.4098
G01 X27.7531 Y39.2794
G01 X27.7528 Y39.2706
G01 X27.7513 Y39.2589
G01 X27.7495 Y39.2502
G01 X27.7470 Y39.2418
G01 X27.7440 Y39.2335
G01 X27.7389 Y39.2228
G01 X27.7345 Y39.2152
G01 X27.7295 Y39.2079
G01 X27.7240 Y39.2010
G01 X27.7179 Y39.1945
G01 X27.7092 Y39.1866
G01 X27.6998 Y39.1796
G01 X27.6897 Y39.1736
G01 X27.6817 Y39.1697
G01 X27.4209 Y39.0617
G01 X27.1849 Y38.8805
G01 X27.0037 Y38.6445
G01 X26.8899 Y38.3696
G01 X26.8510 Y38.0746
G01 X26.8899 Y37.7796
G01 X27.0037 Y37.5047
G01 X27.1849 Y37.2687
G01 X27.4209 Y37.0875
G01 X27.6790 Y36.9807
G01 X27.6922 Y36.9742
G01 X27.7022 Y36.9679
G01 X27.7115 Y36.9607
G01 X27.7220 Y36.9504
G01 X27.7295 Y36.9413
G01 X27.7375 Y36.9290
G01 X27.7440 Y36.9157
G01 X27.7479 Y36.9046
G01 X27.7513 Y36.8903
G01 X27.7530 Y36.8757
G01 X27.7531 Y36.7394
G01 X27.7528 Y36.7306
G01 X27.7518 Y36.7218
G01 X27.7502 Y36.7131
G01 X27.7479 Y36.7046
G01 X27.7440 Y36.6935
G01 X27.7403 Y36.6854
G01 X27.7360 Y36.6777
G01 X27.7312 Y36.6703
G01 X27.7259 Y36.6633
G01 X27.7200 Y36.6566
G01 X27.7115 Y36.6485
G01 X27.7022 Y36.6413
G01 X27.6922 Y36.6350
G01 X27.6817 Y36.6297
G01 X27.4209 Y36.5217
G01 X27.1849 Y36.3405
G01 X27.0037 Y36.1045
G01 X26.8899 Y35.8296
G01 X26.8510 Y35.5346
G01 X26.8899 Y35.2396
G01 X27.0037 Y34.9647
G01 X27.1849 Y34.7287
G01 X27.4209 Y34.5475
G01 X27.6790 Y34.4407
G01 X27.6897 Y34.4356
G01 X27.7022 Y34.4279
G01 X27.7115 Y34.4207
G01 X27.7220 Y34.4104
G01 X27.7295 Y34.4013
G01 X27.7375 Y34.3890
G01 X27.7440 Y34.3757
G01 X27.7479 Y34.3646
G01 X27.7508 Y34.3532
G01 X27.7528 Y34.3386
G01 X27.7531 Y34.3298
G01 X27.7531 Y34.1994
G01 X27.7528 Y34.1906
G01 X27.7518 Y34.1818
G01 X27.7502 Y34.1731
G01 X27.7479 Y34.1646
G01 X27.7440 Y34.1535
G01 X27.7403 Y34.1454
G01 X27.7360 Y34.1377
G01 X27.7312 Y34.1303
G01 X27.7259 Y34.1233
G01 X27.7200 Y34.1166
G01 X27.7115 Y34.1085
G01 X27.7022 Y34.1013
G01 X27.6922 Y34.0950
G01 X27.6817 Y34.0897
G01 X27.4209 Y33.9817
G01 X27.1849 Y33.8005
G01 X27.0037 Y33.5645
G01 X26.8899 Y33.2896
G01 X26.8510 Y32.9946
G01 X26.8899 Y32.6996
G01 X27.0037 Y32.4247
G01 X27.1849 Y32.1887
G01 X27.4209 Y32.0075
G01 X27.6790 Y31.9007
G01 X27.6897 Y31.8956
G01 X27.6998 Y31.8896
G01 X27.7092 Y31.8826
G01 X27.7179 Y31.8747
G01 X27.7259 Y31.8659
G01 X27.7345 Y31.8540
G01 X27.7403 Y31.8438
G01 X27.7451 Y31.8330
G01 X27.7495 Y31.8190
G01 X27.7518 Y31.8074
G01 X27.7528 Y31.7986
G01 X27.7531 Y31.7898
G01 X27.7531 Y31.6594
G01 X27.7528 Y31.6506
G01 X27.7518 Y31.6418
G01 X27.7502 Y31.6331
G01 X27.7479 Y31.6246
G01 X27.7440 Y31.6135
G01 X27.7403 Y31.6054
G01 X27.7360 Y31.5977
G01 X27.7312 Y31.5903
G01 X27.7259 Y31.5833
G01 X27.7200 Y31.5766
G01 X27.7115 Y31.5685
G01 X27.7022 Y31.5613
G01 X27.6922 Y31.5550
G01 X27.6817 Y31.5497
G01 X27.4209 Y31.4417
G01 X27.1849 Y31.2605
G01 X27.0037 Y31.0245
G01 X26.8899 Y30.7496
G01 X26.8510 Y30.4546
G01 X26.8899 Y30.1596
G01 X27.0037 Y29.8847
G01 X27.1849 Y29.6487
G01 X27.4209 Y29.4675
G01 X27.6817 Y29.3595
G01 X27.6922 Y29.3542
G01 X27.7022 Y29.3479
G01 X27.7115 Y29.3407
G01 X27.7200 Y29.3326
G01 X27.7259 Y29.3259
G01 X27.7329 Y29.3165
G01 X27.7375 Y29.3090
G01 X27.7416 Y29.3011
G01 X27.7451 Y29.2930
G01 X27.7479 Y29.2846
G01 X27.7508 Y29.2732
G01 X27.7522 Y29.2645
G01 X27.7531 Y29.2498
G01 X27.7531 Y29.1194
G01 X27.7522 Y29.1047
G01 X27.7502 Y29.0931
G01 X27.7470 Y29.0818
G01 X27.7428 Y29.0708
G01 X27.7375 Y29.0602
G01 X27.7312 Y29.0503
G01 X27.7240 Y29.0410
G01 X27.7158 Y29.0325
G01 X27.7092 Y29.0266
G01 X27.6998 Y29.0196
G01 X27.6897 Y29.0136
G01 X27.6790 Y29.0085
G01 X27.4209 Y28.9017
G01 X27.1849 Y28.7205
G01 X27.0037 Y28.4845
G01 X26.8899 Y28.2096
G01 X26.8510 Y27.9146
G01 X26.8899 Y27.6196
G01 X27.0037 Y27.3447
G01 X27.1849 Y27.1087
G01 X27.4209 Y26.9275
G01 X27.6817 Y26.8195
G01 X27.6922 Y26.8142
G01 X27.7022 Y26.8079
G01 X27.7115 Y26.8007
G01 X27.7200 Y26.7926
G01 X27.7259 Y26.7859
G01 X27.7312 Y26.7789
G01 X27.7360 Y26.7715
G01 X27.7403 Y26.7638
G01 X27.7451 Y26.7530
G01 X27.7479 Y26.7446
G01 X27.7502 Y26.7361
G01 X27.7518 Y26.7274
G01 X27.7528 Y26.7186
G01 X27.7531 Y26.7098
G01 X27.7531 Y26.5794
G01 X27.7525 Y26.5676
G01 X27.7502 Y26.5531
G01 X27.7470 Y26.5418
G01 X27.7416 Y26.5281
G01 X27.7360 Y26.5177
G01 X27.7295 Y26.5079
G01 X27.7200 Y26.4966
G01 X27.7092 Y26.4866
G01 X27.6998 Y26.4796
G01 X27.6897 Y26.4736
G01 X27.6790 Y26.4685
G01 X27.4209 Y26.3617
G01 X27.1849 Y26.1805
G01 X27.0037 Y25.9445
G01 X26.8899 Y25.6696
G01 X26.8510 Y25.3746
G01 X26.8899 Y25.0796
G01 X27.0037 Y24.8047
G01 X27.1849 Y24.5687
G01 X27.4209 Y24.3875
G01 X27.6817 Y24.2795
G01 X27.6922 Y24.2742
G01 X27.7022 Y24.2679
G01 X27.7115 Y24.2607
G01 X27.7200 Y24.2526
G01 X27.7259 Y24.2459
G01 X27.7312 Y24.2389
G01 X27.7375 Y24.2290
G01 X27.7416 Y24.2211
G01 X27.7451 Y24.2130
G01 X27.7479 Y24.2046
G01 X27.7502 Y24.1961
G01 X27.7518 Y24.1874
G01 X27.7528 Y24.1786
G01 X27.7531 Y24.1698
G01 X27.7531 Y24.0394
G01 X27.7528 Y24.0306
G01 X27.7513 Y24.0189
G01 X27.7479 Y24.0046
G01 X27.7440 Y23.9935
G01 X27.7375 Y23.9802
G01 X27.7295 Y23.9679
G01 X27.7220 Y23.9588
G01 X27.7137 Y23.9505
G01 X27.7022 Y23.9413
G01 X27.6922 Y23.9350
G01 X27.6790 Y23.9285
G01 X27.4209 Y23.8217
G01 X27.1849 Y23.6405
G01 X27.0037 Y23.4045
G01 X26.8899 Y23.1296
G01 X26.8510 Y22.8346
G01 X26.8899 Y22.5396
G01 X27.0037 Y22.2647
G01 X27.1849 Y22.0287
G01 X27.4209 Y21.8475
G01 X27.6817 Y21.7395
G01 X27.6922 Y21.7342
G01 X27.7022 Y21.7279
G01 X27.7115 Y21.7207
G01 X27.7200 Y21.7126
G01 X27.7259 Y21.7059
G01 X27.7312 Y21.6989
G01 X27.7375 Y21.6890
G01 X27.7416 Y21.6811
G01 X27.7451 Y21.6730
G01 X27.7479 Y21.6646
G01 X27.7502 Y21.6561
G01 X27.7518 Y21.6474
G01 X27.7528 Y21.6386
G01 X27.7531 Y21.6298
G01 X27.7530 Y21.4935
G01 X27.7513 Y21.4789
G01 X27.7488 Y21.4674
G01 X27.7440 Y21.4535
G01 X27.7389 Y21.4428
G01 X27.7312 Y21.4303
G01 X27.7240 Y21.4210
G01 X27.7137 Y21.4105
G01 X27.7022 Y21.4013
G01 X27.6922 Y21.3950
G01 X27.6790 Y21.3885
G01 X27.4209 Y21.2817
G01 X27.1849 Y21.1005
G01 X27.0037 Y20.8645
G01 X26.8899 Y20.5896
G01 X26.8510 Y20.2946
G01 X26.8899 Y19.9996
G01 X27.0037 Y19.7247
G01 X27.1849 Y19.4887
G01 X27.4209 Y19.3075
G01 X27.6817 Y19.1995
G01 X27.6922 Y19.1942
G01 X27.7022 Y19.1879
G01 X27.7115 Y19.1807
G01 X27.7200 Y19.1726
G01 X27.7259 Y19.1659
G01 X27.7312 Y19.1589
G01 X27.7375 Y19.1490
G01 X27.7416 Y19.1411
G01 X27.7451 Y19.1330
G01 X27.7479 Y19.1246
G01 X27.7502 Y19.1161
G01 X27.7518 Y19.1074
G01 X27.7528 Y19.0986
G01 X27.7531 Y19.0898
G01 X27.7530 Y18.9535
G01 X27.7513 Y18.9389
G01 X27.7488 Y18.9274
G01 X27.7440 Y18.9135
G01 X27.7389 Y18.9028
G01 X27.7312 Y18.8903
G01 X27.7240 Y18.8810
G01 X27.7137 Y18.8705
G01 X27.7022 Y18.8613
G01 X27.6922 Y18.8550
G01 X27.6790 Y18.8485
G01 X27.4209 Y18.7417
G01 X27.1849 Y18.5605
G01 X27.0037 Y18.3245
G01 X26.8899 Y18.0496
G01 X26.8510 Y17.7546
G01 X26.8899 Y17.4596
G01 X27.0037 Y17.1847
G01 X27.1849 Y16.9487
G01 X27.4209 Y16.7675
G01 X27.6817 Y16.6595
G01 X27.6922 Y16.6542
G01 X27.7022 Y16.6479
G01 X27.7115 Y16.6407
G01 X27.7200 Y16.6326
G01 X27.7259 Y16.6259
G01 X27.7312 Y16.6189
G01 X27.7375 Y16.6090
G01 X27.7416 Y16.6011
G01 X27.7451 Y16.5930
G01 X27.7479 Y16.5846
G01 X27.7502 Y16.5761
G01 X27.7518 Y16.5674
G01 X27.7528 Y16.5586
G01 X27.7531 Y16.5498
G01 X27.7530 Y16.4135
G01 X27.7513 Y16.3989
G01 X27.7488 Y16.3874
G01 X27.7440 Y16.3735
G01 X27.7389 Y16.3628
G01 X27.7312 Y16.3503
G01 X27.7240 Y16.3410
G01 X27.7137 Y16.3305
G01 X27.7022 Y16.3213
G01 X27.6922 Y16.3150
G01 X27.6790 Y16.3085
G01 X27.4209 Y16.2017
G01 X27.1849 Y16.0205
G01 X27.0037 Y15.7845
G01 X26.8899 Y15.5096
G01 X26.8510 Y15.2146
G01 X26.8899 Y14.9196
G01 X27.0037 Y14.6447
G01 X27.1849 Y14.4087
G01 X27.4209 Y14.2275
G01 X27.6817 Y14.1195
G01 X27.6922 Y14.1142
G01 X27.7022 Y14.1079
G01 X27.7115 Y14.1007
G01 X27.7200 Y14.0926
G01 X27.7259 Y14.0859
G01 X27.7329 Y14.0765
G01 X27.7375 Y14.0690
G01 X27.7416 Y14.0611
G01 X27.7451 Y14.0530
G01 X27.7479 Y14.0446
G01 X27.7502 Y14.0361
G01 X27.7518 Y14.0274
G01 X27.7528 Y14.0186
G01 X27.7531 Y14.0098
G01 X27.7531 Y13.8765
G01 X27.7522 Y13.8647
G01 X27.7495 Y13.8502
G01 X27.7451 Y13.8362
G01 X27.7389 Y13.8228
G01 X27.7312 Y13.8103
G01 X27.7220 Y13.7988
G01 X27.7137 Y13.7905
G01 X27.7022 Y13.7813
G01 X27.6922 Y13.7750
G01 X27.6790 Y13.7685
G01 X27.4209 Y13.6617
G01 X27.1849 Y13.4805
G01 X27.0037 Y13.2445
G01 X26.8899 Y12.9696
G01 X26.8510 Y12.6746
G01 X26.8899 Y12.3796
G01 X27.0037 Y12.1047
G01 X27.1849 Y11.8687
G01 X27.4209 Y11.6875
G01 X27.6958 Y11.5737
G01 X27.9908 Y11.5348
G00 Z2.0000
G00 X29.0007 Y12.6717
G01 F60.00
G01 Z-0.0700
G01 F120.00
G01 X29.0007 Y12.6775
G01 X28.9959 Y12.7736
G01 X28.9814 Y12.8716
G01 X28.9573 Y12.9678
G01 X28.9239 Y13.0611
G01 X28.8815 Y13.1507
G01 X28.8306 Y13.2357
G01 X28.7715 Y13.3153
G01 X28.7050 Y13.3888
G01 X28.6315 Y13.4553
G01 X28.5519 Y13.5144
G01 X28.4669 Y13.5653
G01 X28.3773 Y13.6077
G01 X28.2840 Y13.6411
G01 X28.1878 Y13.6652
G01 X28.0898 Y13.6797
G01 X27.9908 Y13.6846
G01 X27.8918 Y13.6797
G01 X27.7938 Y13.6652
G01 X27.6976 Y13.6411
G01 X27.6043 Y13.6077
G01 X27.5147 Y13.5653
G01 X27.4297 Y13.5144
G01 X27.3501 Y13.4553
G01 X27.2766 Y13.3888
G01 X27.2101 Y13.3153
G01 X27.1510 Y13.2357
G01 X27.1001 Y13.1507
G01 X27.0577 Y13.0611
G01 X27.0243 Y12.9678
G01 X27.0002 Y12.8716
G01 X26.9857 Y12.7736
G01 X26.9808 Y12.6746
G01 X26.9857 Y12.5756
G01 X27.0002 Y12.4776
G01 X27.0243 Y12.3814
G01 X27.0577 Y12.2881
G01 X27.1001 Y12.1985
G01 X27.1510 Y12.1135
G01 X27.2101 Y12.0339
G01 X27.2766 Y11.9604
G01 X27.3501 Y11.8939
G01 X27.4297 Y11.8348
G01 X27.5147 Y11.7839
G01 X27.6043 Y11.7415
G01 X27.6976 Y11.7081
G01 X27.7938 Y11.6840
G01 X27.8918 Y11.6695
G01 X27.9908 Y11.6646
G01 X28.0898 Y11.6695
G01 X28.1878 Y11.6840
G01 X28.2840 Y11.7081
G01 X28.3773 Y11.7415
G01 X28.4669 Y11.7839
G01 X28.5519 Y11.8348
G01 X28.6315 Y11.8939
G01 X28.7050 Y11.9604
G01 X28.7715 Y12.0339
G01 X28.8306 Y12.1135
G01 X28.8815 Y12.1985
G01 X28.9239 Y12.2881
G01 X28.9573 Y12.3814
G01 X28.9814 Y12.4776
G01 X28.9959 Y12.5756
G01 X29.0007 Y12.6717
G00 Z2.0000
G00 X29.0607 Y12.6687
G01 F60.00
G01 Z-0.0700
G01 F120.00
G01 X29.0607 Y12.6805
G01 X29.0556 Y12.7795
G01 X29.0402 Y12.8833
G01 X29.0147 Y12.9852
G01 X28.9794 Y13.0841
G01 X28.9345 Y13.1790
G01 X28.8805 Y13.2691
G01 X28.8179 Y13.3534
G01 X28.7474 Y13.4312
G01 X28.6696 Y13.5017
G01 X28.5853 Y13.5643
G01 X28.4952 Y13.6183
G01 X28.4003 Y13.6632
G01 X28.3014 Y13.6985
G01 X28.1995 Y13.7240
G01 X28.0957 Y13.7394
G01 X27.9908 Y13.7446
G01 X27.8859 Y13.7394
G01 X27.7821 Y13.7240
G01 X27.6802 Y13.6985
G01 X27.5813 Y13.6632
G01 X27.4864 Y13.6183
G01 X27.3963 Y13.5643
G01 X27.3120 Y13.5017
G01 X27.2342 Y13.4312
G01 X27.1637 Y13.3534
G01 X27.1011 Y13.2691
G01 X27.0471 Y13.1790
G01 X27.0022 Y13.0841
G01 X26.9669 Y12.9852
G01 X26.9414 Y12.8833
G01 X26.9260 Y12.7795
G01 X26.9208 Y12.6746
G01 X26.9260 Y12.5697
G01 X26.9414 Y12.4659
G01 X26.9669 Y12.3640
G01 X27.0022 Y12.2651
G01 X27.0471 Y12.1702
G01 X27.1011 Y12.0801
G01 X27.1637 Y11.9958
G01 X27.2342 Y11.9180
G01 X27.3120 Y11.8475
G01 X27.3963 Y11.7849
G01 X27.4864 Y11.7309
G01 X27.5813 Y11.6860
G01 X27.6802 Y11.6507
G01 X27.7821 Y11.6252
G01 X27.8859 Y11.6098
G01 X27.9908 Y11.6046
G01 X28.0957 Y11.6098
G01 X28.1995 Y11.6252
G01 X28.3014 Y11.6507
G01 X28.4003 Y11.6860
G01 X28.4952 Y11.7309
G01 X28.5853 Y11.7849
G01 X28.6696 Y11.8475
G01 X28.7474 Y11.9180
G01 X28.8179 Y11.9958
G01 X28.8805 Y12.0801
G01 X28.9345 Y12.1702
G01 X28.9794 Y12.2651
G01 X29.0147 Y12.3640
G01 X29.0402 Y12.4659
G01 X29.0556 Y12.5697
G01 X29.0607 Y12.6687
G00 Z2.0000
G00 X27.8722 Y13.8587
G01 F60.00
G01 Z-0.0700
G01 F120.00
G01 X27.8859 Y13.8597
G01 X27.9790 Y13.8643
G01 X27.9908 Y13.8646
G01 X28.0026 Y13.8643
G01 X28.0957 Y13.8597
G01 X28.1094 Y13.8587
G01 X28.1085 Y13.8794
G01 X28.1085 Y14.0098
G01 X28.1094 Y14.0305
G01 X28.0957 Y14.0295
G01 X28.0026 Y14.0249
G01 X27.9908 Y14.0246
G01 X27.9790 Y14.0249
G01 X27.8859 Y14.0295
G01 X27.8722 Y14.0305
G01 X27.8731 Y14.0098
G01 X27.8731 Y13.8794
G01 X27.8722 Y13.8587
G00 Z2.0000
G00 X27.7867 Y13.7855
G01 F60.00
G01 Z-0.0700
G01 F120.00
G01 X27.8800 Y13.7992
G01 X27.9908 Y13.8046
G01 X28.1016 Y13.7992
G01 X28.1949 Y13.7855
G01 X28.1898 Y13.7945
G01 X28.1839 Y13.8064
G01 X28.1790 Y13.8188
G01 X28.1750 Y13.8314
G01 X28.1720 Y13.8443
G01 X28.1699 Y13.8574
G01 X28.1690 Y13.8662
G01 X28.1685 Y13.8794
G01 X28.1685 Y14.0098
G01 X28.1690 Y14.0230
G01 X28.1699 Y14.0318
G01 X28.1720 Y14.0449
G01 X28.1739 Y14.0535
G01 X28.1790 Y14.0704
G01 X28.1858 Y14.0868
G01 X28.1898 Y14.0947
G01 X28.1949 Y14.1037
G01 X28.1016 Y14.0900
G01 X27.9908 Y14.0846
G01 X27.8800 Y14.0900
G01 X27.7867 Y14.1037
G01 X27.7918 Y14.0947
G01 X27.7977 Y14.0828
G01 X27.8026 Y14.0704
G01 X27.8066 Y14.0578
G01 X27.8096 Y14.0449
G01 X27.8117 Y14.0318
G01 X27.8126 Y14.0230
G01 X27.8131 Y14.0098
G01 X27.8131 Y13.8794
G01 X27.8126 Y13.8662
G01 X27.8117 Y13.8574
G01 X27.8096 Y13.8443
G01 X27.8077 Y13.8357
G01 X27.8026 Y13.8188
G01 X27.7958 Y13.8024
G01 X27.7918 Y13.7945
G01 X27.7867 Y13.7855
G00 Z2.0000
G00 X29.0007 Y15.2117
G01 F60.00
G01 Z-0.0700
G01 F120.00
G01 X29.0007 Y15.2175
G01 X28.9959 Y15.3136
G01 X28.9814 Y15.4116
G01 X28.9573 Y15.5078
G01 X28.9239 Y15.6011
G01 X28.8815 Y15.6907
G01 X28.8306 Y15.7757
G01 X28.7715 Y15.8553
G01 X28.7050 Y15.9288
G01 X28.6315 Y15.9953
G01 X28.5519 Y16.0544
G01 X28.4669 Y16.1053
G01 X28.3773 Y16.1477
G01 X28.2840 Y16.1811
G01 X28.1878 Y16.2052
G01 X28.0898 Y16.2197
G01 X27.9908 Y16.2246
G01 X27.8918 Y16.2197
G01 X27.7938 Y16.2052
G01 X27.6976 Y16.1811
G01 X27.6043 Y16.1477
G01 X27.5147 Y16.1053
G01 X27.4297 Y16.0544
G01 X27.3501 Y15.9953
G01 X27.2766 Y15.9288
G01 X27.2101 Y15.8553
G01 X27.1510 Y15.7757
G01 X27.1001 Y15.6907
G01 X27.0577 Y15.6011
G01 X27.0243 Y15.5078
G01 X27.0002 Y15.4116
G01 X26.9857 Y15.3136
G01 X26.9808 Y15.2146
G01 X26.9857 Y15.1156
G01 X27.0002 Y15.0176
G01 X27.0243 Y14.9214
G01 X27.0577 Y14.8281
G01 X27.1001 Y14.7385
G01 X27.1510 Y14.6535
G01 X27.2101 Y14.5739
G01 X27.2766 Y14.5004
G01 X27.3501 Y14.4339
G01 X27.4297 Y14.3748
G01 X27.5147 Y14.3239
G01 X27.6043 Y14.2815
G01 X27.6976 Y14.2481
G01 X27.7938 Y14.2240
G01 X27.8918 Y14.2095
G01 X27.9908 Y14.2046
G01 X28.0898 Y14.2095
G01 X28.1878 Y14.2240
G01 X28.2840 Y14.2481
G01 X28.3773 Y14.2815
G01 X28.4669 Y14.3239
G01 X28.5519 Y14.3748
G01 X28.6315 Y14.4339
G01 X28.7050 Y14.5004
G01 X28.7715 Y14.5739
G01 X28.8306 Y14.6535
G01 X28.8815 Y14.7385
G01 X28.9239 Y14.8281
G01 X28.9573 Y14.9214
G01 X28.9814 Y15.0176
G01 X28.9959 Y15.1156
G01 X29.0007 Y15.2117
G00 Z2.0000
G00 X29.0607 Y15.2087
G01 F60.00
G01 Z-0.0700
G01 F120.00
G01 X29.0607 Y15.2205
G01 X29.0556 Y15.3195
G01 X29.0402 Y15.4233
G01 X29.0147 Y15.5252
G01 X28.9794 Y15.6241
G01 X28.9345 Y15.7190
G01 X28.8805 Y15.8091
G01 X28.8179 Y15.8934
G01 X28.7474 Y15.9712
G01 X28.6696 Y16.0417
G01 X28.5853 Y16.1043
G01 X28.4952 Y16.1583
G01 X28.4003 Y16.2032
G01 X28.3014 Y16.2385
G01 X28.1995 Y16.2640
G01 X28.0957 Y16.2794
G01 X27.9908 Y16.2846
G01 X27.8859 Y16.2794
G01 X27.7821 Y16.2640
G01 X27.6802 Y16.2385
G01 X27.5813 Y16.2032
G01 X27.4864 Y16.1583
G01 X27.3963 Y16.1043
G01 X27.3120 Y16.0417
G01 X27.2342 Y15.9712
G01 X27.1637 Y15.8934
G01 X27.1011 Y15.8091
G01 X27.0471 Y15.7190
G01 X27.0022 Y15.6241
G01 X26.9669 Y15.5252
G01 X26.9414 Y15.4233
G01 X26.9260 Y15.3195
G01 X26.9208 Y15.2146
G01 X26.9260 Y15.1097
G01 X26.9414 Y15.0059
G01 X26.9669 Y14.9040
G01 X27.0022 Y14.8051
G01 X27.0471 Y14.7102
G01 X27.1011 Y14.6201
G01 X27.1637 Y14.5358
G01 X27.2342 Y14.4580
G01 X27.3120 Y14.3875
G01 X27.3963 Y14.3249
G01 X27.4864 Y14.2709
G01 X27.5813 Y14.2260
G01 X27.6802 Y14.1907
G01 X27.7821 Y14.1652
G01 X27.8859 Y14.1498
G01 X27.9908 Y14.1446
G01 X28.0957 Y14.1498
G01 X28.1995 Y14.1652
G01 X28.3014 Y14.1907
G01 X28.4003 Y14.2260
G01 X28.4952 Y14.2709
G01 X28.5853 Y14.3249
G01 X28.6696 Y14.3875
G01 X28.7474 Y14.4580
G01 X28.8179 Y14.5358
G01 X28.8805 Y14.6201
G01 X28.9345 Y14.7102
G01 X28.9794 Y14.8051
G01 X29.0147 Y14.9040
G01 X29.0402 Y15.0059
G01 X29.0556 Y15.1097
G01 X29.0607 Y15.2087
G00 Z2.0000
G00 X28.1094 Y16.5705
G01 F60.00
G01 Z-0.0700
G01 F120.00
G01 X28.0957 Y16.5695
G01 X28.0026 Y16.5649
G01 X27.9908 Y16.5646
G01 X27.9790 Y16.5649
G01 X27.8859 Y16.5695
G01 X27.8722 Y16.5705
G01 X27.8731 Y16.5498
G01 X27.8731 Y16.4194
G01 X27.8722 Y16.3987
G01 X27.8859 Y16.3997
G01 X27.9790 Y16.4043
G01 X27.9908 Y16.4046
G01 X28.0026 Y16.4043
G01 X28.0957 Y16.3997
G01 X28.1094 Y16.3987
G01 X28.1085 Y16.4194
G01 X28.1085 Y16.5498
G01 X28.1094 Y16.5705
G00 Z2.0000
G00 X28.1949 Y16.6437
G01 F60.00
G01 Z-0.0700
G01 F120.00
G01 X28.1016 Y16.6300
G01 X27.9908 Y16.6246
G01 X27.8800 Y16.6300
G01 X27.7867 Y16.6437
G01 X27.7918 Y16.6347
G01 X27.7977 Y16.6228
G01 X27.8026 Y16.6104
G01 X27.8066 Y16.5978
G01 X27.8096 Y16.5849
G01 X27.8117 Y16.5718
G01 X27.8126 Y16.5630
G01 X27.8131 Y16.5498
G01 X27.8131 Y16.4194
G01 X27.8126 Y16.4062
G01 X27.8117 Y16.3974
G01 X27.8104 Y16.3886
G01 X27.8077 Y16.3757
G01 X27.8026 Y16.3588
G01 X27.7958 Y16.3424
G01 X27.7918 Y16.3345
G01 X27.7867 Y16.3255
G01 X27.8800 Y16.3392
G01 X27.9908 Y16.3446
G01 X28.1016 Y16.3392
G01 X28.1949 Y16.3255
G01 X28.1898 Y16.3345
G01 X28.1839 Y16.3464
G01 X28.1790 Y16.3588
G01 X28.1750 Y16.3714
G01 X28.1720 Y16.3843
G01 X28.1699 Y16.3974
G01 X28.1690 Y16.4062
G01 X28.1685 Y16.4194
G01 X28.1685 Y16.5498
G01 X28.1690 Y16.5630
G01 X28.1699 Y16.5718
G01 X28.1720 Y16.5849
G01 X28.1739 Y16.5935
G01 X28.1790 Y16.6104
G01 X28.1858 Y16.6268
G01 X28.1898 Y16.6347
G01 X28.1949 Y16.6437
G00 Z2.0000
G00 X29.0007 Y17.7517
G01 F60.00
G01 Z-0.0700
G01 F120.00
G01 X29.0007 Y17.7575
G01 X28.9959 Y17.8536
G01 X28.9814 Y17.9516
G01 X28.9573 Y18.0478
G01 X28.9239 Y18.1411
G01 X28.8815 Y18.2307
G01 X28.8306 Y18.3157
G01 X28.7715 Y18.3953
G01 X28.7050 Y18.4688
G01 X28.6315 Y18.5353
G01 X28.5519 Y18.5944
G01 X28.4669 Y18.6453
G01 X28.3773 Y18.6877
G01 X28.2840 Y18.7211
G01 X28.1878 Y18.7452
G01 X28.0898 Y18.7597
G01 X27.9908 Y18.7646
G01 X27.8918 Y18.7597
G01 X27.7938 Y18.7452
G01 X27.6976 Y18.7211
G01 X27.6043 Y18.6877
G01 X27.5147 Y18.6453
G01 X27.4297 Y18.5944
G01 X27.3501 Y18.5353
G01 X27.2766 Y18.4688
G01 X27.2101 Y18.3953
G01 X27.1510 Y18.3157
G01 X27.1001 Y18.2307
G01 X27.0577 Y18.1411
G01 X27.0243 Y18.0478
G01 X27.0002 Y17.9516
G01 X26.9857 Y17.8536
G01 X26.9808 Y17.7546
G01 X26.9857 Y17.6556
G01 X27.0002 Y17.5576
G01 X27.0243 Y17.4614
G01 X27.0577 Y17.3681
G01 X27.1001 Y17.2785
G01 X27.1510 Y17.1935
G01 X27.2101 Y17.1139
G01 X27.2766 Y17.0404
G01 X27.3501 Y16.9739
G01 X27.4297 Y16.9148
G01 X27.5147 Y16.8639
G01 X27.6043 Y16.8215
G01 X27.6976 Y16.7881
G01 X27.7938 Y16.7640
G01 X27.8918 Y16.7495
G01 X27.9908 Y16.7446
G01 X28.0898 Y16.7495
G01 X28.1878 Y16.7640
G01 X28.2840 Y16.7881
G01 X28.3773 Y16.8215
G01 X28.4669 Y16.8639
G01 X28.5519 Y16.9148
G01 X28.6315 Y16.9739
G01 X28.7050 Y17.0404
G01 X28.7715 Y17.1139
G01 X28.8306 Y17.1935
G01 X28.8815 Y17.2785
G01 X28.9239 Y17.3681
G01 X28.9573 Y17.4614
G01 X28.9814 Y17.5576
G01 X28.9959 Y17.6556
G01 X29.0007 Y17.7517
G00 Z2.0000
G00 X29.0607 Y17.7487
G01 F60.00
G01 Z-0.0700
G01 F120.00
G01 X29.0607 Y17.7605
G01 X29.0556 Y17.8595
G01 X29.0402 Y17.9633
G01 X29.0147 Y18.0652
G01 X28.9794 Y18.1641
G01 X28.9345 Y18.2590
G01 X28.8805 Y18.3491
G01 X28.8179 Y18.4334
G01 X28.7474 Y18.5112
G01 X28.6696 Y18.5817
G01 X28.5853 Y18.6443
G01 X28.4952 Y18.6983
G01 X28.4003 Y18.7432
G01 X28.3014 Y18.7785
G01 X28.1995 Y18.8040
G01 X28.0957 Y18.8194
G01 X27.9908 Y18.8246
G01 X27.8859 Y18.8194
G01 X27.7821 Y18.8040
G01 X27.6802 Y18.7785
G01 X27.5813 Y18.7432
G01 X27.4864 Y18.6983
G01 X27.3963 Y18.6443
G01 X27.3120 Y18.5817
G01 X27.2342 Y18.5112
G01 X27.1637 Y18.4334
G01 X27.1011 Y18.3491
G01 X27.0471 Y18.2590
G01 X27.0022 Y18.1641
G01 X26.9669 Y18.0652
G01 X26.9414 Y17.9633
G01 X26.9260 Y17.8595
G01 X26.9208 Y17.7546
G01 X26.9260 Y17.6497
G01 X26.9414 Y17.5459
G01 X26.9669 Y17.4440
G01 X27.0022 Y17.3451
G01 X27.0471 Y17.2502
G01 X27.1011 Y17.1601
G01 X27.1637 Y17.0758
G01 X27.2342 Y16.9980
G01 X27.3120 Y16.9275
G01 X27.3963 Y16.8649
G01 X27.4864 Y16.8109
G01 X27.5813 Y16.7660
G01 X27.6802 Y16.7307
G01 X27.7821 Y16.7052
G01 X27.8859 Y16.6898
G01 X27.9908 Y16.6846
G01 X28.0957 Y16.6898
G01 X28.1995 Y16.7052
G01 X28.3014 Y16.7307
G01 X28.4003 Y16.7660
G01 X28.4952 Y16.8109
G01 X28.5853 Y16.8649
G01 X28.6696 Y16.9275
G01 X28.7474 Y16.9980
G01 X28.8179 Y17.0758
G01 X28.8805 Y17.1601
G01 X28.9345 Y17.2502
G01 X28.9794 Y17.3451
G01 X29.0147 Y17.4440
G01 X29.0402 Y17.5459
G01 X29.0556 Y17.6497
G01 X29.0607 Y17.7487
G00 Z2.0000
G00 X27.8722 Y18.9387
G01 F60.00
G01 Z-0.0700
G01 F120.00
G01 X27.8859 Y18.9397
G01 X27.9790 Y18.9443
G01 X27.9908 Y18.9446
G01 X28.0026 Y18.9443
G01 X28.0957 Y18.9397
G01 X28.1094 Y18.9387
G01 X28.1085 Y18.9594
G01 X28.1085 Y19.0898
G01 X28.1094 Y19.1105
G01 X28.0957 Y19.1095
G01 X28.0026 Y19.1049
G01 X27.9908 Y19.1046
G01 X27.9790 Y19.1049
G01 X27.8859 Y19.1095
G01 X27.8722 Y19.1105
G01 X27.8731 Y19.0898
G01 X27.8731 Y18.9594
G01 X27.8722 Y18.9387
G00 Z2.0000
G00 X27.7867 Y18.8655
G01 F60.00
G01 Z-0.0700
G01 F120.00
G01 X27.8800 Y18.8792
G01 X27.9908 Y18.8846
G01 X28.1016 Y18.8792
G01 X28.1949 Y18.8655
G01 X28.1898 Y18.8745
G01 X28.1839 Y18.8864
G01 X28.1790 Y18.8988
G01 X28.1750 Y18.9114
G01 X28.1720 Y18.9243
G01 X28.1699 Y18.9374
G01 X28.1690 Y18.9462
G01 X28.1685 Y18.9594
G01 X28.1685 Y19.0898
G01 X28.1690 Y19.1030
G01 X28.1699 Y19.1118
G01 X28.1720 Y19.1249
G01 X28.1739 Y19.1335
G01 X28.1790 Y19.1504
G01 X28.1858 Y19.1668
G01 X28.1898 Y19.1747
G01 X28.1949 Y19.1837
G01 X28.1016 Y19.1700
G01 X27.9908 Y19.1646
G01 X27.8800 Y19.1700
G01 X27.7867 Y19.1837
G01 X27.7918 Y19.1747
G01 X27.7977 Y19.1628
G01 X27.8026 Y19.1504
G01 X27.8066 Y19.1378
G01 X27.8096 Y19.1249
G01 X27.8117 Y19.1118
G01 X27.8126 Y19.1030
G01 X27.8131 Y19.0898
G01 X27.8131 Y18.9594
G01 X27.8126 Y18.9462
G01 X27.8117 Y18.9374
G01 X27.8104 Y18.9286
G01 X27.8077 Y18.9157
G01 X27.8026 Y18.8988
G01 X27.7958 Y18.8824
G01 X27.7918 Y18.8745
G01 X27.7867 Y18.8655
G00 Z2.0000
G00 X29.0007 Y20.2917
G01 F60.00
G01 Z-0.0700
G01 F120.00
G01 X29.0007 Y20.2975
G01 X28.9959 Y20.3936
G01 X28.9814 Y20.4916
G01 X28.9573 Y20.5878
G01 X28.9239 Y20.6811
G01 X28.8815 Y20.7707
G01 X28.8306 Y20.8557
G01 X28.7715 Y20.9353
G01 X28.7050 Y21.0088
G01 X28.6315 Y21.0753
G01 X28.5519 Y21.1344
G01 X28.4669 Y21.1853
G01 X28.3773 Y21.2277
G01 X28.2840 Y21.2611
G01 X28.1878 Y21.2852
G01 X28.0898 Y21.2997
G01 X27.9908 Y21.3046
G01 X27.8918 Y21.2997
G01 X27.7938 Y21.2852
G01 X27.6976 Y21.2611
G01 X27.6043 Y21.2277
G01 X27.5147 Y21.1853
G01 X27.4297 Y21.1344
G01 X27.3501 Y21.0753
G01 X27.2766 Y21.0088
G01 X27.2101 Y20.9353
G01 X27.1510 Y20.8557
G01 X27.1001 Y20.7707
G01 X27.0577 Y20.6811
G01 X27.0243 Y20.5878
G01 X27.0002 Y20.4916
G01 X26.9857 Y20.3936
G01 X26.9808 Y20.2946
G01 X26.9857 Y20.1956
G01 X27.0002 Y20.0976
G01 X27.0243 Y20.0014
G01 X27.0577 Y19.9081
G01 X27.1001 Y19.8185
G01 X27.1510 Y19.7335
G01 X27.2101 Y19.6539
G01 X27.2766 Y19.5804
G01 X27.3501 Y19.5139
G01 X27.4297 Y19.4548
G01 X27.5147 Y19.4039
G01 X27.6043 Y19.3615
G01 X27.6976 Y19.3281
G01 X27.7938 Y19.3040
G01 X27.8918 Y19.2895
G01 X27.9908 Y19.2846
G01 X28.0898 Y19.2895
G01 X28.1878 Y19.3040
G01 X28.2840 Y19.3281
G01 X28.3773 Y19.3615
G01 X28.4669 Y19.4039
G01 X28.5519 Y19.4548
G01 X28.6315 Y19.5139
G01 X28.7050 Y19.5804
G01 X28.7715 Y19.6539
G01 X28.8306 Y19.7335
G01 X28.8815 Y19.8185
G01 X28.9239 Y19.9081
G01 X28.9573 Y20.0014
G01 X28.9814 Y20.0976
G01 X28.9959 Y20.1956
G01 X29.0007 Y20.2917
G00 Z2.0000
G00 X29.0607 Y20.2887
G01 F60.00
G01 Z-0.0700
G01 F120.00
G01 X29.0607 Y20.3005
G01 X29.0556 Y20.3995
G01 X29.0402 Y20.5033
G01 X29.0147 Y20.6052
G01 X28.9794 Y20.7041
G01 X28.9345 Y20.7990
G01 X28.8805 Y20.8891
G01 X28.8179 Y20.9734
G01 X28.7474 Y21.0512
G01 X28.6696 Y21.1217
G01 X28.5853 Y21.1843
G01 X28.4952 Y21.2383
G01 X28.4003 Y21.2832
G01 X28.3014 Y21.3185
G01 X28.1995 Y21.3440
G01 X28.0957 Y21.3594
G01 X27.9908 Y21.3646
G01 X27.8859 Y21.3594
G01 X27.7821 Y21.3440
G01 X27.6802 Y21.3185
G01 X27.5813 Y21.2832
G01 X27.4864 Y21.2383
G01 X27.3963 Y21.1843
G01 X27.3120 Y21.1217
G01 X27.2342 Y21.0512
G01 X27.1637 Y20.9734
G01 X27.1011 Y20.8891
G01 X27.0471 Y20.7990
G01 X27.0022 Y20.7041
G01 X26.9669 Y20.6052
G01 X26.9414 Y20.5033
G01 X26.9260 Y20.3995
G01 X26.9208 Y20.2946
G01 X26.9260 Y20.1897
G01 X26.9414 Y20.0859
G01 X26.9669 Y19.9840
G01 X27.0022 Y19.8851
G01 X27.0471 Y19.7902
G01 X27.1011 Y19.7001
G01 X27.1637 Y19.6158
G01 X27.2342 Y19.5380
G01 X27.3120 Y19.4675
G01 X27.3963 Y19.4049
G01 X27.4864 Y19.3509
G01 X27.5813 Y19.3060
G01 X27.6802 Y19.2707
G01 X27.7821 Y19.2452
G01 X27.8859 Y19.2298
G01 X27.9908 Y19.2246
G01 X28.0957 Y19.2298
G01 X28.1995 Y19.2452
G01 X28.3014 Y19.2707
G01 X28.4003 Y19.3060
G01 X28.4952 Y19.3509
G01 X28.5853 Y19.4049
G01 X28.6696 Y19.4675
G01 X28.7474 Y19.5380
G01 X28.8179 Y19.6158
G01 X28.8805 Y19.7001
G01 X28.9345 Y19.7902
G01 X28.9794 Y19.8851
G01 X29.0147 Y19.9840
G01 X29.0402 Y20.0859
G01 X29.0556 Y20.1897
G01 X29.0607 Y20.2887
G00 Z2.0000
G00 X28.1949 Y21.7237
G01 F60.00
G01 Z-0.0700
G01 F120.00
G01 X28.1016 Y21.7100
G01 X27.9908 Y21.7046
G01 X27.8800 Y21.7100
G01 X27.7867 Y21.7237
G01 X27.7918 Y21.7147
G01 X27.7977 Y21.7028
G01 X27.8026 Y21.6904
G01 X27.8066 Y21.6778
G01 X27.8096 Y21.6649
G01 X27.8117 Y21.6518
G01 X27.8126 Y21.6430
G01 X27.8131 Y21.6298
G01 X27.8131 Y21.4994
G01 X27.8126 Y21.4862
G01 X27.8117 Y21.4774
G01 X27.8104 Y21.4686
G01 X27.8077 Y21.4557
G01 X27.8026 Y21.4388
G01 X27.7958 Y21.4224
G01 X27.7918 Y21.4145
G01 X27.7867 Y21.4055
G01 X27.8800 Y21.4192
G01 X27.9908 Y21.4246
G01 X28.1016 Y21.4192
G01 X28.1949 Y21.4055
G01 X28.1898 Y21.4145
G01 X28.1839 Y21.4264
G01 X28.1790 Y21.4388
G01 X28.1750 Y21.4514
G01 X28.1720 Y21.4643
G01 X28.1699 Y21.4774
G01 X28.1690 Y21.4862
G01 X28.1685 Y21.4994
G01 X28.1685 Y21.6298
G01 X28.1690 Y21.6430
G01 X28.1699 Y21.6518
G01 X28.1720 Y21.6649
G01 X28.1739 Y21.6735
G01 X28.1790 Y21.6904
G01 X28.1858 Y21.7068
G01 X28.1898 Y21.7147
G01 X28.1949 Y21.7237
G00 Z2.0000
G00 X27.8722 Y21.4787
G01 F60.00
G01 Z-0.0700
G01 F120.00
G01 X27.8859 Y21.4797
G01 X27.9790 Y21.4843
G01 X27.9908 Y21.4846
G01 X28.0026 Y21.4843
G01 X28.0957 Y21.4797
G01 X28.1094 Y21.4787
G01 X28.1085 Y21.4994
G01 X28.1085 Y21.6298
G01 X28.1094 Y21.6505
G01 X28.0957 Y21.6495
G01 X28.0026 Y21.6449
G01 X27.9908 Y21.6446
G01 X27.9790 Y21.6449
G01 X27.8859 Y21.6495
G01 X27.8722 Y21.6505
G01 X27.8731 Y21.6298
G01 X27.8731 Y21.4994
G01 X27.8722 Y21.4787
G00 Z2.0000
G00 X29.0007 Y22.8317
G01 F60.00
G01 Z-0.0700
G01 F120.00
G01 X29.0007 Y22.8375
G01 X28.9959 Y22.9336
G01 X28.9814 Y23.0316
G01 X28.9573 Y23.1278
G01 X28.9239 Y23.2211
G01 X28.8815 Y23.3107
G01 X28.8306 Y23.3957
G01 X28.7715 Y23.4753
G01 X28.7050 Y23.5488
G01 X28.6315 Y23.6153
G01 X28.5519 Y23.6744
G01 X28.4669 Y23.7253
G01 X28.3773 Y23.7677
G01 X28.2840 Y23.8011
G01 X28.1878 Y23.8252
G01 X28.0898 Y23.8397
G01 X27.9908 Y23.8446
G01 X27.8918 Y23.8397
G01 X27.7938 Y23.8252
G01 X27.6976 Y23.8011
G01 X27.6043 Y23.7677
G01 X27.5147 Y23.7253
G01 X27.4297 Y23.6744
G01 X27.3501 Y23.6153
G01 X27.2766 Y23.5488
G01 X27.2101 Y23.4753
G01 X27.1510 Y23.3957
G01 X27.1001 Y23.3107
G01 X27.0577 Y23.2211
G01 X27.0243 Y23.1278
G01 X27.0002 Y23.0316
G01 X26.9857 Y22.9336
G01 X26.9808 Y22.8346
G01 X26.9857 Y22.7356
G01 X27.0002 Y22.6376
G01 X27.0243 Y22.5414
G01 X27.0577 Y22.4481
G01 X27.1001 Y22.3585
G01 X27.1510 Y22.2735
G01 X27.2101 Y22.1939
G01 X27.2766 Y22.1204
G01 X27.3501 Y22.0539
G01 X27.4297 Y21.9948
G01 X27.5147 Y21.9439
G01 X27.6043 Y21.9015
G01 X27.6976 Y21.8681
G01 X27.7938 Y21.8440
G01 X27.8918 Y21.8295
G01 X27.9908 Y21.8246
G01 X28.0898 Y21.8295
G01 X28.1878 Y21.8440
G01 X28.2840 Y21.8681
G01 X28.3773 Y21.9015
G01 X28.4669 Y21.9439
G01 X28.5519 Y21.9948
G01 X28.6315 Y22.0539
G01 X28.7050 Y22.1204
G01 X28.7715 Y22.1939
G01 X28.8306 Y22.2735
G01 X28.8815 Y22.3585
G01 X28.9239 Y22.4481
G01 X28.9573 Y22.5414
G01 X28.9814 Y22.6376
G01 X28.9959 Y22.7356
G01 X29.0007 Y22.8317
G00 Z2.0000
G00 X29.0607 Y22.8287
G01 F60.00
G01 Z-0.0700
G01 F120.00
G01 X29.0607 Y22.8405
G01 X29.0556 Y22.9395
G01 X29.0402 Y23.0433
G01 X29.0147 Y23.1452
G01 X28.9794 Y23.2441
G01 X28.9345 Y23.3390
G01 X28.8805 Y23.4291
G01 X28.8179 Y23.5134
G01 X28.7474 Y23.5912
G01 X28.6696 Y23.6617
G01 X28.5853 Y23.7243
G01 X28.4952 Y23.7783
G01 X28.4003 Y23.8232
G01 X28.3014 Y23.8585
G01 X28.1995 Y23.8840
G01 X28.0957 Y23.8994
G01 X27.9908 Y23.9046
G01 X27.8859 Y23.8994
G01 X27.7821 Y23.8840
G01 X27.6802 Y23.8585
G01 X27.5813 Y23.8232
G01 X27.4864 Y23.7783
G01 X27.3963 Y23.7243
G01 X27.3120 Y23.6617
G01 X27.2342 Y23.5912
G01 X27.1637 Y23.5134
G01 X27.1011 Y23.4291
G01 X27.0471 Y23.3390
G01 X27.0022 Y23.2441
G01 X26.9669 Y23.1452
G01 X26.9414 Y23.0433
G01 X26.9260 Y22.9395
G01 X26.9208 Y22.8346
G01 X26.9260 Y22.7297
G01 X26.9414 Y22.6259
G01 X26.9669 Y22.5240
G01 X27.0022 Y22.4251
G01 X27.0471 Y22.3302
G01 X27.1011 Y22.2401
G01 X27.1637 Y22.1558
G01 X27.2342 Y22.0780
G01 X27.3120 Y22.0075
G01 X27.3963 Y21.9449
G01 X27.4864 Y21.8909
G01 X27.5813 Y21.8460
G01 X27.6802 Y21.8107
G01 X27.7821 Y21.7852
G01 X27.8859 Y21.7698
G01 X27.9908 Y21.7646
G01 X28.0957 Y21.7698
G01 X28.1995 Y21.7852
G01 X28.3014 Y21.8107
G01 X28.4003 Y21.8460
G01 X28.4952 Y21.8909
G01 X28.5853 Y21.9449
G01 X28.6696 Y22.0075
G01 X28.7474 Y22.0780
G01 X28.8179 Y22.1558
G01 X28.8805 Y22.2401
G01 X28.9345 Y22.3302
G01 X28.9794 Y22.4251
G01 X29.0147 Y22.5240
G01 X29.0402 Y22.6259
G01 X29.0556 Y22.7297
G01 X29.0607 Y22.8287
G00 Z2.0000
G00 X28.1094 Y24.1905
G01 F60.00
G01 Z-0.0700
G01 F120.00
G01 X28.0957 Y24.1895
G01 X28.0026 Y24.1849
G01 X27.9908 Y24.1846
G01 X27.9790 Y24.1849
G01 X27.8859 Y24.1895
G01 X27.8722 Y24.1905
G01 X27.8731 Y24.1698
G01 X27.8731 Y24.0394
G01 X27.8722 Y24.0187
G01 X27.8859 Y24.0197
G01 X27.9790 Y24.0243
G01 X27.9908 Y24.0246
G01 X28.0026 Y24.0243
G01 X28.0957 Y24.0197
G01 X28.1094 Y24.0187
G01 X28.1085 Y24.0394
G01 X28.1085 Y24.1698
G01 X28.1094 Y24.1905
G00 Z2.0000
G00 X27.7867 Y23.9455
G01 F60.00
G01 Z-0.0700
G01 F120.00
G01 X27.8800 Y23.9592
G01 X27.9908 Y23.9646
G01 X28.1016 Y23.9592
G01 X28.1949 Y23.9455
G01 X28.1898 Y23.9545
G01 X28.1839 Y23.9664
G01 X28.1790 Y23.9788
G01 X28.1750 Y23.9914
G01 X28.1720 Y24.0043
G01 X28.1699 Y24.0174
G01 X28.1690 Y24.0262
G01 X28.1685 Y24.0394
G01 X28.1685 Y24.1698
G01 X28.1690 Y24.1830
G01 X28.1699 Y24.1918
G01 X28.1720 Y24.2049
G01 X28.1739 Y24.2135
G01 X28.1790 Y24.2304
G01 X28.1858 Y24.2468
G01 X28.1898 Y24.2547
G01 X28.1949 Y24.2637
G01 X28.1016 Y24.2500
G01 X27.9908 Y24.2446
G01 X27.8800 Y24.2500
G01 X27.7867 Y24.2637
G01 X27.7918 Y24.2547
G01 X27.7977 Y24.2428
G01 X27.8026 Y24.2304
G01 X27.8066 Y24.2178
G01 X27.8096 Y24.2049
G01 X27.8117 Y24.1918
G01 X27.8126 Y24.1830
G01 X27.8131 Y24.1698
G01 X27.8131 Y24.0394
G01 X27.8126 Y24.0262
G01 X27.8117 Y24.0174
G01 X27.8096 Y24.0043
G01 X27.8077 Y23.9957
G01 X27.8026 Y23.9788
G01 X27.7958 Y23.9624
G01 X27.7918 Y23.9545
G01 X27.7867 Y23.9455
G00 Z2.0000
G00 X29.0007 Y25.3717
G01 F60.00
G01 Z-0.0700
G01 F120.00
G01 X29.0007 Y25.3775
G01 X28.9959 Y25.4736
G01 X28.9814 Y25.5716
G01 X28.9573 Y25.6678
G01 X28.9239 Y25.7611
G01 X28.8815 Y25.8507
G01 X28.8306 Y25.9357
G01 X28.7715 Y26.0153
G01 X28.7050 Y26.0888
G01 X28.6315 Y26.1553
G01 X28.5519 Y26.2144
G01 X28.4669 Y26.2653
G01 X28.3773 Y26.3077
G01 X28.2840 Y26.3411
G01 X28.1878 Y26.3652
G01 X28.0898 Y26.3797
G01 X27.9908 Y26.3846
G01 X27.8918 Y26.3797
G01 X27.7938 Y26.3652
G01 X27.6976 Y26.3411
G01 X27.6043 Y26.3077
G01 X27.5147 Y26.2653
G01 X27.4297 Y26.2144
G01 X27.3501 Y26.1553
G01 X27.2766 Y26.0888
G01 X27.2101 Y26.0153
G01 X27.1510 Y25.9357
G01 X27.1001 Y25.8507
G01 X27.0577 Y25.7611
G01 X27.0243 Y25.6678
G01 X27.0002 Y25.5716
G01 X26.9857 Y25.4736
G01 X26.9808 Y25.3746
G01 X26.9857 Y25.2756
G01 X27.0002 Y25.1776
G01 X27.0243 Y25.0814
G01 X27.0577 Y24.9881
G01 X27.1001 Y24.8985
G01 X27.1510 Y24.8135
G01 X27.2101 Y24.7339
G01 X27.2766 Y24.6604
G01 X27.3501 Y24.5939
G01 X27.4297 Y24.5348
G01 X27.5147 Y24.4839
G01 X27.6043 Y24.4415
G01 X27.6976 Y24.4081
G01 X27.7938 Y24.3840
G01 X27.8918 Y24.3695
G01 X27.9908 Y24.3646
G01 X28.0898 Y24.3695
G01 X28.1878 Y24.3840
G01 X28.2840 Y24.4081
G01 X28.3773 Y24.4415
G01 X28.4669 Y24.4839
G01 X28.5519 Y24.5348
G01 X28.6315 Y24.5939
G01 X28.7050 Y24.6604
G01 X28.7715 Y24.7339
G01 X28.8306 Y24.8135
G01 X28.8815 Y24.8985
G01 X28.9239 Y24.9881
G01 X28.9573 Y25.0814
G01 X28.9814 Y25.1776
G01 X28.9959 Y25.2756
G01 X29.0007 Y25.3717
G00 Z2.0000
G00 X29.0607 Y25.3687
G01 F60.00
G01 Z-0.0700
G01 F120.00
G01 X29.0607 Y25.3805
G01 X29.0556 Y25.4795
G01 X29.0402 Y25.5833
G01 X29.0147 Y25.6852
G01 X28.9794 Y25.7841
G01 X28.9345 Y25.8790
G01 X28.8805 Y25.9691
G01 X28.8179 Y26.0534
G01 X28.7474 Y26.1312
G01 X28.6696 Y26.2017
G01 X28.5853 Y26.2643
G01 X28.4952 Y26.3183
G01 X28.4003 Y26.3632
G01 X28.3014 Y26.3985
G01 X28.1995 Y26.4240
G01 X28.0957 Y26.4394
G01 X27.9908 Y26.4446
G01 X27.8859 Y26.4394
G01 X27.7821 Y26.4240
G01 X27.6802 Y26.3985
G01 X27.5813 Y26.3632
G01 X27.4864 Y26.3183
G01 X27.3963 Y26.2643
G01 X27.3120 Y26.2017
G01 X27.2342 Y26.1312
G01 X27.1637 Y26.0534
G01 X27.1011 Y25.9691
G01 X27.0471 Y25.8790
G01 X27.0022 Y25.7841
G01 X26.9669 Y25.6852
G01 X26.9414 Y25.5833
G01 X26.9260 Y25.4795
G01 X26.9208 Y25.3746
G01 X26.9260 Y25.2697
G01 X26.9414 Y25.1659
G01 X26.9669 Y25.0640
G01 X27.0022 Y24.9651
G01 X27.0471 Y24.8702
G01 X27.1011 Y24.7801
G01 X27.1637 Y24.6958
G01 X27.2342 Y24.6180
G01 X27.3120 Y24.5475
G01 X27.3963 Y24.4849
G01 X27.4864 Y24.4309
G01 X27.5813 Y24.3860
G01 X27.6802 Y24.3507
G01 X27.7821 Y24.3252
G01 X27.8859 Y24.3098
G01 X27.9908 Y24.3046
G01 X28.0957 Y24.3098
G01 X28.1995 Y24.3252
G01 X28.3014 Y24.3507
G01 X28.4003 Y24.3860
G01 X28.4952 Y24.4309
G01 X28.5853 Y24.4849
G01 X28.6696 Y24.5475
G01 X28.7474 Y24.6180
G01 X28.8179 Y24.6958
G01 X28.8805 Y24.7801
G01 X28.9345 Y24.8702
G01 X28.9794 Y24.9651
G01 X29.0147 Y25.0640
G01 X29.0402 Y25.1659
G01 X29.0556 Y25.2697
G01 X29.0607 Y25.3687
G00 Z2.0000
G00 X27.8722 Y26.5587
G01 F60.00
G01 Z-0.0700
G01 F120.00
G01 X27.8859 Y26.5597
G01 X27.9790 Y26.5643
G01 X27.9908 Y26.5646
G01 X28.0026 Y26.5643
G01 X28.0957 Y26.5597
G01 X28.1094 Y26.5587
G01 X28.1085 Y26.5794
G01 X28.1085 Y26.7098
G01 X28.1094 Y26.7305
G01 X28.0957 Y26.7295
G01 X28.0026 Y26.7249
G01 X27.9908 Y26.7246
G01 X27.9790 Y26.7249
G01 X27.8859 Y26.7295
G01 X27.8722 Y26.7305
G01 X27.8731 Y26.7098
G01 X27.8731 Y26.5794
G01 X27.8722 Y26.5587
G00 Z2.0000
G00 X27.7867 Y26.4855
G01 F60.00
G01 Z-0.0700
G01 F120.00
G01 X27.8800 Y26.4992
G01 X27.9908 Y26.5046
G01 X28.1016 Y26.4992
G01 X28.1949 Y26.4855
G01 X28.1898 Y26.4945
G01 X28.1839 Y26.5064
G01 X28.1790 Y26.5188
G01 X28.1750 Y26.5314
G01 X28.1720 Y26.5443
G01 X28.1699 Y26.5574
G01 X28.1690 Y26.5662
G01 X28.1685 Y26.5794
G01 X28.1685 Y26.7098
G01 X28.1690 Y26.7230
G01 X28.1699 Y26.7318
G01 X28.1720 Y26.7449
G01 X28.1739 Y26.7535
G01 X28.1790 Y26.7704
G01 X28.1858 Y26.7868
G01 X28.1898 Y26.7947
G01 X28.1949 Y26.8037
G01 X28.1016 Y26.7900
G01 X27.9908 Y26.7846
G01 X27.8800 Y26.7900
G01 X27.7867 Y26.8037
G01 X27.7918 Y26.7947
G01 X27.7977 Y26.7828
G01 X27.8026 Y26.7704
G01 X27.8066 Y26.7578
G01 X27.8096 Y26.7449
G01 X27.8117 Y26.7318
G01 X27.8126 Y26.7230
G01 X27.8131 Y26.7098
G01 X27.8131 Y26.5794
G01 X27.8126 Y26.5662
G01 X27.8117 Y26.5574
G01 X27.8096 Y26.5443
G01 X27.8077 Y26.5357
G01 X27.8026 Y26.5188
G01 X27.7958 Y26.5024
G01 X27.7918 Y26.4945
G01 X27.7867 Y26.4855
G00 Z2.0000
G00 X29.0007 Y27.9117
G01 F60.00
G01 Z-0.0700
G01 F120.00
G01 X29.0007 Y27.9175
G01 X28.9959 Y28.0136
G01 X28.9814 Y28.1116
G01 X28.9573 Y28.2078
G01 X28.9239 Y28.3011
G01 X28.8815 Y28.3907
G01 X28.8306 Y28.4757
G01 X28.7715 Y28.5553
G01 X28.7050 Y28.6288
G01 X28.6315 Y28.6953
G01 X28.5519 Y28.7544
G01 X28.4669 Y28.8053
G01 X28.3773 Y28.8477
G01 X28.2840 Y28.8811
G01 X28.1878 Y28.9052
G01 X28.0898 Y28.9197
G01 X27.9908 Y28.9246
G01 X27.8918 Y28.9197
G01 X27.7938 Y28.9052
G01 X27.6976 Y28.8811
G01 X27.6043 Y28.8477
G01 X27.5147 Y28.8053
G01 X27.4297 Y28.7544
G01 X27.3501 Y28.6953
G01 X27.2766 Y28.6288
G01 X27.2101 Y28.5553
G01 X27.1510 Y28.4757
G01 X27.1001 Y28.3907
G01 X27.0577 Y28.3011
G01 X27.0243 Y28.2078
G01 X27.0002 Y28.1116
G01 X26.9857 Y28.0136
G01 X26.9808 Y27.9146
G01 X26.9857 Y27.8156
G01 X27.0002 Y27.7176
G01 X27.0243 Y27.6214
G01 X27.0577 Y27.5281
G01 X27.1001 Y27.4385
G01 X27.1510 Y27.3535
G01 X27.2101 Y27.2739
G01 X27.2766 Y27.2004
G01 X27.3501 Y27.1339
G01 X27.4297 Y27.0748
G01 X27.5147 Y27.0239
G01 X27.6043 Y26.9815
G01 X27.6976 Y26.9481
G01 X27.7938 Y26.9240
G01 X27.8918 Y26.9095
G01 X27.9908 Y26.9046
G01 X28.0898 Y26.9095
G01 X28.1878 Y26.9240
G01 X28.2840 Y26.9481
G01 X28.3773 Y26.9815
G01 X28.4669 Y27.0239
G01 X28.5519 Y27.0748
G01 X28.6315 Y27.1339
G01 X28.7050 Y27.2004
G01 X28.7715 Y27.2739
G01 X28.8306 Y27.3535
G01 X28.8815 Y27.4385
G01 X28.9239 Y27.5281
G01 X28.9573 Y27.6214
G01 X28.9814 Y27.7176
G01 X28.9959 Y27.8156
G01 X29.0007 Y27.9117
G00 Z2.0000
G00 X29.0607 Y27.9087
G01 F60.00
G01 Z-0.0700
G01 F120.00
G01 X29.0607 Y27.9205
G01 X29.0556 Y28.0195
G01 X29.0402 Y28.1233
G01 X29.0147 Y28.2252
G01 X28.9794 Y28.3241
G01 X28.9345 Y28.4190
G01 X28.8805 Y28.5091
G01 X28.8179 Y28.5934
G01 X28.7474 Y28.6712
G01 X28.6696 Y28.7417
G01 X28.5853 Y28.8043
G01 X28.4952 Y28.8583
G01 X28.4003 Y28.9032
G01 X28.3014 Y28.9385
G01 X28.1995 Y28.9640
G01 X28.0957 Y28.9794
G01 X27.9908 Y28.9846
G01 X27.8859 Y28.9794
G01 X27.7821 Y28.9640
G01 X27.6802 Y28.9385
G01 X27.5813 Y28.9032
G01 X27.4864 Y28.8583
G01 X27.3963 Y28.8043
G01 X27.3120 Y28.7417
G01 X27.2342 Y28.6712
G01 X27.1637 Y28.5934
G01 X27.1011 Y28.5091
G01 X27.0471 Y28.4190
G01 X27.0022 Y28.3241
G01 X26.9669 Y28.2252
G01 X26.9414 Y28.1233
G01 X26.9260 Y28.0195
G01 X26.9208 Y27.9146
G01 X26.9260 Y27.8097
G01 X26.9414 Y27.7059
G01 X26.9669 Y27.6040
G01 X27.0022 Y27.5051
G01 X27.0471 Y27.4102
G01 X27.1011 Y27.3201
G01 X27.1637 Y27.2358
G01 X27.2342 Y27.1580
G01 X27.3120 Y27.0875
G01 X27.3963 Y27.0249
G01 X27.4864 Y26.9709
G01 X27.5813 Y26.9260
G01 X27.6802 Y26.8907
G01 X27.7821 Y26.8652
G01 X27.8859 Y26.8498
G01 X27.9908 Y26.8446
G01 X28.0957 Y26.8498
G01 X28.1995 Y26.8652
G01 X28.3014 Y26.8907
G01 X28.4003 Y26.9260
G01 X28.4952 Y26.9709
G01 X28.5853 Y27.0249
G01 X28.6696 Y27.0875
G01 X28.7474 Y27.1580
G01 X28.8179 Y27.2358
G01 X28.8805 Y27.3201
G01 X28.9345 Y27.4102
G01 X28.9794 Y27.5051
G01 X29.0147 Y27.6040
G01 X29.0402 Y27.7059
G01 X29.0556 Y27.8097
G01 X29.0607 Y27.9087
G00 Z2.0000
G00 X27.8722 Y29.0987
G01 F60.00
G01 Z-0.0700
G01 F120.00
G01 X27.8859 Y29.0997
G01 X27.9790 Y29.1043
G01 X27.9908 Y29.1046
G01 X28.0026 Y29.1043
G01 X28.0957 Y29.0997
G01 X28.1094 Y29.0987
G01 X28.1085 Y29.1194
G01 X28.1085 Y29.2498
G01 X28.1094 Y29.2705
G01 X28.0957 Y29.2695
G01 X28.0026 Y29.2649
G01 X27.9908 Y29.2646
G01 X27.9790 Y29.2649
G01 X27.8859 Y29.2695
G01 X27.8722 Y29.2705
G01 X27.8731 Y29.2498
G01 X27.8731 Y29.1194
G01 X27.8722 Y29.0987
G00 Z2.0000
G00 X27.7867 Y29.0255
G01 F60.00
G01 Z-0.0700
G01 F120.00
G01 X27.8800 Y29.0392
G01 X27.9908 Y29.0446
G01 X28.1016 Y29.0392
G01 X28.1949 Y29.0255
G01 X28.1898 Y29.0345
G01 X28.1839 Y29.0464
G01 X28.1790 Y29.0588
G01 X28.1750 Y29.0714
G01 X28.1720 Y29.0843
G01 X28.1699 Y29.0974
G01 X28.1690 Y29.1062
G01 X28.1685 Y29.1194
G01 X28.1685 Y29.2498
G01 X28.1690 Y29.2630
G01 X28.1699 Y29.2718
G01 X28.1720 Y29.2849
G01 X28.1739 Y29.2935
G01 X28.1790 Y29.3104
G01 X28.1858 Y29.3268
G01 X28.1898 Y29.3347
G01 X28.1949 Y29.3437
G01 X28.1016 Y29.3300
G01 X27.9908 Y29.3246
G01 X27.8800 Y29.3300
G01 X27.7867 Y29.3437
G01 X27.7918 Y29.3347
G01 X27.7977 Y29.3228
G01 X27.8026 Y29.3104
G01 X27.8066 Y29.2978
G01 X27.8096 Y29.2849
G01 X27.8117 Y29.2718
G01 X27.8126 Y29.2630
G01 X27.8131 Y29.2498
G01 X27.8131 Y29.1194
G01 X27.8126 Y29.1062
G01 X27.8117 Y29.0974
G01 X27.8096 Y29.0843
G01 X27.8077 Y29.0757
G01 X27.8026 Y29.0588
G01 X27.7958 Y29.0424
G01 X27.7918 Y29.0345
G01 X27.7867 Y29.0255
G00 Z2.0000
G00 X29.0007 Y30.4517
G01 F60.00
G01 Z-0.0700
G01 F120.00
G01 X29.0007 Y30.4575
G01 X28.9959 Y30.5536
G01 X28.9814 Y30.6516
G01 X28.9573 Y30.7478
G01 X28.9239 Y30.8411
G01 X28.8815 Y30.9307
G01 X28.8306 Y31.0157
G01 X28.7715 Y31.0953
G01 X28.7050 Y31.1688
G01 X28.6315 Y31.2353
G01 X28.5519 Y31.2944
G01 X28.4669 Y31.3453
G01 X28.3773 Y31.3877
G01 X28.2840 Y31.4211
G01 X28.1878 Y31.4452
G01 X28.0898 Y31.4597
G01 X27.9908 Y31.4646
G01 X27.8918 Y31.4597
G01 X27.7938 Y31.4452
G01 X27.6976 Y31.4211
G01 X27.6043 Y31.3877
G01 X27.5147 Y31.3453
G01 X27.4297 Y31.2944
G01 X27.3501 Y31.2353
G01 X27.2766 Y31.1688
G01 X27.2101 Y31.0953
G01 X27.1510 Y31.0157
G01 X27.1001 Y30.9307
G01 X27.0577 Y30.8411
G01 X27.0243 Y30.7478
G01 X27.0002 Y30.6516
G01 X26.9857 Y30.5536
G01 X26.9808 Y30.4546
G01 X26.9857 Y30.3556
G01 X27.0002 Y30.2576
G01 X27.0243 Y30.1614
G01 X27.0577 Y30.0681
G01 X27.1001 Y29.9785
G01 X27.1510 Y29.8935
G01 X27.2101 Y29.8139
G01 X27.2766 Y29.7404
G01 X27.3501 Y29.6739
G01 X27.4297 Y29.6148
G01 X27.5147 Y29.5639
G01 X27.6043 Y29.5215
G01 X27.6976 Y29.4881
G01 X27.7938 Y29.4640
G01 X27.8918 Y29.4495
G01 X27.9908 Y29.4446
G01 X28.0898 Y29.4495
G01 X28.1878 Y29.4640
G01 X28.2840 Y29.4881
G01 X28.3773 Y29.5215
G01 X28.4669 Y29.5639
G01 X28.5519 Y29.6148
G01 X28.6315 Y29.6739
G01 X28.7050 Y29.7404
G01 X28.7715 Y29.8139
G01 X28.8306 Y29.8935
G01 X28.8815 Y29.9785
G01 X28.9239 Y30.0681
G01 X28.9573 Y30.1614
G01 X28.9814 Y30.2576
G01 X28.9959 Y30.3556
G01 X29.0007 Y30.4517
G00 Z2.0000
G00 X29.0607 Y30.4487
G01 F60.00
G01 Z-0.0700
G01 F120.00
G01 X29.0607 Y30.4605
G01 X29.0556 Y30.5595
G01 X29.0402 Y30.6633
G01 X29.0147 Y30.7652
G01 X28.9794 Y30.8641
G01 X28.9345 Y30.9590
G01 X28.8805 Y31.0491
G01 X28.8179 Y31.1334
G01 X28.7474 Y31.2112
G01 X28.6696 Y31.2817
G01 X28.5853 Y31.3443
G01 X28.4952 Y31.3983
G01 X28.4003 Y31.4432
G01 X28.3014 Y31.4785
G01 X28.1995 Y31.5040
G01 X28.0957 Y31.5194
G01 X27.9908 Y31.5246
G01 X27.8859 Y31.5194
G01 X27.7821 Y31.5040
G01 X27.6802 Y31.4785
G01 X27.5813 Y31.4432
G01 X27.4864 Y31.3983
G01 X27.3963 Y31.3443
G01 X27.3120 Y31.2817
G01 X27.2342 Y31.2112
G01 X27.1637 Y31.1334
G01 X27.1011 Y31.0491
G01 X27.0471 Y30.9590
G01 X27.0022 Y30.8641
G01 X26.9669 Y30.7652
G01 X26.9414 Y30.6633
G01 X26.9260 Y30.5595
G01 X26.9208 Y30.4546
G01 X26.9260 Y30.3497
G01 X26.9414 Y30.2459
G01 X26.9669 Y30.1440
G01 X27.0022 Y30.0451
G01 X27.0471 Y29.9502
G01 X27.1011 Y29.8601
G01 X27.1637 Y29.7758
G01 X27.2342 Y29.6980
G01 X27.3120 Y29.6275
G01 X27.3963 Y29.5649
G01 X27.4864 Y29.5109
G01 X27.5813 Y29.4660
G01 X27.6802 Y29.4307
G01 X27.7821 Y29.4052
G01 X27.8859 Y29.3898
G01 X27.9908 Y29.3846
G01 X28.0957 Y29.3898
G01 X28.1995 Y29.4052
G01 X28.3014 Y29.4307
G01 X28.4003 Y29.4660
G01 X28.4952 Y29.5109
G01 X28.5853 Y29.5649
G01 X28.6696 Y29.6275
G01 X28.7474 Y29.6980
G01 X28.8179 Y29.7758
G01 X28.8805 Y29.8601
G01 X28.9345 Y29.9502
G01 X28.9794 Y30.0451
G01 X29.0147 Y30.1440
G01 X29.0402 Y30.2459
G01 X29.0556 Y30.3497
G01 X29.0607 Y30.4487
G00 Z2.0000
G00 X27.8722 Y31.6387
G01 F60.00
G01 Z-0.0700
G01 F120.00
G01 X27.8859 Y31.6397
G01 X27.9790 Y31.6443
G01 X27.9908 Y31.6446
G01 X28.0026 Y31.6443
G01 X28.0957 Y31.6397
G01 X28.1094 Y31.6387
G01 X28.1085 Y31.6594
G01 X28.1085 Y31.7898
G01 X28.1094 Y31.8105
G01 X28.0957 Y31.8095
G01 X28.0026 Y31.8049
G01 X27.9908 Y31.8046
G01 X27.9790 Y31.8049
G01 X27.8859 Y31.8095
G01 X27.8722 Y31.8105
G01 X27.8731 Y31.7898
G01 X27.8731 Y31.6594
G01 X27.8722 Y31.6387
G00 Z2.0000
G00 X27.7867 Y31.5655
G01 F60.00
G01 Z-0.0700
G01 F120.00
G01 X27.8800 Y31.5792
G01 X27.9908 Y31.5846
G01 X28.1016 Y31.5792
G01 X28.1949 Y31.5655
G01 X28.1898 Y31.5745
G01 X28.1839 Y31.5864
G01 X28.1790 Y31.5988
G01 X28.1750 Y31.6114
G01 X28.1720 Y31.6243
G01 X28.1699 Y31.6374
G01 X28.1690 Y31.6462
G01 X28.1685 Y31.6594
G01 X28.1685 Y31.7898
G01 X28.1690 Y31.8030
G01 X28.1699 Y31.8118
G01 X28.1720 Y31.8249
G01 X28.1739 Y31.8335
G01 X28.1790 Y31.8504
G01 X28.1858 Y31.8668
G01 X28.1898 Y31.8747
G01 X28.1949 Y31.8837
G01 X28.1016 Y31.8700
G01 X27.9908 Y31.8646
G01 X27.8800 Y31.8700
G01 X27.7867 Y31.8837
G01 X27.7918 Y31.8747
G01 X27.7977 Y31.8628
G01 X27.8026 Y31.8504
G01 X27.8066 Y31.8378
G01 X27.8096 Y31.8249
G01 X27.8117 Y31.8118
G01 X27.8126 Y31.8030
G01 X27.8131 Y31.7898
G01 X27.8131 Y31.6594
G01 X27.8126 Y31.6462
G01 X27.8117 Y31.6374
G01 X27.8104 Y31.6286
G01 X27.8077 Y31.6157
G01 X27.8026 Y31.5988
G01 X27.7958 Y31.5824
G01 X27.7918 Y31.5745
G01 X27.7867 Y31.5655
G00 Z2.0000
G00 X29.0007 Y32.9917
G01 F60.00
G01 Z-0.0700
G01 F120.00
G01 X29.0007 Y32.9975
G01 X28.9959 Y33.0936
G01 X28.9814 Y33.1916
G01 X28.9573 Y33.2878
G01 X28.9239 Y33.3811
G01 X28.8815 Y33.4707
G01 X28.8306 Y33.5557
G01 X28.7715 Y33.6353
G01 X28.7050 Y33.7088
G01 X28.6315 Y33.7753
G01 X28.5519 Y33.8344
G01 X28.4669 Y33.8853
G01 X28.3773 Y33.9277
G01 X28.2840 Y33.9611
G01 X28.1878 Y33.9852
G01 X28.0898 Y33.9997
G01 X27.9908 Y34.0046
G01 X27.8918 Y33.9997
G01 X27.7938 Y33.9852
G01 X27.6976 Y33.9611
G01 X27.6043 Y33.9277
G01 X27.5147 Y33.8853
G01 X27.4297 Y33.8344
G01 X27.3501 Y33.7753
G01 X27.2766 Y33.7088
G01 X27.2101 Y33.6353
G01 X27.1510 Y33.5557
G01 X27.1001 Y33.4707
G01 X27.0577 Y33.3811
G01 X27.0243 Y33.2878
G01 X27.0002 Y33.1916
G01 X26.9857 Y33.0936
G01 X26.9808 Y32.9946
G01 X26.9857 Y32.8956
G01 X27.0002 Y32.7976
G01 X27.0243 Y32.7014
G01 X27.0577 Y32.6081
G01 X27.1001 Y32.5185
G01 X27.1510 Y32.4335
G01 X27.2101 Y32.3539
G01 X27.2766 Y32.2804
G01 X27.3501 Y32.2139
G01 X27.4297 Y32.1548
G01 X27.5147 Y32.1039
G01 X27.6043 Y32.0615
G01 X27.6976 Y32.0281
G01 X27.7938 Y32.0040
G01 X27.8918 Y31.9895
G01 X27.9908 Y31.9846
G01 X28.0898 Y31.9895
G01 X28.1878 Y32.0040
G01 X28.2840 Y32.0281
G01 X28.3773 Y32.0615
G01 X28.4669 Y32.1039
G01 X28.5519 Y32.1548
G01 X28.6315 Y32.2139
G01 X28.7050 Y32.2804
G01 X28.7715 Y32.3539
G01 X28.8306 Y32.4335
G01 X28.8815 Y32.5185
G01 X28.9239 Y32.6081
G01 X28.9573 Y32.7014
G01 X28.9814 Y32.7976
G01 X28.9959 Y32.8956
G01 X29.0007 Y32.9917
G00 Z2.0000
G00 X29.0607 Y32.9887
G01 F60.00
G01 Z-0.0700
G01 F120.00
G01 X29.0607 Y33.0005
G01 X29.0556 Y33.0995
G01 X29.0402 Y33.2033
G01 X29.0147 Y33.3052
G01 X28.9794 Y33.4041
G01 X28.9345 Y33.4990
G01 X28.8805 Y33.5891
G01 X28.8179 Y33.6734
G01 X28.7474 Y33.7512
G01 X28.6696 Y33.8217
G01 X28.5853 Y33.8843
G01 X28.4952 Y33.9383
G01 X28.4003 Y33.9832
G01 X28.3014 Y34.0185
G01 X28.1995 Y34.0440
G01 X28.0957 Y34.0594
G01 X27.9908 Y34.0646
G01 X27.8859 Y34.0594
G01 X27.7821 Y34.0440
G01 X27.6802 Y34.0185
G01 X27.5813 Y33.9832
G01 X27.4864 Y33.9383
G01 X27.3963 Y33.8843
G01 X27.3120 Y33.8217
G01 X27.2342 Y33.7512
G01 X27.1637 Y33.6734
G01 X27.1011 Y33.5891
G01 X27.0471 Y33.4990
G01 X27.0022 Y33.4041
G01 X26.9669 Y33.3052
G01 X26.9414 Y33.2033
G01 X26.9260 Y33.0995
G01 X26.9208 Y32.9946
G01 X26.9260 Y32.8897
G01 X26.9414 Y32.7859
G01 X26.9669 Y32.6840
G01 X27.0022 Y32.5851
G01 X27.0471 Y32.4902
G01 X27.1011 Y32.4001
G01 X27.1637 Y32.3158
G01 X27.2342 Y32.2380
G01 X27.3120 Y32.1675
G01 X27.3963 Y32.1049
G01 X27.4864 Y32.0509
G01 X27.5813 Y32.0060
G01 X27.6802 Y31.9707
G01 X27.7821 Y31.9452
G01 X27.8859 Y31.9298
G01 X27.9908 Y31.9246
G01 X28.0957 Y31.9298
G01 X28.1995 Y31.9452
G01 X28.3014 Y31.9707
G01 X28.4003 Y32.0060
G01 X28.4952 Y32.0509
G01 X28.5853 Y32.1049
G01 X28.6696 Y32.1675
G01 X28.7474 Y32.2380
G01 X28.8179 Y32.3158
G01 X28.8805 Y32.4001
G01 X28.9345 Y32.4902
G01 X28.9794 Y32.5851
G01 X29.0147 Y32.6840
G01 X29.0402 Y32.7859
G01 X29.0556 Y32.8897
G01 X29.0607 Y32.9887
G00 Z2.0000
G00 X27.8722 Y34.1787
G01 F60.00
G01 Z-0.0700
G01 F120.00
G01 X27.8859 Y34.1797
G01 X27.9790 Y34.1843
G01 X27.9908 Y34.1846
G01 X28.0026 Y34.1843
G01 X28.0957 Y34.1797
G01 X28.1094 Y34.1787
G01 X28.1085 Y34.1994
G01 X28.1085 Y34.3298
G01 X28.1094 Y34.3505
G01 X28.0957 Y34.3495
G01 X28.0026 Y34.3449
G01 X27.9908 Y34.3446
G01 X27.9790 Y34.3449
G01 X27.8859 Y34.3495
G01 X27.8722 Y34.3505
G01 X27.8731 Y34.3298
G01 X27.8731 Y34.1994
G01 X27.8722 Y34.1787
G00 Z2.0000
G00 X27.7867 Y34.1055
G01 F60.00
G01 Z-0.0700
G01 F120.00
G01 X27.8800 Y34.1192
G01 X27.9908 Y34.1246
G01 X28.1016 Y34.1192
G01 X28.1949 Y34.1055
G01 X28.1898 Y34.1145
G01 X28.1839 Y34.1264
G01 X28.1790 Y34.1388
G01 X28.1750 Y34.1514
G01 X28.1720 Y34.1643
G01 X28.1699 Y34.1774
G01 X28.1690 Y34.1862
G01 X28.1685 Y34.1994
G01 X28.1685 Y34.3298
G01 X28.1690 Y34.3430
G01 X28.1699 Y34.3518
G01 X28.1712 Y34.3606
G01 X28.1739 Y34.3735
G01 X28.1790 Y34.3904
G01 X28.1858 Y34.4068
G01 X28.1898 Y34.4147
G01 X28.1949 Y34.4237
G01 X28.1016 Y34.4100
G01 X27.9908 Y34.4046
G01 X27.8800 Y34.4100
G01 X27.7867 Y34.4237
G01 X27.7918 Y34.4147
G01 X27.7977 Y34.4028
G01 X27.8026 Y34.3904
G01 X27.8066 Y34.3778
G01 X27.8096 Y34.3649
G01 X27.8117 Y34.3518
G01 X27.8126 Y34.3430
G01 X27.8131 Y34.3298
G01 X27.8131 Y34.1994
G01 X27.8126 Y34.1862
G01 X27.8117 Y34.1774
G01 X27.8104 Y34.1686
G01 X27.8077 Y34.1557
G01 X27.8026 Y34.1388
G01 X27.7958 Y34.1224
G01 X27.7918 Y34.1145
G01 X27.7867 Y34.1055
G00 Z2.0000
G00 X29.0007 Y35.5317
G01 F60.00
G01 Z-0.0700
G01 F120.00
G01 X29.0007 Y35.5375
G01 X28.9959 Y35.6336
G01 X28.9814 Y35.7316
G01 X28.9573 Y35.8278
G01 X28.9239 Y35.9211
G01 X28.8815 Y36.0107
G01 X28.8306 Y36.0957
G01 X28.7715 Y36.1753
G01 X28.7050 Y36.2488
G01 X28.6315 Y36.3153
G01 X28.5519 Y36.3744
G01 X28.4669 Y36.4253
G01 X28.3773 Y36.4677
G01 X28.2840 Y36.5011
G01 X28.1878 Y36.5252
G01 X28.0898 Y36.5397
G01 X27.9908 Y36.5446
G01 X27.8918 Y36.5397
G01 X27.7938 Y36.5252
G01 X27.6976 Y36.5011
G01 X27.6043 Y36.4677
G01 X27.5147 Y36.4253
G01 X27.4297 Y36.3744
G01 X27.3501 Y36.3153
G01 X27.2766 Y36.2488
G01 X27.2101 Y36.1753
G01 X27.1510 Y36.0957
G01 X27.1001 Y36.0107
G01 X27.0577 Y35.9211
G01 X27.0243 Y35.8278
G01 X27.0002 Y35.7316
G01 X26.9857 Y35.6336
G01 X26.9808 Y35.5346
G01 X26.9857 Y35.4356
G01 X27.0002 Y35.3376
G01 X27.0243 Y35.2414
G01 X27.0577 Y35.1481
G01 X27.1001 Y35.0585
G01 X27.1510 Y34.9735
G01 X27.2101 Y34.8939
G01 X27.2766 Y34.8204
G01 X27.3501 Y34.7539
G01 X27.4297 Y34.6948
G01 X27.5147 Y34.6439
G01 X27.6043 Y34.6015
G01 X27.6976 Y34.5681
G01 X27.7938 Y34.5440
G01 X27.8918 Y34.5295
G01 X27.9908 Y34.5246
G01 X28.0898 Y34.5295
G01 X28.1878 Y34.5440
G01 X28.2840 Y34.5681
G01 X28.3773 Y34.6015
G01 X28.4669 Y34.6439
G01 X28.5519 Y34.6948
G01 X28.6315 Y34.7539
G01 X28.7050 Y34.8204
G01 X28.7715 Y34.8939
G01 X28.8306 Y34.9735
G01 X28.8815 Y35.0585
G01 X28.9239 Y35.1481
G01 X28.9573 Y35.2414
G01 X28.9814 Y35.3376
G01 X28.9959 Y35.4356
G01 X29.0007 Y35.5317
G00 Z2.0000
G00 X29.0607 Y35.5287
G01 F60.00
G01 Z-0.0700
G01 F120.00
G01 X29.0607 Y35.5405
G01 X29.0556 Y35.6395
G01 X29.0402 Y35.7433
G01 X29.0147 Y35.8452
G01 X28.9794 Y35.9441
G01 X28.9345 Y36.0390
G01 X28.8805 Y36.1291
G01 X28.8179 Y36.2134
G01 X28.7474 Y36.2912
G01 X28.6696 Y36.3617
G01 X28.5853 Y36.4243
G01 X28.4952 Y36.4783
G01 X28.4003 Y36.5232
G01 X28.3014 Y36.5585
G01 X28.1995 Y36.5840
G01 X28.0957 Y36.5994
G01 X27.9908 Y36.6046
G01 X27.8859 Y36.5994
G01 X27.7821 Y36.5840
G01 X27.6802 Y36.5585
G01 X27.5813 Y36.5232
G01 X27.4864 Y36.4783
G01 X27.3963 Y36.4243
G01 X27.3120 Y36.3617
G01 X27.2342 Y36.2912
G01 X27.1637 Y36.2134
G01 X27.1011 Y36.1291
G01 X27.0471 Y36.0390
G01 X27.0022 Y35.9441
G01 X26.9669 Y35.8452
G01 X26.9414 Y35.7433
G01 X26.9260 Y35.6395
G01 X26.9208 Y35.5346
G01 X26.9260 Y35.4297
G01 X26.9414 Y35.3259
G01 X26.9669 Y35.2240
G01 X27.0022 Y35.1251
G01 X27.0471 Y35.0302
G01 X27.1011 Y34.9401
G01 X27.1637 Y34.8558
G01 X27.2342 Y34.7780
G01 X27.3120 Y34.7075
G01 X27.3963 Y34.6449
G01 X27.4864 Y34.5909
G01 X27.5813 Y34.5460
G01 X27.6802 Y34.5107
G01 X27.7821 Y34.4852
G01 X27.8859 Y34.4698
G01 X27.9908 Y34.4646
G01 X28.0957 Y34.4698
G01 X28.1995 Y34.4852
G01 X28.3014 Y34.5107
G01 X28.4003 Y34.5460
G01 X28.4952 Y34.5909
G01 X28.5853 Y34.6449
G01 X28.6696 Y34.7075
G01 X28.7474 Y34.7780
G01 X28.8179 Y34.8558
G01 X28.8805 Y34.9401
G01 X28.9345 Y35.0302
G01 X28.9794 Y35.1251
G01 X29.0147 Y35.2240
G01 X29.0402 Y35.3259
G01 X29.0556 Y35.4297
G01 X29.0607 Y35.5287
G00 Z2.0000
G00 X28.1094 Y36.8905
G01 F60.00
G01 Z-0.0700
G01 F120.00
G01 X28.0957 Y36.8895
G01 X28.0026 Y36.8849
G01 X27.9908 Y36.8846
G01 X27.9790 Y36.8849
G01 X27.8859 Y36.8895
G01 X27.8722 Y36.8905
G01 X27.8731 Y36.8698
G01 X27.8731 Y36.7394
G01 X27.8722 Y36.7187
G01 X27.8859 Y36.7197
G01 X27.9790 Y36.7243
G01 X27.9908 Y36.7246
G01 X28.0026 Y36.7243
G01 X28.0957 Y36.7197
G01 X28.1094 Y36.7187
G01 X28.1085 Y36.7394
G01 X28.1085 Y36.8698
G01 X28.1094 Y36.8905
G00 Z2.0000
G00 X28.1949 Y36.9637
G01 F60.00
G01 Z-0.0700
G01 F120.00
G01 X28.1016 Y36.9500
G01 X27.9908 Y36.9446
G01 X27.8800 Y36.9500
G01 X27.7867 Y36.9637
G01 X27.7918 Y36.9547
G01 X27.7977 Y36.9428
G01 X27.8026 Y36.9304
G01 X27.8066 Y36.9178
G01 X27.8096 Y36.9049
G01 X27.8117 Y36.8918
G01 X27.8126 Y36.8830
G01 X27.8131 Y36.8698
G01 X27.8131 Y36.7394
G01 X27.8126 Y36.7262
G01 X27.8117 Y36.7174
G01 X27.8104 Y36.7086
G01 X27.8077 Y36.6957
G01 X27.8026 Y36.6788
G01 X27.7958 Y36.6624
G01 X27.7918 Y36.6545
G01 X27.7867 Y36.6455
G01 X27.8800 Y36.6592
G01 X27.9908 Y36.6646
G01 X28.1016 Y36.6592
G01 X28.1949 Y36.6455
G01 X28.1898 Y36.6545
G01 X28.1839 Y36.6664
G01 X28.1790 Y36.6788
G01 X28.1750 Y36.6914
G01 X28.1720 Y36.7043
G01 X28.1699 Y36.7174
G01 X28.1690 Y36.7262
G01 X28.1685 Y36.7394
G01 X28.1685 Y36.8698
G01 X28.1690 Y36.8830
G01 X28.1699 Y36.8918
G01 X28.1720 Y36.9049
G01 X28.1739 Y36.9135
G01 X28.1790 Y36.9304
G01 X28.1858 Y36.9468
G01 X28.1898 Y36.9547
G01 X28.1949 Y36.9637
G00 Z2.0000
G00 X29.0007 Y38.0717
G01 F60.00
G01 Z-0.0700
G01 F120.00
G01 X29.0007 Y38.0775
G01 X28.9959 Y38.1736
G01 X28.9814 Y38.2716
G01 X28.9573 Y38.3678
G01 X28.9239 Y38.4611
G01 X28.8815 Y38.5507
G01 X28.8306 Y38.6357
G01 X28.7715 Y38.7153
G01 X28.7050 Y38.7888
G01 X28.6315 Y38.8553
G01 X28.5519 Y38.9144
G01 X28.4669 Y38.9653
G01 X28.3773 Y39.0077
G01 X28.2840 Y39.0411
G01 X28.1878 Y39.0652
G01 X28.0898 Y39.0797
G01 X27.9908 Y39.0846
G01 X27.8918 Y39.0797
G01 X27.7938 Y39.0652
G01 X27.6976 Y39.0411
G01 X27.6043 Y39.0077
G01 X27.5147 Y38.9653
G01 X27.4297 Y38.9144
G01 X27.3501 Y38.8553
G01 X27.2766 Y38.7888
G01 X27.2101 Y38.7153
G01 X27.1510 Y38.6357
G01 X27.1001 Y38.5507
G01 X27.0577 Y38.4611
G01 X27.0243 Y38.3678
G01 X27.0002 Y38.2716
G01 X26.9857 Y38.1736
G01 X26.9808 Y38.0746
G01 X26.9857 Y37.9756
G01 X27.0002 Y37.8776
G01 X27.0243 Y37.7814
G01 X27.0577 Y37.6881
G01 X27.1001 Y37.5985
G01 X27.1510 Y37.5135
G01 X27.2101 Y37.4339
G01 X27.2766 Y37.3604
G01 X27.3501 Y37.2939
G01 X27.4297 Y37.2348
G01 X27.5147 Y37.1839
G01 X27.6043 Y37.1415
G01 X27.6976 Y37.1081
G01 X27.7938 Y37.0840
G01 X27.8918 Y37.0695
G01 X27.9908 Y37.0646
G01 X28.0898 Y37.0695
G01 X28.1878 Y37.0840
G01 X28.2840 Y37.1081
G01 X28.3773 Y37.1415
G01 X28.4669 Y37.1839
G01 X28.5519 Y37.2348
G01 X28.6315 Y37.2939
G01 X28.7050 Y37.3604
G01 X28.7715 Y37.4339
G01 X28.8306 Y37.5135
G01 X28.8815 Y37.5985
G01 X28.9239 Y37.6881
G01 X28.9573 Y37.7814
G01 X28.9814 Y37.8776
G01 X28.9959 Y37.9756
G01 X29.0007 Y38.0717
G00 Z2.0000
G00 X29.0607 Y38.0687
G01 F60.00
G01 Z-0.0700
G01 F120.00
G01 X29.0607 Y38.0805
G01 X29.0556 Y38.1795
G01 X29.0402 Y38.2833
G01 X29.0147 Y38.3852
G01 X28.9794 Y38.4841
G01 X28.9345 Y38.5790
G01 X28.8805 Y38.6691
G01 X28.8179 Y38.7534
G01 X28.7474 Y38.8312
G01 X28.6696 Y38.9017
G01 X28.5853 Y38.9643
G01 X28.4952 Y39.0183
G01 X28.4003 Y39.0632
G01 X28.3014 Y39.0985
G01 X28.1995 Y39.1240
G01 X28.0957 Y39.1394
G01 X27.9908 Y39.1446
G01 X27.8859 Y39.1394
G01 X27.7821 Y39.1240
G01 X27.6802 Y39.0985
G01 X27.5813 Y39.0632
G01 X27.4864 Y39.0183
G01 X27.3963 Y38.9643
G01 X27.3120 Y38.9017
G01 X27.2342 Y38.8312
G01 X27.1637 Y38.7534
G01 X27.1011 Y38.6691
G01 X27.0471 Y38.5790
G01 X27.0022 Y38.4841
G01 X26.9669 Y38.3852
G01 X26.9414 Y38.2833
G01 X26.9260 Y38.1795
G01 X26.9208 Y38.0746
G01 X26.9260 Y37.9697
G01 X26.9414 Y37.8659
G01 X26.9669 Y37.7640
G01 X27.0022 Y37.6651
G01 X27.0471 Y37.5702
G01 X27.1011 Y37.4801
G01 X27.1637 Y37.3958
G01 X27.2342 Y37.3180
G01 X27.3120 Y37.2475
G01 X27.3963 Y37.1849
G01 X27.4864 Y37.1309
G01 X27.5813 Y37.0860
G01 X27.6802 Y37.0507
G01 X27.7821 Y37.0252
G01 X27.8859 Y37.0098
G01 X27.9908 Y37.0046
G01 X28.0957 Y37.0098
G01 X28.1995 Y37.0252
G01 X28.3014 Y37.0507
G01 X28.4003 Y37.0860
G01 X28.4952 Y37.1309
G01 X28.5853 Y37.1849
G01 X28.6696 Y37.2475
G01 X28.7474 Y37.3180
G01 X28.8179 Y37.3958
G01 X28.8805 Y37.4801
G01 X28.9345 Y37.5702
G01 X28.9794 Y37.6651
G01 X29.0147 Y37.7640
G01 X29.0402 Y37.8659
G01 X29.0556 Y37.9697
G01 X29.0607 Y38.0687
G00 Z2.0000
G00 X27.8722 Y39.2587
G01 F60.00
G01 Z-0.0700
G01 F120.00
G01 X27.8859 Y39.2597
G01 X27.9790 Y39.2643
G01 X27.9908 Y39.2646
G01 X28.0026 Y39.2643
G01 X28.0957 Y39.2597
G01 X28.1094 Y39.2587
G01 X28.1085 Y39.2794
G01 X28.1085 Y39.4098
G01 X28.1094 Y39.4305
G01 X28.0957 Y39.4295
G01 X28.0026 Y39.4249
G01 X27.9908 Y39.4246
G01 X27.9790 Y39.4249
G01 X27.8859 Y39.4295
G01 X27.8722 Y39.4305
G01 X27.8731 Y39.4098
G01 X27.8731 Y39.2794
G01 X27.8722 Y39.2587
G00 Z2.0000
G00 X27.7867 Y39.1855
G01 F60.00
G01 Z-0.0700
G01 F120.00
G01 X27.8800 Y39.1992
G01 X27.9908 Y39.2046
G01 X28.1016 Y39.1992
G01 X28.1949 Y39.1855
G01 X28.1898 Y39.1945
G01 X28.1839 Y39.2064
G01 X28.1790 Y39.2188
G01 X28.1750 Y39.2314
G01 X28.1720 Y39.2443
G01 X28.1699 Y39.2574
G01 X28.1690 Y39.2662
G01 X28.1685 Y39.2794
G01 X28.1685 Y39.4098
G01 X28.1690 Y39.4230
G01 X28.1699 Y39.4318
G01 X28.1720 Y39.4449
G01 X28.1739 Y39.4535
G01 X28.1790 Y39.4704
G01 X28.1858 Y39.4868
G01 X28.1898 Y39.4947
G01 X28.1949 Y39.5037
G01 X28.1016 Y39.4900
G01 X27.9908 Y39.4846
G01 X27.8800 Y39.4900
G01 X27.7867 Y39.5037
G01 X27.7918 Y39.4947
G01 X27.7977 Y39.4828
G01 X27.8026 Y39.4704
G01 X27.8066 Y39.4578
G01 X27.8096 Y39.4449
G01 X27.8117 Y39.4318
G01 X27.8126 Y39.4230
G01 X27.8131 Y39.4098
G01 X27.8131 Y39.2794
G01 X27.8126 Y39.2662
G01 X27.8117 Y39.2574
G01 X27.8104 Y39.2486
G01 X27.8077 Y39.2357
G01 X27.8026 Y39.2188
G01 X27.7958 Y39.2024
G01 X27.7918 Y39.1945
G01 X27.7867 Y39.1855
G00 Z2.0000
G00 X29.0007 Y40.6117
G01 F60.00
G01 Z-0.0700
G01 F120.00
G01 X29.0007 Y40.6175
G01 X28.9959 Y40.7136
G01 X28.9814 Y40.8116
G01 X28.9573 Y40.9078
G01 X28.9239 Y41.0011
G01 X28.8815 Y41.0907
G01 X28.8306 Y41.1757
G01 X28.7715 Y41.2553
G01 X28.7050 Y41.3288
G01 X28.6315 Y41.3953
G01 X28.5519 Y41.4544
G01 X28.4669 Y41.5053
G01 X28.3773 Y41.5477
G01 X28.2840 Y41.5811
G01 X28.1878 Y41.6052
G01 X28.0898 Y41.6197
G01 X27.9908 Y41.6246
G01 X27.8918 Y41.6197
G01 X27.7938 Y41.6052
G01 X27.6976 Y41.5811
G01 X27.6043 Y41.5477
G01 X27.5147 Y41.5053
G01 X27.4297 Y41.4544
G01 X27.3501 Y41.3953
G01 X27.2766 Y41.3288
G01 X27.2101 Y41.2553
G01 X27.1510 Y41.1757
G01 X27.1001 Y41.0907
G01 X27.0577 Y41.0011
G01 X27.0243 Y40.9078
G01 X27.0002 Y40.8116
G01 X26.9857 Y40.7136
G01 X26.9808 Y40.6146
G01 X26.9857 Y40.5156
G01 X27.0002 Y40.4176
G01 X27.0243 Y40.3214
G01 X27.0577 Y40.2281
G01 X27.1001 Y40.1385
G01 X27.1510 Y40.0535
G01 X27.2101 Y39.9739
G01 X27.2766 Y39.9004
G01 X27.3501 Y39.8339
G01 X27.4297 Y39.7748
G01 X27.5147 Y39.7239
G01 X27.6043 Y39.6815
G01 X27.6976 Y39.6481
G01 X27.7938 Y39.6240
G01 X27.8918 Y39.6095
G01 X27.9908 Y39.6046
G01 X28.0898 Y39.6095
G01 X28.1878 Y39.6240
G01 X28.2840 Y39.6481
G01 X28.3773 Y39.6815
G01 X28.4669 Y39.7239
G01 X28.5519 Y39.7748
G01 X28.6315 Y39.8339
G01 X28.7050 Y39.9004
G01 X28.7715 Y39.9739
G01 X28.8306 Y40.0535
G01 X28.8815 Y40.1385
G01 X28.9239 Y40.2281
G01 X28.9573 Y40.3214
G01 X28.9814 Y40.4176
G01 X28.9959 Y40.5156
G01 X29.0007 Y40.6117
G00 Z2.0000
G00 X29.0607 Y40.6087
G01 F60.00
G01 Z-0.0700
G01 F120.00
G01 X29.0607 Y40.6205
G01 X29.0556 Y40.7195
G01 X29.0402 Y40.8233
G01 X29.0147 Y40.9252
G01 X28.9794 Y41.0241
G01 X28.9345 Y41.1190
G01 X28.8805 Y41.2091
G01 X28.8179 Y41.2934
G01 X28.7474 Y41.3712
G01 X28.6696 Y41.4417
G01 X28.5853 Y41.5043
G01 X28.4952 Y41.5583
G01 X28.4003 Y41.6032
G01 X28.3014 Y41.6385
G01 X28.1995 Y41.6640
G01 X28.0957 Y41.6794
G01 X27.9908 Y41.6846
G01 X27.8859 Y41.6794
G01 X27.7821 Y41.6640
G01 X27.6802 Y41.6385
G01 X27.5813 Y41.6032
G01 X27.4864 Y41.5583
G01 X27.3963 Y41.5043
G01 X27.3120 Y41.4417
G01 X27.2342 Y41.3712
G01 X27.1637 Y41.2934
G01 X27.1011 Y41.2091
G01 X27.0471 Y41.1190
G01 X27.0022 Y41.0241
G01 X26.9669 Y40.9252
G01 X26.9414 Y40.8233
G01 X26.9260 Y40.7195
G01 X26.9208 Y40.6146
G01 X26.9260 Y40.5097
G01 X26.9414 Y40.4059
G01 X26.9669 Y40.3040
G01 X27.0022 Y40.2051
G01 X27.0471 Y40.1102
G01 X27.1011 Y40.0201
G01 X27.1637 Y39.9358
G01 X27.2342 Y39.8580
G01 X27.3120 Y39.7875
G01 X27.3963 Y39.7249
G01 X27.4864 Y39.6709
G01 X27.5813 Y39.6260
G01 X27.6802 Y39.5907
G01 X27.7821 Y39.5652
G01 X27.8859 Y39.5498
G01 X27.9908 Y39.5446
G01 X28.0957 Y39.5498
G01 X28.1995 Y39.5652
G01 X28.3014 Y39.5907
G01 X28.4003 Y39.6260
G01 X28.4952 Y39.6709
G01 X28.5853 Y39.7249
G01 X28.6696 Y39.7875
G01 X28.7474 Y39.8580
G01 X28.8179 Y39.9358
G01 X28.8805 Y40.0201
G01 X28.9345 Y40.1102
G01 X28.9794 Y40.2051
G01 X29.0147 Y40.3040
G01 X29.0402 Y40.4059
G01 X29.0556 Y40.5097
G01 X29.0607 Y40.6087
G00 Z2.0000
G00 X29.0607 Y45.6887
G01 F60.00
G01 Z-0.0700
G01 F120.00
G01 X29.0607 Y45.7005
G01 X29.0556 Y45.7995
G01 X29.0402 Y45.9033
G01 X29.0147 Y46.0052
G01 X28.9794 Y46.1041
G01 X28.9345 Y46.1990
G01 X28.8805 Y46.2891
G01 X28.8179 Y46.3734
G01 X28.7474 Y46.4512
G01 X28.6696 Y46.5217
G01 X28.5853 Y46.5843
G01 X28.4952 Y46.6383
G01 X28.4003 Y46.6832
G01 X28.3014 Y46.7185
G01 X28.1995 Y46.7440
G01 X28.0957 Y46.7594
G01 X27.9908 Y46.7646
G01 X27.8859 Y46.7594
G01 X27.7821 Y46.7440
G01 X27.6802 Y46.7185
G01 X27.5813 Y46.6832
G01 X27.4864 Y46.6383
G01 X27.3963 Y46.5843
G01 X27.3120 Y46.5217
G01 X27.2342 Y46.4512
G01 X27.1637 Y46.3734
G01 X27.1011 Y46.2891
G01 X27.0471 Y46.1990
G01 X27.0022 Y46.1041
G01 X26.9669 Y46.0052
G01 X26.9414 Y45.9033
G01 X26.9260 Y45.7995
G01 X26.9208 Y45.6946
G01 X26.9260 Y45.5897
G01 X26.9414 Y45.4859
G01 X26.9669 Y45.3840
G01 X27.0022 Y45.2851
G01 X27.0471 Y45.1902
G01 X27.1011 Y45.1001
G01 X27.1637 Y45.0158
G01 X27.2342 Y44.9380
G01 X27.3120 Y44.8675
G01 X27.3963 Y44.8049
G01 X27.4864 Y44.7509
G01 X27.5813 Y44.7060
G01 X27.6802 Y44.6707
G01 X27.7821 Y44.6452
G01 X27.8859 Y44.6298
G01 X27.9908 Y44.6246
G01 X28.0957 Y44.6298
G01 X28.1995 Y44.6452
G01 X28.3014 Y44.6707
G01 X28.4003 Y44.7060
G01 X28.4952 Y44.7509
G01 X28.5853 Y44.8049
G01 X28.6696 Y44.8675
G01 X28.7474 Y44.9380
G01 X28.8179 Y45.0158
G01 X28.8805 Y45.1001
G01 X28.9345 Y45.1902
G01 X28.9794 Y45.2851
G01 X29.0147 Y45.3840
G01 X29.0402 Y45.4859
G01 X29.0556 Y45.5897
G01 X29.0607 Y45.6887
G00 Z2.0000
G00 X29.0007 Y45.6917
G01 F60.00
G01 Z-0.0700
G01 F120.00
G01 X29.0007 Y45.6975
G01 X28.9959 Y45.7936
G01 X28.9814 Y45.8916
G01 X28.9573 Y45.9878
G01 X28.9239 Y46.0811
G01 X28.8815 Y46.1707
G01 X28.8306 Y46.2557
G01 X28.7715 Y46.3353
G01 X28.7050 Y46.4088
G01 X28.6315 Y46.4753
G01 X28.5519 Y46.5344
G01 X28.4669 Y46.5853
G01 X28.3773 Y46.6277
G01 X28.2840 Y46.6611
G01 X28.1878 Y46.6852
G01 X28.0898 Y46.6997
G01 X27.9908 Y46.7046
G01 X27.8918 Y46.6997
G01 X27.7938 Y46.6852
G01 X27.6976 Y46.6611
G01 X27.6043 Y46.6277
G01 X27.5147 Y46.5853
G01 X27.4297 Y46.5344
G01 X27.3501 Y46.4753
G01 X27.2766 Y46.4088
G01 X27.2101 Y46.3353
G01 X27.1510 Y46.2557
G01 X27.1001 Y46.1707
G01 X27.0577 Y46.0811
G01 X27.0243 Y45.9878
G01 X27.0002 Y45.8916
G01 X26.9857 Y45.7936
G01 X26.9808 Y45.6946
G01 X26.9857 Y45.5956
G01 X27.0002 Y45.4976
G01 X27.0243 Y45.4014
G01 X27.0577 Y45.3081
G01 X27.1001 Y45.2185
G01 X27.1510 Y45.1335
G01 X27.2101 Y45.0539
G01 X27.2766 Y44.9804
G01 X27.3501 Y44.9139
G01 X27.4297 Y44.8548
G01 X27.5147 Y44.8039
G01 X27.6043 Y44.7615
G01 X27.6976 Y44.7281
G01 X27.7938 Y44.7040
G01 X27.8918 Y44.6895
G01 X27.9908 Y44.6846
G01 X28.0898 Y44.6895
G01 X28.1878 Y44.7040
G01 X28.2840 Y44.7281
G01 X28.3773 Y44.7615
G01 X28.4669 Y44.8039
G01 X28.5519 Y44.8548
G01 X28.6315 Y44.9139
G01 X28.7050 Y44.9804
G01 X28.7715 Y45.0539
G01 X28.8306 Y45.1335
G01 X28.8815 Y45.2185
G01 X28.9239 Y45.3081
G01 X28.9573 Y45.4014
G01 X28.9814 Y45.4976
G01 X28.9959 Y45.5956
G01 X29.0007 Y45.6917
G00 Z2.0000
G00 X27.8722 Y47.0505
G01 F60.00
G01 Z-0.0700
G01 F120.00
G01 X27.8731 Y47.0298
G01 X27.8731 Y46.8994
G01 X27.8722 Y46.8787
G01 X27.8859 Y46.8797
G01 X27.9790 Y46.8843
G01 X27.9908 Y46.8846
G01 X28.0026 Y46.8843
G01 X28.0957 Y46.8797
G01 X28.1094 Y46.8787
G01 X28.1085 Y46.8994
G01 X28.1085 Y47.0298
G01 X28.1094 Y47.0505
G01 X28.0957 Y47.0495
G01 X28.0026 Y47.0449
G01 X27.9908 Y47.0446
G01 X27.9790 Y47.0449
G01 X27.8859 Y47.0495
G01 X27.8722 Y47.0505
G00 Z2.0000
G00 X27.7867 Y47.1237
G01 F60.00
G01 Z-0.0700
G01 F120.00
G01 X27.7918 Y47.1147
G01 X27.7977 Y47.1028
G01 X27.8026 Y47.0904
G01 X27.8066 Y47.0778
G01 X27.8096 Y47.0649
G01 X27.8117 Y47.0518
G01 X27.8126 Y47.0430
G01 X27.8131 Y47.0298
G01 X27.8131 Y46.8994
G01 X27.8126 Y46.8862
G01 X27.8117 Y46.8774
G01 X27.8096 Y46.8643
G01 X27.8077 Y46.8557
G01 X27.8026 Y46.8388
G01 X27.7958 Y46.8224
G01 X27.7918 Y46.8145
G01 X27.7867 Y46.8055
G01 X27.8800 Y46.8192
G01 X27.9908 Y46.8246
G01 X28.1016 Y46.8192
G01 X28.1949 Y46.8055
G01 X28.1898 Y46.8145
G01 X28.1839 Y46.8264
G01 X28.1790 Y46.8388
G01 X28.1750 Y46.8514
G01 X28.1720 Y46.8643
G01 X28.1699 Y46.8774
G01 X28.1690 Y46.8862
G01 X28.1685 Y46.8994
G01 X28.1685 Y47.0298
G01 X28.1690 Y47.0430
G01 X28.1699 Y47.0518
G01 X28.1720 Y47.0649
G01 X28.1739 Y47.0735
G01 X28.1790 Y47.0904
G01 X28.1858 Y47.1068
G01 X28.1898 Y47.1147
